(.../pcb-gcode-3.6.0.4/pcb-gcode.ulp)
(Copyright 2005 - 2012 by John Johnson)
(See readme.txt for licensing terms.)
(This file generated from the board:)
(.../Cart top solution DiodOR/DiodeOR.brd)
(Current profile is .../pcb-gcode-3.6.0.4/profiles/generic.pp  )
(This file generated 2020/03/02 21:34)
(Settings from pcb-machine.h)
(  Tool Size)
(0.3000 )
(Z Axis Settings)
(  High     Up        Down     Drill)
(12.7000 	2.4000 	-0.1000 	-1.7000 )
(spindle on time = 3.0000)
(milling depth = -0.2540)
(text depth = -0.1270)
(tool change at 0.0000 -12.0000 20.0000 )
(feed rate xy = F100.00 )
(feed rate z  = F50.00 )
(Settings from pcb-defaults.h)
(isolate min = 0.0254)
(isolate max = 0.2000)
(isolate step = 0.0762)
(Generated top outlines, top drill, )
(Unit of measure: mm)
(Metric Mode)
G21
(Absolute Coordinates)
G90
G00 X0.0000 Y0.0000 
M03
G04 P3.000000
G00 Z2.400000
G00 X6.0000 Y15.0000 
G01 Z-1.7 F50.00 
G01 Z2.400000
(R2.4000  P1.000000)
(G00 Z2.400000)
G00 X109.0000 Y15.0000 
G01 Z-1.700000
G01 Z2.400000
(G00 Z2.400000)
G00 X23.5055 Y26.9403 
G01 Z-1.700000
G01 Z2.400000
(G00 Z2.400000)
G00 X31.0950 Y27.0173 
G01 Z-1.700000
G01 Z2.400000
(G00 Z2.400000)
G00 X93.2600 Y5.5946 
G01 Z-1.700000
G01 Z2.400000
(G00 Z2.400000)
G00 X93.2600 Y20.8346 
G01 Z-1.700000
G01 Z2.400000
(G00 Z2.400000)
G00 X100.5800 Y5.5946 
G01 Z-1.700000
G01 Z2.400000
(G00 Z2.400000)
G00 X100.5800 Y20.8346 
G01 Z-1.700000
G01 Z2.400000
(G00 Z2.400000)
G00 X14.3300 Y10.9400 
G01 Z-1.700000
G01 Z2.400000
(G00 Z2.400000)
G00 X14.3300 Y26.1800 
G01 Z-1.700000
G01 Z2.400000
(G00 Z2.400000)
G00 X98.7600 Y27.2746 
G01 Z-1.700000
G01 Z2.400000
(G00 Z2.400000)
G00 X91.4100 Y27.2746 
G01 Z-1.700000
G01 Z2.400000
(G00 Z2.400000)
G00 X38.9297 Y11.8503 
G01 Z-1.700000
G01 Z2.400000
(G00 Z2.400000)
G00 X81.7314 Y16.5967 
G01 Z-1.700000
G01 Z2.400000
(G00 Z2.400000)
G00 X81.9618 Y21.5359 
G01 Z-1.700000
G01 Z2.400000
(G00 Z2.400000)
G00 X39.0009 Y7.1247 
G01 Z-1.700000
G01 Z2.400000
(G00 Z2.400000)
G00 X27.9079 Y12.7926 
G01 Z-1.700000
G01 Z2.400000
(G00 Z2.400000)
G00 X27.6777 Y19.2305 
G01 Z-1.700000
G01 Z2.400000
G00 Z2.4000 
G00 X28.0865 Y26.2069 
G01 Z-0.1000 F50.00 
G01 X28.1177 Y26.2069 F100.00 
G01 X28.1381 Y26.1715 
G01 X28.1234 Y26.1800 
G01 X28.1162 Y26.1824 
G01 X28.1095 Y26.1861 
G01 X28.0407 Y26.2081 
G01 X27.9843 Y26.2272 
G01 X28.0865 Y26.2069 
G00 Z2.4000 
G00 X101.8794 Y4.3684 
G01 Z-0.1000 F50.00 
G01 X101.8794 Y6.8208 F100.00 
G01 X101.8474 Y7.0228 
G01 X101.7842 Y7.2173 
G01 X101.6913 Y7.3996 
G01 X101.5711 Y7.5650 
G01 X101.4265 Y7.7096 
G01 X101.3904 Y7.7358 
G01 X101.3904 Y9.7244 
G01 X101.3593 Y9.8810 
G01 X101.2982 Y10.0285 
G01 X101.2095 Y10.1612 
G01 X99.7418 Y11.6289 
G01 X99.6289 Y11.7418 
G01 X99.4962 Y11.8305 
G01 X99.3487 Y11.8916 
G01 X99.1921 Y11.9227 
G01 X90.0325 Y11.9227 
G01 X89.8759 Y11.8916 
G01 X89.7284 Y11.8305 
G01 X89.5957 Y11.7418 
G01 X85.7890 Y7.9351 
G01 X41.9783 Y7.9351 
G01 X41.9060 Y8.0602 
G01 X41.7719 Y8.2350 
G01 X41.6162 Y8.3908 
G01 X41.4414 Y8.5248 
G01 X41.2507 Y8.6350 
G01 X41.0472 Y8.7193 
G01 X40.8344 Y8.7763 
G01 X40.6160 Y8.8050 
G01 X37.3858 Y8.8050 
G01 X37.1675 Y8.7763 
G01 X36.9547 Y8.7193 
G01 X36.7512 Y8.6350 
G01 X36.5604 Y8.5248 
G01 X36.3857 Y8.3908 
G01 X36.2299 Y8.2350 
G01 X36.0958 Y8.0602 
G01 X35.9857 Y7.8695 
G01 X35.9612 Y7.8104 
G01 X35.3357 Y7.8104 
G01 X33.8104 Y9.3357 
G01 X33.8104 Y11.0798 
G01 X33.7793 Y11.2364 
G01 X33.7182 Y11.3839 
G01 X33.6295 Y11.5166 
G01 X31.7240 Y13.4221 
G01 X31.5913 Y13.5107 
G01 X31.4438 Y13.5718 
G01 X31.2872 Y13.6030 
G01 X30.8853 Y13.6030 
G01 X30.8130 Y13.7281 
G01 X30.6789 Y13.9029 
G01 X30.5232 Y14.0586 
G01 X30.3484 Y14.1927 
G01 X30.1577 Y14.3029 
G01 X29.9542 Y14.3872 
G01 X29.7414 Y14.4442 
G01 X29.5230 Y14.4729 
G01 X26.2928 Y14.4729 
G01 X26.0744 Y14.4442 
G01 X25.8617 Y14.3872 
G01 X25.6582 Y14.3029 
G01 X25.4674 Y14.1927 
G01 X25.2927 Y14.0586 
G01 X25.1369 Y13.9029 
G01 X25.0028 Y13.7281 
G01 X24.8927 Y13.5374 
G01 X24.8084 Y13.3339 
G01 X24.7514 Y13.1211 
G01 X24.7226 Y12.9027 
G01 X24.7226 Y12.6824 
G01 X24.7514 Y12.4641 
G01 X24.8084 Y12.2513 
G01 X24.8927 Y12.0478 
G01 X25.0028 Y11.8570 
G01 X25.1369 Y11.6823 
G01 X25.2927 Y11.5265 
G01 X25.4674 Y11.3924 
G01 X25.6582 Y11.2823 
G01 X25.8617 Y11.1980 
G01 X26.0744 Y11.1410 
G01 X26.2928 Y11.1122 
G01 X29.5230 Y11.1122 
G01 X29.7414 Y11.1410 
G01 X29.9542 Y11.1980 
G01 X30.1577 Y11.2823 
G01 X30.3484 Y11.3924 
G01 X30.5232 Y11.5265 
G01 X30.6789 Y11.6823 
G01 X30.8130 Y11.8570 
G01 X30.8803 Y11.9736 
G01 X32.1896 Y10.6643 
G01 X32.1896 Y8.9202 
G01 X32.2207 Y8.7636 
G01 X32.2818 Y8.6161 
G01 X32.3705 Y8.4834 
G01 X34.3705 Y6.4834 
G01 X34.4834 Y6.3705 
G01 X34.6161 Y6.2818 
G01 X34.7636 Y6.2207 
G01 X34.9202 Y6.1896 
G01 X36.0956 Y6.1896 
G01 X36.2299 Y6.0144 
G01 X36.3857 Y5.8586 
G01 X36.5604 Y5.7245 
G01 X36.7512 Y5.6144 
G01 X36.9547 Y5.5301 
G01 X37.1675 Y5.4731 
G01 X37.3858 Y5.4443 
G01 X40.6160 Y5.4443 
G01 X40.8344 Y5.4731 
G01 X41.0472 Y5.5301 
G01 X41.2507 Y5.6144 
G01 X41.4414 Y5.7245 
G01 X41.6162 Y5.8586 
G01 X41.7719 Y6.0144 
G01 X41.9060 Y6.1891 
G01 X41.9783 Y6.3143 
G01 X86.2045 Y6.3143 
G01 X86.3611 Y6.3454 
G01 X86.5086 Y6.4065 
G01 X86.6413 Y6.4952 
G01 X90.4480 Y10.3019 
G01 X98.7766 Y10.3019 
G01 X99.7696 Y9.3089 
G01 X99.7696 Y7.7358 
G01 X99.7335 Y7.7096 
G01 X99.5889 Y7.5650 
G01 X99.4687 Y7.3996 
G01 X99.3759 Y7.2173 
G01 X99.3127 Y7.0228 
G01 X99.2807 Y6.8208 
G01 X99.2807 Y4.3684 
G01 X99.3127 Y4.1664 
G01 X99.3759 Y3.9719 
G01 X99.4687 Y3.7896 
G01 X99.5889 Y3.6242 
G01 X99.7335 Y3.4796 
G01 X99.8990 Y3.3593 
G01 X100.0812 Y3.2665 
G01 X100.2758 Y3.2033 
G01 X100.4778 Y3.1713 
G01 X100.6823 Y3.1713 
G01 X100.8843 Y3.2033 
G01 X101.0788 Y3.2665 
G01 X101.2610 Y3.3593 
G01 X101.4265 Y3.4796 
G01 X101.5711 Y3.6242 
G01 X101.6913 Y3.7896 
G01 X101.7842 Y3.9719 
G01 X101.8474 Y4.1664 
G01 X101.8794 Y4.3684 
G00 Z2.4000 
G00 X101.8794 Y19.6084 
G01 Z-0.1000 F50.00 
G01 X101.8794 Y22.0608 F100.00 
G01 X101.8474 Y22.2628 
G01 X101.7842 Y22.4573 
G01 X101.6913 Y22.6395 
G01 X101.5711 Y22.8050 
G01 X101.4265 Y22.9496 
G01 X101.3904 Y22.9758 
G01 X101.3904 Y23.4998 
G01 X101.3593 Y23.6564 
G01 X101.2982 Y23.8038 
G01 X101.2095 Y23.9366 
G01 X99.5704 Y25.5757 
G01 X99.5704 Y25.5942 
G01 X100.3751 Y25.5942 
G01 X100.5935 Y25.6230 
G01 X100.8063 Y25.6800 
G01 X101.0098 Y25.7643 
G01 X101.2005 Y25.8744 
G01 X101.3753 Y26.0085 
G01 X101.5310 Y26.1643 
G01 X101.6651 Y26.3390 
G01 X101.7753 Y26.5298 
G01 X101.8596 Y26.7333 
G01 X101.9166 Y26.9461 
G01 X101.9453 Y27.1645 
G01 X101.9453 Y27.3847 
G01 X101.9166 Y27.6031 
G01 X101.8596 Y27.8159 
G01 X101.7753 Y28.0194 
G01 X101.6651 Y28.2101 
G01 X101.5310 Y28.3849 
G01 X101.3753 Y28.5407 
G01 X101.2005 Y28.6748 
G01 X101.0098 Y28.7849 
G01 X100.8063 Y28.8692 
G01 X100.5935 Y28.9262 
G01 X100.3751 Y28.9549 
G01 X97.1449 Y28.9549 
G01 X96.9265 Y28.9262 
G01 X96.7138 Y28.8692 
G01 X96.5103 Y28.7849 
G01 X96.3195 Y28.6748 
G01 X96.1448 Y28.5407 
G01 X95.9890 Y28.3849 
G01 X95.8549 Y28.2101 
G01 X95.7448 Y28.0194 
G01 X95.6605 Y27.8159 
G01 X95.6035 Y27.6031 
G01 X95.5747 Y27.3847 
G01 X95.5747 Y27.1645 
G01 X95.6035 Y26.9461 
G01 X95.6605 Y26.7333 
G01 X95.7448 Y26.5298 
G01 X95.8549 Y26.3390 
G01 X95.9890 Y26.1643 
G01 X96.1448 Y26.0085 
G01 X96.3195 Y25.8744 
G01 X96.5103 Y25.7643 
G01 X96.7138 Y25.6800 
G01 X96.9265 Y25.6230 
G01 X97.1449 Y25.5942 
G01 X97.9496 Y25.5942 
G01 X97.9496 Y25.1602 
G01 X97.9808 Y25.0036 
G01 X98.0419 Y24.8561 
G01 X98.1305 Y24.7234 
G01 X99.7696 Y23.0843 
G01 X99.7696 Y22.9758 
G01 X99.7335 Y22.9496 
G01 X99.5889 Y22.8050 
G01 X99.4687 Y22.6395 
G01 X99.3759 Y22.4573 
G01 X99.3127 Y22.2628 
G01 X99.2807 Y22.0608 
G01 X99.2807 Y21.6450 
G01 X94.5594 Y21.6450 
G01 X94.5594 Y22.0608 
G01 X94.5274 Y22.2628 
G01 X94.4642 Y22.4573 
G01 X94.3713 Y22.6395 
G01 X94.2511 Y22.8050 
G01 X94.1065 Y22.9496 
G01 X93.9410 Y23.0698 
G01 X93.7588 Y23.1627 
G01 X93.5643 Y23.2259 
G01 X93.3623 Y23.2579 
G01 X93.1578 Y23.2579 
G01 X92.9558 Y23.2259 
G01 X92.7612 Y23.1627 
G01 X92.5790 Y23.0698 
G01 X92.4135 Y22.9496 
G01 X92.2689 Y22.8050 
G01 X92.1487 Y22.6395 
G01 X92.0559 Y22.4573 
G01 X91.9927 Y22.2628 
G01 X91.9607 Y22.0608 
G01 X91.9607 Y19.6084 
G01 X91.9927 Y19.4064 
G01 X92.0559 Y19.2119 
G01 X92.1487 Y19.0296 
G01 X92.2689 Y18.8642 
G01 X92.4135 Y18.7196 
G01 X92.5790 Y18.5993 
G01 X92.7612 Y18.5065 
G01 X92.9558 Y18.4433 
G01 X93.1578 Y18.4113 
G01 X93.3623 Y18.4113 
G01 X93.5643 Y18.4433 
G01 X93.7588 Y18.5065 
G01 X93.9410 Y18.5993 
G01 X94.1065 Y18.7196 
G01 X94.2511 Y18.8642 
G01 X94.3713 Y19.0296 
G01 X94.4642 Y19.2119 
G01 X94.5274 Y19.4064 
G01 X94.5594 Y19.6084 
G01 X94.5594 Y20.0242 
G01 X99.2807 Y20.0242 
G01 X99.2807 Y19.6084 
G01 X99.3127 Y19.4064 
G01 X99.3759 Y19.2119 
G01 X99.4687 Y19.0296 
G01 X99.5889 Y18.8642 
G01 X99.7335 Y18.7196 
G01 X99.8990 Y18.5993 
G01 X100.0812 Y18.5065 
G01 X100.2758 Y18.4433 
G01 X100.4778 Y18.4113 
G01 X100.6823 Y18.4113 
G01 X100.8843 Y18.4433 
G01 X101.0788 Y18.5065 
G01 X101.2610 Y18.5993 
G01 X101.4265 Y18.7196 
G01 X101.5711 Y18.8642 
G01 X101.6913 Y19.0296 
G01 X101.7842 Y19.2119 
G01 X101.8474 Y19.4064 
G01 X101.8794 Y19.6084 
G00 Z2.4000 
G00 X37.3146 Y10.1699 
G01 Z-0.1000 F50.00 
G01 X40.5448 Y10.1699 F100.00 
G01 X40.7632 Y10.1987 
G01 X40.9760 Y10.2557 
G01 X41.1795 Y10.3400 
G01 X41.3702 Y10.4501 
G01 X41.5450 Y10.5842 
G01 X41.7007 Y10.7400 
G01 X41.8348 Y10.9147 
G01 X41.9450 Y11.1055 
G01 X42.0293 Y11.3090 
G01 X42.0863 Y11.5218 
G01 X42.1150 Y11.7401 
G01 X42.1150 Y11.9604 
G01 X42.0863 Y12.1788 
G01 X42.0293 Y12.3916 
G01 X41.9450 Y12.5951 
G01 X41.8348 Y12.7858 
G01 X41.7007 Y12.9606 
G01 X41.5450 Y13.1163 
G01 X41.3702 Y13.2504 
G01 X41.1795 Y13.3606 
G01 X40.9760 Y13.4449 
G01 X40.7632 Y13.5019 
G01 X40.5448 Y13.5306 
G01 X39.7401 Y13.5306 
G01 X39.7401 Y15.1501 
G01 X39.7090 Y15.3067 
G01 X39.6479 Y15.4541 
G01 X39.5592 Y15.5869 
G01 X35.2861 Y19.8599 
G01 X35.1534 Y19.9486 
G01 X35.0059 Y20.0097 
G01 X34.8494 Y20.0409 
G01 X30.6551 Y20.0409 
G01 X30.5828 Y20.1660 
G01 X30.4487 Y20.3408 
G01 X30.2930 Y20.4965 
G01 X30.1182 Y20.6306 
G01 X29.9275 Y20.7408 
G01 X29.7240 Y20.8250 
G01 X29.5112 Y20.8821 
G01 X29.2928 Y20.9108 
G01 X26.0626 Y20.9108 
G01 X25.8443 Y20.8821 
G01 X25.6315 Y20.8250 
G01 X25.4280 Y20.7408 
G01 X25.2372 Y20.6306 
G01 X25.0625 Y20.4965 
G01 X24.9067 Y20.3408 
G01 X24.7726 Y20.1660 
G01 X24.6625 Y19.9753 
G01 X24.5782 Y19.7718 
G01 X24.5212 Y19.5590 
G01 X24.4924 Y19.3406 
G01 X24.4924 Y19.1203 
G01 X24.5212 Y18.9019 
G01 X24.5782 Y18.6892 
G01 X24.6625 Y18.4857 
G01 X24.7726 Y18.2949 
G01 X24.9067 Y18.1202 
G01 X25.0625 Y17.9644 
G01 X25.2372 Y17.8303 
G01 X25.4280 Y17.7202 
G01 X25.6315 Y17.6359 
G01 X25.8443 Y17.5789 
G01 X26.0626 Y17.5501 
G01 X29.2928 Y17.5501 
G01 X29.5112 Y17.5789 
G01 X29.7240 Y17.6359 
G01 X29.9275 Y17.7202 
G01 X30.1182 Y17.8303 
G01 X30.2930 Y17.9644 
G01 X30.4487 Y18.1202 
G01 X30.5828 Y18.2949 
G01 X30.6551 Y18.4201 
G01 X34.4339 Y18.4201 
G01 X38.1193 Y14.7346 
G01 X38.1193 Y13.5306 
G01 X37.3146 Y13.5306 
G01 X37.0963 Y13.5019 
G01 X36.8835 Y13.4449 
G01 X36.6800 Y13.3606 
G01 X36.4892 Y13.2504 
G01 X36.3145 Y13.1163 
G01 X36.1587 Y12.9606 
G01 X36.0246 Y12.7858 
G01 X35.9145 Y12.5951 
G01 X35.8302 Y12.3916 
G01 X35.7732 Y12.1788 
G01 X35.7444 Y11.9604 
G01 X35.7444 Y11.7401 
G01 X35.7732 Y11.5218 
G01 X35.8302 Y11.3090 
G01 X35.9145 Y11.1055 
G01 X36.0246 Y10.9147 
G01 X36.1587 Y10.7400 
G01 X36.3145 Y10.5842 
G01 X36.4892 Y10.4501 
G01 X36.6800 Y10.3400 
G01 X36.8835 Y10.2557 
G01 X37.0963 Y10.1987 
G01 X37.3146 Y10.1699 
G00 Z2.4000 
G00 X83.3465 Y18.2771 
G01 Z-0.1000 F50.00 
G01 X80.1163 Y18.2771 F100.00 
G01 X79.8979 Y18.2483 
G01 X79.6851 Y18.1913 
G01 X79.4816 Y18.1070 
G01 X79.2909 Y17.9969 
G01 X79.1161 Y17.8628 
G01 X78.9604 Y17.7070 
G01 X78.8263 Y17.5323 
G01 X78.7161 Y17.3415 
G01 X78.6319 Y17.1380 
G01 X78.5748 Y16.9253 
G01 X78.5461 Y16.7069 
G01 X78.5461 Y16.4866 
G01 X78.5748 Y16.2682 
G01 X78.6319 Y16.0554 
G01 X78.7161 Y15.8519 
G01 X78.8263 Y15.6612 
G01 X78.9604 Y15.4864 
G01 X79.1161 Y15.3307 
G01 X79.2909 Y15.1966 
G01 X79.4816 Y15.0864 
G01 X79.6851 Y15.0021 
G01 X79.8979 Y14.9451 
G01 X80.1163 Y14.9164 
G01 X83.3465 Y14.9164 
G01 X83.5649 Y14.9451 
G01 X83.7776 Y15.0021 
G01 X83.9811 Y15.0864 
G01 X84.1719 Y15.1966 
G01 X84.3466 Y15.3307 
G01 X84.5024 Y15.4864 
G01 X84.6365 Y15.6612 
G01 X84.7088 Y15.7863 
G01 X96.5251 Y15.7863 
G01 X103.1896 Y9.1218 
G01 X103.1896 Y3.9867 
G01 X101.6643 Y2.4614 
G01 X20.6847 Y2.4614 
G01 X18.8391 Y4.3069 
G01 X18.8391 Y9.8182 
G01 X18.8080 Y9.9748 
G01 X18.7469 Y10.1222 
G01 X18.6582 Y10.2550 
G01 X18.5453 Y10.3678 
G01 X17.3437 Y11.5695 
G01 X17.2110 Y11.6582 
G01 X17.0635 Y11.7193 
G01 X16.9069 Y11.7504 
G01 X15.6293 Y11.7504 
G01 X15.6293 Y12.1662 
G01 X15.5974 Y12.3682 
G01 X15.5342 Y12.5627 
G01 X15.4413 Y12.7450 
G01 X15.3211 Y12.9104 
G01 X15.1765 Y13.0550 
G01 X15.0110 Y13.1753 
G01 X14.8288 Y13.2681 
G01 X14.6343 Y13.3313 
G01 X14.4323 Y13.3633 
G01 X14.2277 Y13.3633 
G01 X14.0257 Y13.3313 
G01 X13.8312 Y13.2681 
G01 X13.6490 Y13.1753 
G01 X13.4835 Y13.0550 
G01 X13.3389 Y12.9104 
G01 X13.2187 Y12.7450 
G01 X13.1258 Y12.5627 
G01 X13.0626 Y12.3682 
G01 X13.0307 Y12.1662 
G01 X13.0307 Y9.7138 
G01 X13.0626 Y9.5118 
G01 X13.1258 Y9.3173 
G01 X13.2187 Y9.1350 
G01 X13.3389 Y8.9696 
G01 X13.4835 Y8.8250 
G01 X13.6490 Y8.7047 
G01 X13.8312 Y8.6119 
G01 X14.0257 Y8.5487 
G01 X14.2277 Y8.5167 
G01 X14.4323 Y8.5167 
G01 X14.6343 Y8.5487 
G01 X14.8288 Y8.6119 
G01 X15.0110 Y8.7047 
G01 X15.1765 Y8.8250 
G01 X15.3211 Y8.9696 
G01 X15.4413 Y9.1350 
G01 X15.5342 Y9.3173 
G01 X15.5974 Y9.5118 
G01 X15.6293 Y9.7138 
G01 X15.6293 Y10.1296 
G01 X16.4914 Y10.1296 
G01 X17.2183 Y9.4027 
G01 X17.2183 Y3.8914 
G01 X17.2495 Y3.7349 
G01 X17.3106 Y3.5874 
G01 X17.3993 Y3.4547 
G01 X19.7195 Y1.1344 
G01 X19.8324 Y1.0215 
G01 X19.9651 Y0.9328 
G01 X20.1126 Y0.8717 
G01 X20.2692 Y0.8406 
G01 X102.0798 Y0.8406 
G01 X102.2364 Y0.8717 
G01 X102.3839 Y0.9328 
G01 X102.5166 Y1.0215 
G01 X102.6295 Y1.1344 
G01 X104.5166 Y3.0215 
G01 X104.6295 Y3.1344 
G01 X104.7182 Y3.2671 
G01 X104.7793 Y3.4146 
G01 X104.8104 Y3.5712 
G01 X104.8104 Y9.5373 
G01 X104.7793 Y9.6939 
G01 X104.7182 Y9.8414 
G01 X104.6295 Y9.9741 
G01 X104.5166 Y10.0870 
G01 X97.4902 Y17.1133 
G01 X97.3774 Y17.2262 
G01 X97.2446 Y17.3149 
G01 X97.0972 Y17.3760 
G01 X96.9406 Y17.4071 
G01 X84.7088 Y17.4071 
G01 X84.6365 Y17.5323 
G01 X84.5024 Y17.7070 
G01 X84.3466 Y17.8628 
G01 X84.1719 Y17.9969 
G01 X83.9811 Y18.1070 
G01 X83.7776 Y18.1913 
G01 X83.5649 Y18.2483 
G01 X83.3465 Y18.2771 
G00 Z2.4000 
G00 X18.0798 Y22.8104 
G01 Z-0.1000 F50.00 
G01 X17.9202 Y22.8104 F100.00 
G01 X17.7636 Y22.7793 
G01 X17.6161 Y22.7182 
G01 X17.4834 Y22.6295 
G01 X15.4834 Y20.6295 
G01 X15.3705 Y20.5166 
G01 X15.2818 Y20.3839 
G01 X15.2207 Y20.2364 
G01 X15.1896 Y20.0798 
G01 X15.1896 Y14.9202 
G01 X15.2207 Y14.7636 
G01 X15.2818 Y14.6161 
G01 X15.3705 Y14.4834 
G01 X19.5657 Y10.2882 
G01 X19.5657 Y5.5441 
G01 X19.5968 Y5.3875 
G01 X19.6579 Y5.2400 
G01 X19.7466 Y5.1073 
G01 X21.4335 Y3.4204 
G01 X21.5464 Y3.3075 
G01 X21.6791 Y3.2188 
G01 X21.8266 Y3.1577 
G01 X21.9832 Y3.1266 
G01 X88.0168 Y3.1266 
G01 X88.1734 Y3.1577 
G01 X88.3209 Y3.2188 
G01 X88.4536 Y3.3075 
G01 X88.5665 Y3.4204 
G01 X89.9303 Y4.7842 
G01 X91.9607 Y4.7842 
G01 X91.9607 Y4.3684 
G01 X91.9927 Y4.1664 
G01 X92.0559 Y3.9719 
G01 X92.1487 Y3.7896 
G01 X92.2689 Y3.6242 
G01 X92.4135 Y3.4796 
G01 X92.5790 Y3.3593 
G01 X92.7612 Y3.2665 
G01 X92.9558 Y3.2033 
G01 X93.1578 Y3.1713 
G01 X93.3623 Y3.1713 
G01 X93.5643 Y3.2033 
G01 X93.7588 Y3.2665 
G01 X93.9410 Y3.3593 
G01 X94.1065 Y3.4796 
G01 X94.2511 Y3.6242 
G01 X94.3713 Y3.7896 
G01 X94.4642 Y3.9719 
G01 X94.5274 Y4.1664 
G01 X94.5594 Y4.3684 
G01 X94.5594 Y6.8208 
G01 X94.5274 Y7.0228 
G01 X94.4642 Y7.2173 
G01 X94.3713 Y7.3996 
G01 X94.2511 Y7.5650 
G01 X94.1065 Y7.7096 
G01 X93.9410 Y7.8298 
G01 X93.7588 Y7.9227 
G01 X93.5643 Y7.9859 
G01 X93.3623 Y8.0179 
G01 X93.1578 Y8.0179 
G01 X92.9558 Y7.9859 
G01 X92.7612 Y7.9227 
G01 X92.5790 Y7.8298 
G01 X92.4135 Y7.7096 
G01 X92.2689 Y7.5650 
G01 X92.1487 Y7.3996 
G01 X92.0559 Y7.2173 
G01 X91.9927 Y7.0228 
G01 X91.9607 Y6.8208 
G01 X91.9607 Y6.4050 
G01 X89.5148 Y6.4050 
G01 X89.3582 Y6.3738 
G01 X89.2107 Y6.3128 
G01 X89.0780 Y6.2241 
G01 X87.6013 Y4.7474 
G01 X22.3987 Y4.7474 
G01 X21.1865 Y5.9596 
G01 X21.1865 Y10.7037 
G01 X21.1553 Y10.8603 
G01 X21.0943 Y11.0078 
G01 X21.0056 Y11.1405 
G01 X20.8927 Y11.2534 
G01 X16.8104 Y15.3357 
G01 X16.8104 Y19.6643 
G01 X18.3357 Y21.1896 
G01 X22.0798 Y21.1896 
G01 X22.2364 Y21.2207 
G01 X22.3839 Y21.2818 
G01 X22.5166 Y21.3705 
G01 X24.1349 Y22.9889 
G01 X24.2236 Y23.1216 
G01 X24.2847 Y23.2691 
G01 X24.3159 Y23.4256 
G01 X24.3159 Y25.2600 
G01 X25.1205 Y25.2600 
G01 X25.3389 Y25.2887 
G01 X25.5517 Y25.3458 
G01 X25.7552 Y25.4301 
G01 X25.9460 Y25.5402 
G01 X26.1207 Y25.6743 
G01 X26.2765 Y25.8300 
G01 X26.4106 Y26.0048 
G01 X26.5207 Y26.1955 
G01 X26.6050 Y26.3991 
G01 X26.6620 Y26.6118 
G01 X26.6908 Y26.8302 
G01 X26.6908 Y27.0505 
G01 X26.6620 Y27.2689 
G01 X26.6050 Y27.4816 
G01 X26.5207 Y27.6851 
G01 X26.4106 Y27.8759 
G01 X26.2765 Y28.0507 
G01 X26.1207 Y28.2064 
G01 X25.9460 Y28.3405 
G01 X25.7552 Y28.4506 
G01 X25.5517 Y28.5349 
G01 X25.3389 Y28.5919 
G01 X25.1205 Y28.6207 
G01 X21.8904 Y28.6207 
G01 X21.6720 Y28.5919 
G01 X21.4592 Y28.5349 
G01 X21.2557 Y28.4506 
G01 X21.0649 Y28.3405 
G01 X20.8902 Y28.2064 
G01 X20.7344 Y28.0507 
G01 X20.6003 Y27.8759 
G01 X20.5625 Y27.8104 
G01 X17.9202 Y27.8104 
G01 X17.7636 Y27.7793 
G01 X17.6161 Y27.7182 
G01 X17.4834 Y27.6295 
G01 X17.3705 Y27.5166 
G01 X16.8443 Y26.9904 
G01 X15.6293 Y26.9904 
G01 X15.6293 Y27.4062 
G01 X15.5974 Y27.6082 
G01 X15.5342 Y27.8027 
G01 X15.4413 Y27.9850 
G01 X15.3211 Y28.1504 
G01 X15.1765 Y28.2950 
G01 X15.0110 Y28.4153 
G01 X14.8288 Y28.5081 
G01 X14.6343 Y28.5713 
G01 X14.4323 Y28.6033 
G01 X14.2277 Y28.6033 
G01 X14.0257 Y28.5713 
G01 X13.8312 Y28.5081 
G01 X13.6490 Y28.4153 
G01 X13.4835 Y28.2950 
G01 X13.3389 Y28.1504 
G01 X13.2187 Y27.9850 
G01 X13.1258 Y27.8027 
G01 X13.0626 Y27.6082 
G01 X13.0307 Y27.4062 
G01 X13.0307 Y24.9538 
G01 X13.0626 Y24.7518 
G01 X13.1258 Y24.5573 
G01 X13.2187 Y24.3750 
G01 X13.3389 Y24.2096 
G01 X13.4835 Y24.0650 
G01 X13.6490 Y23.9447 
G01 X13.8312 Y23.8519 
G01 X14.0257 Y23.7887 
G01 X14.2277 Y23.7567 
G01 X14.4323 Y23.7567 
G01 X14.6343 Y23.7887 
G01 X14.8288 Y23.8519 
G01 X15.0110 Y23.9447 
G01 X15.1765 Y24.0650 
G01 X15.3211 Y24.2096 
G01 X15.4413 Y24.3750 
G01 X15.5342 Y24.5573 
G01 X15.5974 Y24.7518 
G01 X15.6293 Y24.9538 
G01 X15.6293 Y25.3696 
G01 X17.2598 Y25.3696 
G01 X17.4164 Y25.4007 
G01 X17.5639 Y25.4618 
G01 X17.6966 Y25.5505 
G01 X18.3357 Y26.1896 
G01 X20.4936 Y26.1896 
G01 X20.6003 Y26.0048 
G01 X20.7344 Y25.8300 
G01 X20.8902 Y25.6743 
G01 X21.0649 Y25.5402 
G01 X21.2557 Y25.4301 
G01 X21.4592 Y25.3458 
G01 X21.6720 Y25.2887 
G01 X21.8904 Y25.2600 
G01 X22.6951 Y25.2600 
G01 X22.6951 Y23.8411 
G01 X21.6643 Y22.8104 
G01 X18.0798 Y22.8104 
G00 Z2.4000 
G00 X96.9061 Y12.5879 
G01 Z-0.1000 F50.00 
G01 X97.0538 Y12.6173 F100.00 
G01 X97.0627 Y12.6190 
G01 X97.2102 Y12.6801 
G01 X97.2560 Y12.7107 
G01 X97.3429 Y12.7688 
G01 X97.4558 Y12.8817 
G01 X97.5433 Y13.0127 
G01 X97.6056 Y13.1619 
G01 X97.6367 Y13.3185 
G01 X97.6367 Y13.4781 
G01 X97.6073 Y13.6258 
G01 X97.6056 Y13.6347 
G01 X97.5445 Y13.7822 
G01 X97.5139 Y13.8280 
G01 X97.4558 Y13.9149 
G01 X96.4305 Y14.9402 
G01 X96.2977 Y15.0289 
G01 X96.2935 Y15.0307 
G01 X96.1503 Y15.0900 
G01 X96.0026 Y15.1194 
G01 X95.9937 Y15.1211 
G01 X85.3337 Y15.1211 
G01 X85.1771 Y15.0900 
G01 X85.0567 Y15.0401 
G01 X85.0297 Y15.0289 
G01 X84.8969 Y14.9402 
G01 X84.6765 Y14.7198 
G01 X84.1417 Y14.4110 
G01 X83.5451 Y14.2512 
G01 X79.9176 Y14.2512 
G01 X79.3211 Y14.4110 
G01 X78.7862 Y14.7198 
G01 X78.3495 Y15.1565 
G01 X78.0407 Y15.6914 
G01 X77.8809 Y16.2879 
G01 X77.8809 Y16.9055 
G01 X78.0407 Y17.5021 
G01 X78.3495 Y18.0369 
G01 X78.7862 Y18.4736 
G01 X79.3180 Y18.7807 
G01 X79.3571 Y18.7896 
G01 X79.3710 Y18.7958 
G01 X79.3857 Y18.7997 
G01 X79.4437 Y18.8284 
G01 X79.5028 Y18.8548 
G01 X79.5152 Y18.8636 
G01 X79.5289 Y18.8704 
G01 X79.5802 Y18.9097 
G01 X79.6330 Y18.9472 
G01 X79.6434 Y18.9583 
G01 X79.6555 Y18.9675 
G01 X79.6982 Y19.0162 
G01 X79.7426 Y19.0632 
G01 X79.7507 Y19.0761 
G01 X79.7608 Y19.0875 
G01 X79.7931 Y19.1436 
G01 X79.8275 Y19.1984 
G01 X79.8330 Y19.2126 
G01 X79.8406 Y19.2258 
G01 X79.8614 Y19.2871 
G01 X79.8845 Y19.3475 
G01 X79.8870 Y19.3625 
G01 X79.8919 Y19.3770 
G01 X79.9003 Y19.4411 
G01 X79.9112 Y19.5049 
G01 X79.9108 Y19.5201 
G01 X79.9127 Y19.5352 
G01 X79.9085 Y19.5998 
G01 X79.9067 Y19.6645 
G01 X79.9033 Y19.6793 
G01 X79.9023 Y19.6945 
G01 X79.8856 Y19.7570 
G01 X79.8712 Y19.8201 
G01 X79.8649 Y19.8340 
G01 X79.8610 Y19.8487 
G01 X79.8324 Y19.9067 
G01 X79.8059 Y19.9658 
G01 X79.7971 Y19.9782 
G01 X79.7904 Y19.9919 
G01 X79.9156 Y19.9413 
G01 X80.1283 Y19.8843 
G01 X80.3467 Y19.8556 
G01 X83.5769 Y19.8556 
G01 X83.7953 Y19.8843 
G01 X83.9857 Y19.9353 
G01 X83.9654 Y19.9122 
G01 X83.9445 Y19.8759 
G01 X83.9202 Y19.8417 
G01 X83.9046 Y19.8069 
G01 X83.8856 Y19.7739 
G01 X83.8721 Y19.7342 
G01 X83.8550 Y19.6960 
G01 X83.8465 Y19.6588 
G01 X83.8343 Y19.6227 
G01 X83.8288 Y19.5812 
G01 X83.8195 Y19.5403 
G01 X83.8184 Y19.5022 
G01 X83.8134 Y19.4645 
G01 X83.8162 Y19.4227 
G01 X83.8150 Y19.3808 
G01 X83.8214 Y19.3432 
G01 X83.8239 Y19.3052 
G01 X83.8347 Y19.2647 
G01 X83.8417 Y19.2234 
G01 X83.8553 Y19.1878 
G01 X83.8652 Y19.1510 
G01 X83.8837 Y19.1134 
G01 X83.8987 Y19.0743 
G01 X83.9189 Y19.0420 
G01 X83.9358 Y19.0078 
G01 X83.9613 Y18.9746 
G01 X83.9836 Y18.9391 
G01 X84.0098 Y18.9114 
G01 X84.0330 Y18.8812 
G01 X84.0645 Y18.8535 
G01 X84.0933 Y18.8231 
G01 X84.1243 Y18.8010 
G01 X84.1530 Y18.7759 
G01 X84.1892 Y18.7550 
G01 X84.2234 Y18.7307 
G01 X84.2583 Y18.7151 
G01 X84.6765 Y18.4736 
G01 X84.8969 Y18.2533 
G01 X85.0296 Y18.1646 
G01 X85.0532 Y18.1548 
G01 X85.1771 Y18.1035 
G01 X85.3337 Y18.0723 
G01 X90.5559 Y18.0723 
G01 X90.5824 Y18.0688 
G01 X90.6355 Y18.0723 
G01 X90.6888 Y18.0723 
G01 X90.7150 Y18.0775 
G01 X90.7417 Y18.0793 
G01 X90.7931 Y18.0931 
G01 X90.8454 Y18.1035 
G01 X90.8701 Y18.1137 
G01 X90.8959 Y18.1206 
G01 X90.9437 Y18.1442 
G01 X90.9929 Y18.1646 
G01 X91.0151 Y18.1794 
G01 X91.0390 Y18.1912 
G01 X91.0813 Y18.2237 
G01 X91.1256 Y18.2533 
G01 X91.1445 Y18.2721 
G01 X91.1657 Y18.2884 
G01 X91.2008 Y18.3285 
G01 X91.2385 Y18.3661 
G01 X91.2533 Y18.3883 
G01 X91.2709 Y18.4084 
G01 X91.2976 Y18.4546 
G01 X91.3272 Y18.4989 
G01 X91.3374 Y18.5235 
G01 X91.3508 Y18.5467 
G01 X91.3679 Y18.5971 
G01 X91.3883 Y18.6463 
G01 X91.3935 Y18.6725 
G01 X91.4021 Y18.6978 
G01 X91.4090 Y18.7507 
G01 X91.4194 Y18.8029 
G01 X91.4194 Y18.8296 
G01 X91.4229 Y18.8561 
G01 X91.4194 Y18.9093 
G01 X91.4194 Y18.9625 
G01 X91.4142 Y18.9887 
G01 X91.4125 Y19.0154 
G01 X91.3987 Y19.0669 
G01 X91.3883 Y19.1191 
G01 X91.3781 Y19.1438 
G01 X91.2955 Y19.4520 
G01 X91.2955 Y22.2172 
G01 X91.4293 Y22.7168 
G01 X91.6880 Y23.1648 
G01 X92.0538 Y23.5306 
G01 X92.5017 Y23.7892 
G01 X93.0014 Y23.9231 
G01 X93.5187 Y23.9231 
G01 X94.0183 Y23.7892 
G01 X94.4663 Y23.5306 
G01 X94.8320 Y23.1648 
G01 X95.0650 Y22.7614 
G01 X95.0752 Y22.7367 
G01 X95.1048 Y22.6924 
G01 X95.1314 Y22.6463 
G01 X95.1490 Y22.6262 
G01 X95.1639 Y22.6040 
G01 X95.2015 Y22.5663 
G01 X95.2367 Y22.5262 
G01 X95.2579 Y22.5100 
G01 X95.2767 Y22.4911 
G01 X95.3210 Y22.4615 
G01 X95.3633 Y22.4291 
G01 X95.3873 Y22.4173 
G01 X95.4095 Y22.4024 
G01 X95.4587 Y22.3820 
G01 X95.5065 Y22.3585 
G01 X95.5323 Y22.3516 
G01 X95.5570 Y22.3413 
G01 X95.6092 Y22.3309 
G01 X95.6607 Y22.3171 
G01 X95.6873 Y22.3154 
G01 X95.7135 Y22.3102 
G01 X95.7668 Y22.3102 
G01 X95.8200 Y22.3067 
G01 X95.8465 Y22.3102 
G01 X97.7263 Y22.3102 
G01 X97.8829 Y22.3413 
G01 X98.0304 Y22.4024 
G01 X98.1631 Y22.4911 
G01 X98.2760 Y22.6040 
G01 X98.3647 Y22.7367 
G01 X98.4258 Y22.8842 
G01 X98.4569 Y23.0408 
G01 X98.4569 Y23.2004 
G01 X98.4258 Y23.3570 
G01 X98.3647 Y23.5045 
G01 X98.2760 Y23.6372 
G01 X98.1631 Y23.7501 
G01 X97.9817 Y23.9315 
G01 X97.5091 Y24.4041 
G01 X97.4978 Y24.4312 
G01 X97.4807 Y24.4817 
G01 X97.4674 Y24.5048 
G01 X97.4571 Y24.5295 
G01 X97.4275 Y24.5738 
G01 X97.4009 Y24.6199 
G01 X97.3833 Y24.6400 
G01 X97.3685 Y24.6622 
G01 X97.3308 Y24.6999 
G01 X97.2956 Y24.7399 
G01 X97.2745 Y24.7562 
G01 X97.2556 Y24.7751 
G01 X97.2113 Y24.8047 
G01 X97.1690 Y24.8371 
G01 X97.1451 Y24.8489 
G01 X97.1228 Y24.8638 
G01 X97.0736 Y24.8842 
G01 X97.0258 Y24.9077 
G01 X97.0000 Y24.9146 
G01 X96.9754 Y24.9249 
G01 X96.9231 Y24.9353 
G01 X96.3497 Y25.0889 
G01 X95.8149 Y25.3977 
G01 X95.3782 Y25.8344 
G01 X95.3238 Y25.9286 
G01 X95.3135 Y25.9533 
G01 X95.2839 Y25.9976 
G01 X95.2573 Y26.0438 
G01 X95.2397 Y26.0638 
G01 X95.2248 Y26.0860 
G01 X95.1872 Y26.1237 
G01 X95.1520 Y26.1638 
G01 X95.1308 Y26.1800 
G01 X95.1120 Y26.1989 
G01 X95.0677 Y26.2285 
G01 X95.0254 Y26.2610 
G01 X95.0014 Y26.2728 
G01 X94.9792 Y26.2876 
G01 X94.9300 Y26.3080 
G01 X94.8822 Y26.3316 
G01 X94.8564 Y26.3385 
G01 X94.8317 Y26.3487 
G01 X94.7795 Y26.3591 
G01 X94.7280 Y26.3729 
G01 X94.7014 Y26.3746 
G01 X94.6752 Y26.3798 
G01 X94.6219 Y26.3798 
G01 X94.5687 Y26.3833 
G01 X94.5423 Y26.3798 
G01 X94.5155 Y26.3798 
G01 X94.4633 Y26.3694 
G01 X94.4105 Y26.3625 
G01 X94.3852 Y26.3539 
G01 X94.3590 Y26.3487 
G01 X94.3097 Y26.3283 
G01 X94.3059 Y26.3270 
G01 X94.3151 Y26.3390 
G01 X94.4253 Y26.5298 
G01 X94.5096 Y26.7333 
G01 X94.5666 Y26.9461 
G01 X94.5953 Y27.1645 
G01 X94.5953 Y27.3847 
G01 X94.5666 Y27.6031 
G01 X94.5096 Y27.8159 
G01 X94.4253 Y28.0194 
G01 X94.3151 Y28.2101 
G01 X94.1810 Y28.3849 
G01 X94.0253 Y28.5407 
G01 X93.8505 Y28.6748 
G01 X93.6598 Y28.7849 
G01 X93.4563 Y28.8692 
G01 X93.2435 Y28.9262 
G01 X93.0251 Y28.9549 
G01 X89.7949 Y28.9549 
G01 X89.5765 Y28.9262 
G01 X89.3638 Y28.8692 
G01 X89.1603 Y28.7849 
G01 X88.9695 Y28.6748 
G01 X88.8548 Y28.5867 
G01 X88.8629 Y28.6274 
G01 X88.8755 Y28.6713 
G01 X88.8784 Y28.7055 
G01 X88.8851 Y28.7392 
G01 X88.8851 Y28.7849 
G01 X88.8890 Y28.8304 
G01 X88.8851 Y28.8645 
G01 X88.8851 Y28.8988 
G01 X88.8762 Y28.9436 
G01 X88.8711 Y28.9890 
G01 X88.8607 Y29.0217 
G01 X88.8540 Y29.0554 
G01 X88.8365 Y29.0976 
G01 X88.8226 Y29.1411 
G01 X88.8060 Y29.1712 
G01 X88.7929 Y29.2029 
G01 X88.7675 Y29.2409 
G01 X88.7454 Y29.2809 
G01 X88.7232 Y29.3071 
G01 X88.7042 Y29.3356 
G01 X88.6719 Y29.3679 
G01 X88.6424 Y29.4028 
G01 X88.6156 Y29.4242 
G01 X88.5913 Y29.4485 
G01 X88.5533 Y29.4739 
G01 X88.5176 Y29.5024 
G01 X88.4871 Y29.5181 
G01 X88.4586 Y29.5372 
G01 X88.4164 Y29.5547 
G01 X88.3758 Y29.5756 
G01 X88.3428 Y29.5851 
G01 X88.3111 Y29.5983 
G01 X88.2663 Y29.6072 
G01 X88.2224 Y29.6198 
G01 X88.1882 Y29.6227 
G01 X88.1545 Y29.6294 
G01 X88.1088 Y29.6294 
G01 X88.0633 Y29.6332 
G01 X88.0292 Y29.6294 
G01 X34.2144 Y29.6294 
G01 X34.1688 Y29.6332 
G01 X34.1347 Y29.6294 
G01 X34.1005 Y29.6294 
G01 X34.0556 Y29.6205 
G01 X34.0101 Y29.6153 
G01 X33.9775 Y29.6049 
G01 X33.9439 Y29.5983 
G01 X33.9017 Y29.5807 
G01 X33.8581 Y29.5668 
G01 X33.8281 Y29.5503 
G01 X33.7965 Y29.5372 
G01 X33.7584 Y29.5117 
G01 X33.7184 Y29.4896 
G01 X33.6922 Y29.4675 
G01 X33.6637 Y29.4485 
G01 X33.6314 Y29.4161 
G01 X33.5964 Y29.3866 
G01 X33.5751 Y29.3598 
G01 X33.5508 Y29.3356 
G01 X33.5254 Y29.2976 
G01 X33.4969 Y29.2618 
G01 X33.4812 Y29.2313 
G01 X33.4622 Y29.2029 
G01 X33.4446 Y29.1606 
G01 X33.4236 Y29.1199 
G01 X33.4142 Y29.0870 
G01 X33.4011 Y29.0554 
G01 X33.3921 Y29.0105 
G01 X33.3795 Y28.9665 
G01 X33.3766 Y28.9324 
G01 X33.3699 Y28.8988 
G01 X33.3699 Y28.8531 
G01 X33.3661 Y28.8075 
G01 X33.3699 Y28.7734 
G01 X33.3699 Y28.7392 
G01 X33.3788 Y28.6943 
G01 X33.3840 Y28.6488 
G01 X33.3944 Y28.6162 
G01 X33.4011 Y28.5826 
G01 X33.4186 Y28.5403 
G01 X33.4325 Y28.4967 
G01 X33.4485 Y28.4677 
G01 X33.3448 Y28.5276 
G01 X33.1413 Y28.6119 
G01 X32.9285 Y28.6689 
G01 X32.7101 Y28.6976 
G01 X29.4800 Y28.6976 
G01 X29.2616 Y28.6689 
G01 X29.0488 Y28.6119 
G01 X28.8453 Y28.5276 
G01 X28.6545 Y28.4175 
G01 X28.4798 Y28.2834 
G01 X28.3240 Y28.1276 
G01 X28.1899 Y27.9529 
G01 X28.1177 Y27.8277 
G01 X28.0865 Y27.8277 
G01 X27.9300 Y27.7966 
G01 X27.7825 Y27.7355 
G01 X27.6498 Y27.6468 
G01 X27.5369 Y27.5339 
G01 X27.4482 Y27.4012 
G01 X27.3871 Y27.2537 
G01 X27.3560 Y27.0971 
G01 X27.3560 Y26.9375 
G01 X27.3871 Y26.7809 
G01 X27.4482 Y26.6334 
G01 X27.5369 Y26.5007 
G01 X27.6498 Y26.3878 
G01 X27.7825 Y26.2991 
G01 X27.9300 Y26.2380 
G01 X27.9336 Y26.2373 
G01 X27.8856 Y26.2427 
G01 X27.8140 Y26.2521 
G01 X27.8064 Y26.2516 
G01 X27.7988 Y26.2525 
G01 X27.7268 Y26.2464 
G01 X27.6547 Y26.2417 
G01 X27.6473 Y26.2397 
G01 X27.6397 Y26.2391 
G01 X27.5703 Y26.2191 
G01 X27.5005 Y26.2004 
G01 X27.4937 Y26.1970 
G01 X27.4863 Y26.1949 
G01 X27.4222 Y26.1618 
G01 X27.3573 Y26.1298 
G01 X27.3513 Y26.1251 
G01 X27.3445 Y26.1216 
G01 X27.2881 Y26.0766 
G01 X27.2307 Y26.0326 
G01 X27.2257 Y26.0269 
G01 X27.2197 Y26.0221 
G01 X27.1731 Y25.9669 
G01 X27.1254 Y25.9126 
G01 X27.1216 Y25.9060 
G01 X27.1167 Y25.9002 
G01 X27.0817 Y25.8369 
G01 X26.8873 Y25.5001 
G01 X26.4506 Y25.0634 
G01 X25.9158 Y24.7546 
G01 X25.6073 Y24.6720 
G01 X25.5551 Y24.6616 
G01 X25.5304 Y24.6514 
G01 X25.5046 Y24.6445 
G01 X25.4568 Y24.6209 
G01 X25.4076 Y24.6005 
G01 X25.3854 Y24.5857 
G01 X25.3614 Y24.5739 
G01 X25.3192 Y24.5414 
G01 X25.2749 Y24.5118 
G01 X25.2560 Y24.4930 
G01 X25.2348 Y24.4767 
G01 X25.1996 Y24.4366 
G01 X25.1620 Y24.3989 
G01 X25.1471 Y24.3767 
G01 X25.1295 Y24.3567 
G01 X25.1029 Y24.3105 
G01 X25.0733 Y24.2662 
G01 X25.0631 Y24.2415 
G01 X25.0497 Y24.2184 
G01 X25.0326 Y24.1680 
G01 X25.0122 Y24.1187 
G01 X25.0070 Y24.0925 
G01 X24.9984 Y24.0673 
G01 X24.9915 Y24.0144 
G01 X24.9811 Y23.9622 
G01 X24.9811 Y23.9355 
G01 X24.9776 Y23.9090 
G01 X24.9811 Y23.8558 
G01 X24.9811 Y23.2119 
G01 X24.7578 Y22.6730 
G01 X24.7445 Y22.6498 
G01 X24.7273 Y22.5994 
G01 X24.7069 Y22.5502 
G01 X24.7017 Y22.5240 
G01 X24.6931 Y22.4987 
G01 X24.6862 Y22.4458 
G01 X24.6758 Y22.3936 
G01 X24.6758 Y22.3669 
G01 X24.6723 Y22.3404 
G01 X24.6758 Y22.2873 
G01 X24.6758 Y22.2340 
G01 X24.6810 Y22.2078 
G01 X24.6827 Y22.1811 
G01 X24.6965 Y22.1296 
G01 X24.7069 Y22.0774 
G01 X24.7171 Y22.0527 
G01 X24.7241 Y22.0269 
G01 X24.7476 Y21.9791 
G01 X24.7680 Y21.9299 
G01 X24.7829 Y21.9077 
G01 X24.7947 Y21.8838 
G01 X24.8271 Y21.8415 
G01 X24.8567 Y21.7972 
G01 X24.8756 Y21.7783 
G01 X24.8918 Y21.7571 
G01 X24.9319 Y21.7220 
G01 X24.9696 Y21.6843 
G01 X24.9918 Y21.6695 
G01 X25.0119 Y21.6518 
G01 X25.0580 Y21.6252 
G01 X25.1023 Y21.5956 
G01 X25.1270 Y21.5854 
G01 X25.1501 Y21.5720 
G01 X25.2006 Y21.5549 
G01 X25.2498 Y21.5345 
G01 X25.2760 Y21.5293 
G01 X25.3013 Y21.5207 
G01 X25.3541 Y21.5138 
G01 X25.4064 Y21.5034 
G01 X25.4331 Y21.5034 
G01 X25.4595 Y21.4999 
G01 X25.5127 Y21.5034 
G01 X25.5660 Y21.5034 
G01 X25.5922 Y21.5086 
G01 X25.6188 Y21.5103 
G01 X25.6703 Y21.5241 
G01 X25.7226 Y21.5345 
G01 X25.7472 Y21.5447 
G01 X25.8640 Y21.5760 
G01 X29.4915 Y21.5760 
G01 X30.0880 Y21.4162 
G01 X30.6229 Y21.1074 
G01 X30.8433 Y20.8870 
G01 X30.9760 Y20.7983 
G01 X31.1235 Y20.7372 
G01 X31.2800 Y20.7061 
G01 X35.0631 Y20.7061 
G01 X35.6054 Y20.4814 
G01 X40.1807 Y15.9061 
G01 X40.4053 Y15.3638 
G01 X40.4053 Y14.9348 
G01 X40.4018 Y14.8816 
G01 X40.4053 Y14.8552 
G01 X40.4053 Y14.8285 
G01 X40.4157 Y14.7762 
G01 X40.4227 Y14.7234 
G01 X40.4313 Y14.6981 
G01 X40.4365 Y14.6719 
G01 X40.4569 Y14.6227 
G01 X40.4740 Y14.5722 
G01 X40.4873 Y14.5491 
G01 X40.4976 Y14.5244 
G01 X40.5272 Y14.4801 
G01 X40.5538 Y14.4339 
G01 X40.5714 Y14.4139 
G01 X40.5862 Y14.3917 
G01 X40.6239 Y14.3540 
G01 X40.6591 Y14.3139 
G01 X40.6803 Y14.2977 
G01 X40.6991 Y14.2788 
G01 X40.7434 Y14.2492 
G01 X40.7857 Y14.2167 
G01 X40.8097 Y14.2049 
G01 X40.8319 Y14.1901 
G01 X40.8811 Y14.1697 
G01 X40.9289 Y14.1461 
G01 X40.9547 Y14.1392 
G01 X40.9793 Y14.1290 
G01 X41.0316 Y14.1186 
G01 X41.3400 Y14.0360 
G01 X41.8749 Y13.7272 
G01 X42.3116 Y13.2905 
G01 X42.6204 Y12.7556 
G01 X42.7802 Y12.1591 
G01 X42.7802 Y11.5415 
G01 X42.6204 Y10.9449 
G01 X42.3116 Y10.4101 
G01 X41.9412 Y10.0397 
G01 X41.8808 Y9.9492 
G01 X41.8525 Y9.9070 
G01 X41.8175 Y9.8223 
G01 X41.7914 Y9.7595 
G01 X41.7603 Y9.6029 
G01 X41.7603 Y9.4433 
G01 X41.7661 Y9.4139 
G01 X41.7914 Y9.2867 
G01 X41.8279 Y9.1985 
G01 X41.8525 Y9.1392 
G01 X41.8873 Y9.0871 
G01 X41.9412 Y9.0065 
G01 X42.0541 Y8.8936 
G01 X42.1665 Y8.7812 
G01 X42.2992 Y8.6925 
G01 X42.4467 Y8.6314 
G01 X42.6033 Y8.6003 
G01 X85.2576 Y8.6003 
G01 X85.4142 Y8.6314 
G01 X85.5617 Y8.6925 
G01 X85.6944 Y8.7812 
G01 X85.8073 Y8.8941 
G01 X89.2764 Y12.3633 
G01 X89.8188 Y12.5879 
G01 X96.9061 Y12.5879 
G00 Z2.4000 
G00 X26.0576 Y17.4739 
G01 Z-0.1000 F50.00 
G01 X29.2978 Y17.4739 F100.00 
G01 X29.5261 Y17.5040 
G01 X29.7485 Y17.5636 
G01 X29.9612 Y17.6517 
G01 X30.1607 Y17.7668 
G01 X30.3433 Y17.9070 
G01 X30.5062 Y18.0698 
G01 X30.6463 Y18.2525 
G01 X30.6991 Y18.3439 
G01 X34.4023 Y18.3439 
G01 X38.0431 Y14.7030 
G01 X38.0431 Y13.6068 
G01 X37.3096 Y13.6068 
G01 X37.0814 Y13.5768 
G01 X36.8589 Y13.5172 
G01 X36.6462 Y13.4291 
G01 X36.4468 Y13.3139 
G01 X36.2641 Y13.1738 
G01 X36.1013 Y13.0109 
G01 X35.9611 Y12.8283 
G01 X35.8460 Y12.6288 
G01 X35.7579 Y12.4161 
G01 X35.6983 Y12.1937 
G01 X35.6682 Y11.9654 
G01 X35.6682 Y11.7351 
G01 X35.6983 Y11.5069 
G01 X35.7579 Y11.2844 
G01 X35.8460 Y11.0717 
G01 X35.9611 Y10.8723 
G01 X36.1013 Y10.6896 
G01 X36.2641 Y10.5268 
G01 X36.4468 Y10.3866 
G01 X36.6462 Y10.2715 
G01 X36.8589 Y10.1834 
G01 X37.0814 Y10.1238 
G01 X37.3096 Y10.0937 
G01 X40.5498 Y10.0937 
G01 X40.7781 Y10.1238 
G01 X41.0005 Y10.1834 
G01 X41.2133 Y10.2715 
G01 X41.4127 Y10.3866 
G01 X41.5953 Y10.5268 
G01 X41.7582 Y10.6896 
G01 X41.8983 Y10.8723 
G01 X42.0135 Y11.0717 
G01 X42.1016 Y11.2844 
G01 X42.1612 Y11.5069 
G01 X42.1912 Y11.7351 
G01 X42.1912 Y11.9654 
G01 X42.1612 Y12.1937 
G01 X42.1016 Y12.4161 
G01 X42.0135 Y12.6288 
G01 X41.8983 Y12.8283 
G01 X41.7582 Y13.0109 
G01 X41.5953 Y13.1738 
G01 X41.4127 Y13.3139 
G01 X41.2133 Y13.4291 
G01 X41.0005 Y13.5172 
G01 X40.7781 Y13.5768 
G01 X40.5498 Y13.6068 
G01 X39.8163 Y13.6068 
G01 X39.8163 Y15.1576 
G01 X39.7823 Y15.3289 
G01 X39.7154 Y15.4902 
G01 X39.6184 Y15.6354 
G01 X35.3347 Y19.9191 
G01 X35.1895 Y20.0162 
G01 X35.0281 Y20.0830 
G01 X34.8569 Y20.1171 
G01 X30.6991 Y20.1171 
G01 X30.6463 Y20.2084 
G01 X30.5062 Y20.3911 
G01 X30.3433 Y20.5539 
G01 X30.1607 Y20.6941 
G01 X29.9612 Y20.8092 
G01 X29.7485 Y20.8974 
G01 X29.5261 Y20.9570 
G01 X29.2978 Y20.9870 
G01 X26.0576 Y20.9870 
G01 X25.8294 Y20.9570 
G01 X25.6069 Y20.8974 
G01 X25.3942 Y20.8092 
G01 X25.1948 Y20.6941 
G01 X25.0121 Y20.5539 
G01 X24.8493 Y20.3911 
G01 X24.7091 Y20.2084 
G01 X24.5940 Y20.0090 
G01 X24.5059 Y19.7963 
G01 X24.4463 Y19.5739 
G01 X24.4162 Y19.3456 
G01 X24.4162 Y19.1153 
G01 X24.4463 Y18.8870 
G01 X24.5059 Y18.6646 
G01 X24.5940 Y18.4519 
G01 X24.7091 Y18.2525 
G01 X24.8493 Y18.0698 
G01 X25.0121 Y17.9070 
G01 X25.1948 Y17.7668 
G01 X25.3942 Y17.6517 
G01 X25.6069 Y17.5636 
G01 X25.8294 Y17.5040 
G01 X26.0576 Y17.4739 
G00 Z2.4000 
G00 X15.7055 Y9.7078 
G01 Z-0.1000 F50.00 
G01 X15.7055 Y10.0534 F100.00 
G01 X16.4599 Y10.0534 
G01 X17.1421 Y9.3711 
G01 X17.1421 Y3.8839 
G01 X17.1762 Y3.7126 
G01 X17.2430 Y3.5513 
G01 X17.3401 Y3.4061 
G01 X19.6603 Y1.0858 
G01 X19.7838 Y0.9623 
G01 X19.9290 Y0.8653 
G01 X20.0904 Y0.7985 
G01 X20.2617 Y0.7644 
G01 X102.0873 Y0.7644 
G01 X102.2586 Y0.7985 
G01 X102.4200 Y0.8653 
G01 X102.5652 Y0.9623 
G01 X102.6887 Y1.0858 
G01 X104.5652 Y2.9623 
G01 X104.6887 Y3.0858 
G01 X104.7857 Y3.2310 
G01 X104.8525 Y3.3924 
G01 X104.8866 Y3.5637 
G01 X104.8866 Y9.5448 
G01 X104.8525 Y9.7161 
G01 X104.7857 Y9.8775 
G01 X104.6887 Y10.0227 
G01 X104.5652 Y10.1462 
G01 X97.5494 Y17.1619 
G01 X97.4259 Y17.2854 
G01 X97.2807 Y17.3824 
G01 X97.1194 Y17.4493 
G01 X96.9481 Y17.4833 
G01 X84.7527 Y17.4833 
G01 X84.7000 Y17.5747 
G01 X84.5598 Y17.7574 
G01 X84.3970 Y17.9202 
G01 X84.2143 Y18.0604 
G01 X84.0149 Y18.1755 
G01 X83.8022 Y18.2636 
G01 X83.5798 Y18.3232 
G01 X83.3515 Y18.3533 
G01 X80.1113 Y18.3533 
G01 X79.8830 Y18.3232 
G01 X79.6606 Y18.2636 
G01 X79.4479 Y18.1755 
G01 X79.2485 Y18.0604 
G01 X79.0658 Y17.9202 
G01 X78.9030 Y17.7574 
G01 X78.7628 Y17.5747 
G01 X78.6477 Y17.3753 
G01 X78.5595 Y17.1626 
G01 X78.4999 Y16.9402 
G01 X78.4699 Y16.7119 
G01 X78.4699 Y16.4816 
G01 X78.4999 Y16.2533 
G01 X78.5595 Y16.0309 
G01 X78.6477 Y15.8182 
G01 X78.7628 Y15.6188 
G01 X78.9030 Y15.4361 
G01 X79.0658 Y15.2733 
G01 X79.2485 Y15.1331 
G01 X79.4479 Y15.0180 
G01 X79.6606 Y14.9298 
G01 X79.8830 Y14.8702 
G01 X80.1113 Y14.8402 
G01 X83.3515 Y14.8402 
G01 X83.5798 Y14.8702 
G01 X83.8022 Y14.9298 
G01 X84.0149 Y15.0180 
G01 X84.2143 Y15.1331 
G01 X84.3970 Y15.2733 
G01 X84.5598 Y15.4361 
G01 X84.7000 Y15.6188 
G01 X84.7527 Y15.7101 
G01 X96.4935 Y15.7101 
G01 X103.1134 Y9.0903 
G01 X103.1134 Y4.0182 
G01 X101.6328 Y2.5376 
G01 X20.7162 Y2.5376 
G01 X18.9153 Y4.3385 
G01 X18.9153 Y9.8257 
G01 X18.8813 Y9.9970 
G01 X18.8144 Y10.1583 
G01 X18.7174 Y10.3035 
G01 X18.5939 Y10.4270 
G01 X17.3923 Y11.6287 
G01 X17.2471 Y11.7257 
G01 X17.0857 Y11.7925 
G01 X16.9144 Y11.8266 
G01 X15.7055 Y11.8266 
G01 X15.7055 Y12.1722 
G01 X15.6717 Y12.3861 
G01 X15.6048 Y12.5920 
G01 X15.5065 Y12.7849 
G01 X15.3792 Y12.9601 
G01 X15.2261 Y13.1132 
G01 X15.0509 Y13.2404 
G01 X14.8580 Y13.3387 
G01 X14.6521 Y13.4056 
G01 X14.4383 Y13.4395 
G01 X14.2217 Y13.4395 
G01 X14.0079 Y13.4056 
G01 X13.8020 Y13.3387 
G01 X13.6091 Y13.2404 
G01 X13.4339 Y13.1132 
G01 X13.2808 Y12.9601 
G01 X13.1535 Y12.7849 
G01 X13.0552 Y12.5920 
G01 X12.9883 Y12.3861 
G01 X12.9545 Y12.1722 
G01 X12.9545 Y9.7078 
G01 X12.9883 Y9.4939 
G01 X13.0552 Y9.2880 
G01 X13.1535 Y9.0951 
G01 X13.2808 Y8.9199 
G01 X13.4339 Y8.7668 
G01 X13.6091 Y8.6396 
G01 X13.8020 Y8.5413 
G01 X14.0079 Y8.4744 
G01 X14.2217 Y8.4405 
G01 X14.4383 Y8.4405 
G01 X14.6521 Y8.4744 
G01 X14.8580 Y8.5413 
G01 X15.0509 Y8.6396 
G01 X15.2261 Y8.7668 
G01 X15.3792 Y8.9199 
G01 X15.5065 Y9.0951 
G01 X15.6048 Y9.2880 
G01 X15.6717 Y9.4939 
G01 X15.7055 Y9.7078 
G00 Z2.4000 
G00 X101.9556 Y19.6024 
G01 Z-0.1000 F50.00 
G01 X101.9556 Y22.0668 F100.00 
G01 X101.9217 Y22.2807 
G01 X101.8548 Y22.4866 
G01 X101.7565 Y22.6795 
G01 X101.6292 Y22.8547 
G01 X101.4761 Y23.0078 
G01 X101.4666 Y23.0147 
G01 X101.4666 Y23.5073 
G01 X101.4325 Y23.6786 
G01 X101.3657 Y23.8399 
G01 X101.2687 Y23.9852 
G01 X99.7358 Y25.5180 
G01 X100.3801 Y25.5180 
G01 X100.6084 Y25.5481 
G01 X100.8308 Y25.6077 
G01 X101.0435 Y25.6958 
G01 X101.2429 Y25.8109 
G01 X101.4256 Y25.9511 
G01 X101.5884 Y26.1139 
G01 X101.7286 Y26.2966 
G01 X101.8437 Y26.4960 
G01 X101.9319 Y26.7088 
G01 X101.9915 Y26.9312 
G01 X102.0215 Y27.1595 
G01 X102.0215 Y27.3897 
G01 X101.9915 Y27.6180 
G01 X101.9319 Y27.8404 
G01 X101.8437 Y28.0532 
G01 X101.7286 Y28.2526 
G01 X101.5884 Y28.4352 
G01 X101.4256 Y28.5981 
G01 X101.2429 Y28.7382 
G01 X101.0435 Y28.8534 
G01 X100.8308 Y28.9415 
G01 X100.6084 Y29.0011 
G01 X100.3801 Y29.0311 
G01 X97.1399 Y29.0311 
G01 X96.9116 Y29.0011 
G01 X96.6892 Y28.9415 
G01 X96.4765 Y28.8534 
G01 X96.2771 Y28.7382 
G01 X96.0944 Y28.5981 
G01 X95.9316 Y28.4352 
G01 X95.7914 Y28.2526 
G01 X95.6763 Y28.0532 
G01 X95.5882 Y27.8404 
G01 X95.5286 Y27.6180 
G01 X95.4985 Y27.3897 
G01 X95.4985 Y27.1595 
G01 X95.5286 Y26.9312 
G01 X95.5882 Y26.7088 
G01 X95.6763 Y26.4960 
G01 X95.7914 Y26.2966 
G01 X95.9316 Y26.1139 
G01 X96.0944 Y25.9511 
G01 X96.2771 Y25.8109 
G01 X96.4765 Y25.6958 
G01 X96.6892 Y25.6077 
G01 X96.9116 Y25.5481 
G01 X97.1399 Y25.5180 
G01 X97.8734 Y25.5180 
G01 X97.8734 Y25.1527 
G01 X97.9075 Y24.9814 
G01 X97.9743 Y24.8200 
G01 X98.0714 Y24.6748 
G01 X99.6934 Y23.0527 
G01 X99.6934 Y23.0147 
G01 X99.6839 Y23.0078 
G01 X99.5308 Y22.8547 
G01 X99.4035 Y22.6795 
G01 X99.3052 Y22.4866 
G01 X99.2383 Y22.2807 
G01 X99.2045 Y22.0668 
G01 X99.2045 Y21.7212 
G01 X94.6356 Y21.7212 
G01 X94.6356 Y22.0668 
G01 X94.6017 Y22.2807 
G01 X94.5348 Y22.4866 
G01 X94.4365 Y22.6795 
G01 X94.3092 Y22.8547 
G01 X94.1561 Y23.0078 
G01 X93.9810 Y23.1350 
G01 X93.7880 Y23.2333 
G01 X93.5821 Y23.3002 
G01 X93.3683 Y23.3341 
G01 X93.1518 Y23.3341 
G01 X92.9379 Y23.3002 
G01 X92.7320 Y23.2333 
G01 X92.5391 Y23.1350 
G01 X92.3639 Y23.0078 
G01 X92.2108 Y22.8547 
G01 X92.0835 Y22.6795 
G01 X91.9852 Y22.4866 
G01 X91.9183 Y22.2807 
G01 X91.8845 Y22.0668 
G01 X91.8845 Y19.6024 
G01 X91.9183 Y19.3885 
G01 X91.9852 Y19.1826 
G01 X92.0835 Y18.9897 
G01 X92.2108 Y18.8145 
G01 X92.3639 Y18.6614 
G01 X92.5391 Y18.5342 
G01 X92.7320 Y18.4359 
G01 X92.9379 Y18.3690 
G01 X93.1518 Y18.3351 
G01 X93.3683 Y18.3351 
G01 X93.5821 Y18.3690 
G01 X93.7880 Y18.4359 
G01 X93.9810 Y18.5342 
G01 X94.1561 Y18.6614 
G01 X94.3092 Y18.8145 
G01 X94.4365 Y18.9897 
G01 X94.5348 Y19.1826 
G01 X94.6017 Y19.3885 
G01 X94.6356 Y19.6024 
G01 X94.6356 Y19.9480 
G01 X99.2045 Y19.9480 
G01 X99.2045 Y19.6024 
G01 X99.2383 Y19.3885 
G01 X99.3052 Y19.1826 
G01 X99.4035 Y18.9897 
G01 X99.5308 Y18.8145 
G01 X99.6839 Y18.6614 
G01 X99.8591 Y18.5342 
G01 X100.0520 Y18.4359 
G01 X100.2579 Y18.3690 
G01 X100.4718 Y18.3351 
G01 X100.6883 Y18.3351 
G01 X100.9021 Y18.3690 
G01 X101.1080 Y18.4359 
G01 X101.3010 Y18.5342 
G01 X101.4761 Y18.6614 
G01 X101.6292 Y18.8145 
G01 X101.7565 Y18.9897 
G01 X101.8548 Y19.1826 
G01 X101.9217 Y19.3885 
G01 X101.9556 Y19.6024 
G00 Z2.4000 
G00 X101.9556 Y4.3624 
G01 Z-0.1000 F50.00 
G01 X101.9556 Y6.8268 F100.00 
G01 X101.9217 Y7.0407 
G01 X101.8548 Y7.2466 
G01 X101.7565 Y7.4395 
G01 X101.6292 Y7.6147 
G01 X101.4761 Y7.7678 
G01 X101.4666 Y7.7747 
G01 X101.4666 Y9.7319 
G01 X101.4325 Y9.9032 
G01 X101.3657 Y10.0646 
G01 X101.2687 Y10.2098 
G01 X99.8010 Y11.6775 
G01 X99.6775 Y11.8010 
G01 X99.5323 Y11.8980 
G01 X99.3709 Y11.9648 
G01 X99.1996 Y11.9989 
G01 X90.0250 Y11.9989 
G01 X89.8537 Y11.9648 
G01 X89.6923 Y11.8980 
G01 X89.5471 Y11.8010 
G01 X85.7574 Y8.0113 
G01 X42.0223 Y8.0113 
G01 X41.9695 Y8.1027 
G01 X41.8294 Y8.2853 
G01 X41.6665 Y8.4482 
G01 X41.4839 Y8.5883 
G01 X41.2844 Y8.7035 
G01 X41.0717 Y8.7916 
G01 X40.8493 Y8.8512 
G01 X40.6210 Y8.8812 
G01 X37.3808 Y8.8812 
G01 X37.1526 Y8.8512 
G01 X36.9301 Y8.7916 
G01 X36.7174 Y8.7035 
G01 X36.5180 Y8.5883 
G01 X36.3353 Y8.4482 
G01 X36.1725 Y8.2853 
G01 X36.0323 Y8.1027 
G01 X35.9172 Y7.9033 
G01 X35.9103 Y7.8866 
G01 X35.3672 Y7.8866 
G01 X33.8866 Y9.3672 
G01 X33.8866 Y11.0873 
G01 X33.8525 Y11.2586 
G01 X33.7857 Y11.4200 
G01 X33.6887 Y11.5652 
G01 X31.7726 Y13.4812 
G01 X31.6274 Y13.5783 
G01 X31.4660 Y13.6451 
G01 X31.2947 Y13.6792 
G01 X30.9293 Y13.6792 
G01 X30.8765 Y13.7706 
G01 X30.7363 Y13.9532 
G01 X30.5735 Y14.1161 
G01 X30.3909 Y14.2562 
G01 X30.1914 Y14.3714 
G01 X29.9787 Y14.4595 
G01 X29.7563 Y14.5191 
G01 X29.5280 Y14.5491 
G01 X26.2878 Y14.5491 
G01 X26.0595 Y14.5191 
G01 X25.8371 Y14.4595 
G01 X25.6244 Y14.3714 
G01 X25.4250 Y14.2562 
G01 X25.2423 Y14.1161 
G01 X25.0795 Y13.9532 
G01 X24.9393 Y13.7706 
G01 X24.8242 Y13.5712 
G01 X24.7361 Y13.3584 
G01 X24.6765 Y13.1360 
G01 X24.6464 Y12.9077 
G01 X24.6464 Y12.6774 
G01 X24.6765 Y12.4492 
G01 X24.7361 Y12.2267 
G01 X24.8242 Y12.0140 
G01 X24.9393 Y11.8146 
G01 X25.0795 Y11.6319 
G01 X25.2423 Y11.4691 
G01 X25.4250 Y11.3289 
G01 X25.6244 Y11.2138 
G01 X25.8371 Y11.1257 
G01 X26.0595 Y11.0661 
G01 X26.2878 Y11.0360 
G01 X29.5280 Y11.0360 
G01 X29.7563 Y11.0661 
G01 X29.9787 Y11.1257 
G01 X30.1914 Y11.2138 
G01 X30.3909 Y11.3289 
G01 X30.5735 Y11.4691 
G01 X30.7363 Y11.6319 
G01 X30.8765 Y11.8146 
G01 X30.8967 Y11.8495 
G01 X32.1134 Y10.6328 
G01 X32.1134 Y8.9127 
G01 X32.1475 Y8.7414 
G01 X32.2143 Y8.5800 
G01 X32.3113 Y8.4348 
G01 X34.3113 Y6.4348 
G01 X34.4348 Y6.3113 
G01 X34.5800 Y6.2143 
G01 X34.7414 Y6.1475 
G01 X34.9127 Y6.1134 
G01 X36.0579 Y6.1134 
G01 X36.1725 Y5.9640 
G01 X36.3353 Y5.8012 
G01 X36.5180 Y5.6610 
G01 X36.7174 Y5.5459 
G01 X36.9301 Y5.4578 
G01 X37.1526 Y5.3982 
G01 X37.3808 Y5.3681 
G01 X40.6210 Y5.3681 
G01 X40.8493 Y5.3982 
G01 X41.0717 Y5.4578 
G01 X41.2844 Y5.5459 
G01 X41.4839 Y5.6610 
G01 X41.6665 Y5.8012 
G01 X41.8294 Y5.9640 
G01 X41.9695 Y6.1467 
G01 X42.0223 Y6.2381 
G01 X86.2120 Y6.2381 
G01 X86.3833 Y6.2722 
G01 X86.5447 Y6.3390 
G01 X86.6899 Y6.4360 
G01 X90.4795 Y10.2257 
G01 X98.7451 Y10.2257 
G01 X99.6934 Y9.2774 
G01 X99.6934 Y7.7747 
G01 X99.6839 Y7.7678 
G01 X99.5308 Y7.6147 
G01 X99.4035 Y7.4395 
G01 X99.3052 Y7.2466 
G01 X99.2383 Y7.0407 
G01 X99.2045 Y6.8268 
G01 X99.2045 Y4.3624 
G01 X99.2383 Y4.1485 
G01 X99.3052 Y3.9426 
G01 X99.4035 Y3.7497 
G01 X99.5308 Y3.5745 
G01 X99.6839 Y3.4214 
G01 X99.8591 Y3.2942 
G01 X100.0520 Y3.1959 
G01 X100.2579 Y3.1290 
G01 X100.4718 Y3.0951 
G01 X100.6883 Y3.0951 
G01 X100.9021 Y3.1290 
G01 X101.1080 Y3.1959 
G01 X101.3010 Y3.2942 
G01 X101.4761 Y3.4214 
G01 X101.6292 Y3.5745 
G01 X101.7565 Y3.7497 
G01 X101.8548 Y3.9426 
G01 X101.9217 Y4.1485 
G01 X101.9556 Y4.3624 
G00 Z2.4000 
G00 X18.0873 Y22.8866 
G01 Z-0.1000 F50.00 
G01 X17.9127 Y22.8866 F100.00 
G01 X17.7414 Y22.8525 
G01 X17.5800 Y22.7857 
G01 X17.4348 Y22.6887 
G01 X15.4348 Y20.6887 
G01 X15.3113 Y20.5652 
G01 X15.2143 Y20.4200 
G01 X15.1475 Y20.2586 
G01 X15.1134 Y20.0873 
G01 X15.1134 Y14.9127 
G01 X15.1475 Y14.7414 
G01 X15.2143 Y14.5800 
G01 X15.3113 Y14.4348 
G01 X19.4895 Y10.2567 
G01 X19.4895 Y5.5366 
G01 X19.5236 Y5.3653 
G01 X19.5904 Y5.2039 
G01 X19.6874 Y5.0587 
G01 X21.3743 Y3.3718 
G01 X21.4978 Y3.2483 
G01 X21.6430 Y3.1513 
G01 X21.8044 Y3.0845 
G01 X21.9757 Y3.0504 
G01 X88.0243 Y3.0504 
G01 X88.1956 Y3.0845 
G01 X88.3570 Y3.1513 
G01 X88.5022 Y3.2483 
G01 X88.6257 Y3.3718 
G01 X89.9618 Y4.7080 
G01 X91.8845 Y4.7080 
G01 X91.8845 Y4.3624 
G01 X91.9183 Y4.1485 
G01 X91.9852 Y3.9426 
G01 X92.0835 Y3.7497 
G01 X92.2108 Y3.5745 
G01 X92.3639 Y3.4214 
G01 X92.5391 Y3.2942 
G01 X92.7320 Y3.1959 
G01 X92.9379 Y3.1290 
G01 X93.1518 Y3.0951 
G01 X93.3683 Y3.0951 
G01 X93.5821 Y3.1290 
G01 X93.7880 Y3.1959 
G01 X93.9810 Y3.2942 
G01 X94.1561 Y3.4214 
G01 X94.3092 Y3.5745 
G01 X94.4365 Y3.7497 
G01 X94.5348 Y3.9426 
G01 X94.6017 Y4.1485 
G01 X94.6356 Y4.3624 
G01 X94.6356 Y6.8268 
G01 X94.6017 Y7.0407 
G01 X94.5348 Y7.2466 
G01 X94.4365 Y7.4395 
G01 X94.3092 Y7.6147 
G01 X94.1561 Y7.7678 
G01 X93.9810 Y7.8950 
G01 X93.7880 Y7.9933 
G01 X93.5821 Y8.0602 
G01 X93.3683 Y8.0941 
G01 X93.1518 Y8.0941 
G01 X92.9379 Y8.0602 
G01 X92.7320 Y7.9933 
G01 X92.5391 Y7.8950 
G01 X92.3639 Y7.7678 
G01 X92.2108 Y7.6147 
G01 X92.0835 Y7.4395 
G01 X91.9852 Y7.2466 
G01 X91.9183 Y7.0407 
G01 X91.8845 Y6.8268 
G01 X91.8845 Y6.4812 
G01 X89.5073 Y6.4812 
G01 X89.3360 Y6.4471 
G01 X89.1746 Y6.3803 
G01 X89.0294 Y6.2833 
G01 X87.5698 Y4.8236 
G01 X22.4302 Y4.8236 
G01 X21.2627 Y5.9911 
G01 X21.2627 Y10.7112 
G01 X21.2286 Y10.8825 
G01 X21.1618 Y11.0439 
G01 X21.0648 Y11.1891 
G01 X20.9413 Y11.3126 
G01 X16.8866 Y15.3672 
G01 X16.8866 Y19.6328 
G01 X18.3672 Y21.1134 
G01 X22.0873 Y21.1134 
G01 X22.2586 Y21.1475 
G01 X22.4200 Y21.2143 
G01 X22.5652 Y21.3113 
G01 X24.1941 Y22.9403 
G01 X24.2911 Y23.0855 
G01 X24.3580 Y23.2468 
G01 X24.3921 Y23.4181 
G01 X24.3921 Y25.1838 
G01 X25.1255 Y25.1838 
G01 X25.3538 Y25.2139 
G01 X25.5762 Y25.2734 
G01 X25.7890 Y25.3616 
G01 X25.9884 Y25.4767 
G01 X26.1711 Y25.6169 
G01 X26.3339 Y25.7797 
G01 X26.4741 Y25.9624 
G01 X26.5892 Y26.1618 
G01 X26.6773 Y26.3745 
G01 X26.7369 Y26.5969 
G01 X26.7670 Y26.8252 
G01 X26.7670 Y27.0555 
G01 X26.7369 Y27.2838 
G01 X26.6773 Y27.5062 
G01 X26.5892 Y27.7189 
G01 X26.4741 Y27.9183 
G01 X26.3339 Y28.1010 
G01 X26.1711 Y28.2638 
G01 X25.9884 Y28.4040 
G01 X25.7890 Y28.5191 
G01 X25.5762 Y28.6072 
G01 X25.3538 Y28.6668 
G01 X25.1255 Y28.6969 
G01 X21.8854 Y28.6969 
G01 X21.6571 Y28.6668 
G01 X21.4347 Y28.6072 
G01 X21.2219 Y28.5191 
G01 X21.0225 Y28.4040 
G01 X20.8398 Y28.2638 
G01 X20.6770 Y28.1010 
G01 X20.5369 Y27.9183 
G01 X20.5185 Y27.8866 
G01 X17.9127 Y27.8866 
G01 X17.7414 Y27.8525 
G01 X17.5800 Y27.7857 
G01 X17.4348 Y27.6887 
G01 X17.3113 Y27.5652 
G01 X16.8128 Y27.0666 
G01 X15.7055 Y27.0666 
G01 X15.7055 Y27.4122 
G01 X15.6717 Y27.6261 
G01 X15.6048 Y27.8320 
G01 X15.5065 Y28.0249 
G01 X15.3792 Y28.2001 
G01 X15.2261 Y28.3532 
G01 X15.0509 Y28.4804 
G01 X14.8580 Y28.5787 
G01 X14.6521 Y28.6456 
G01 X14.4383 Y28.6795 
G01 X14.2217 Y28.6795 
G01 X14.0079 Y28.6456 
G01 X13.8020 Y28.5787 
G01 X13.6091 Y28.4804 
G01 X13.4339 Y28.3532 
G01 X13.2808 Y28.2001 
G01 X13.1535 Y28.0249 
G01 X13.0552 Y27.8320 
G01 X12.9883 Y27.6261 
G01 X12.9545 Y27.4122 
G01 X12.9545 Y24.9478 
G01 X12.9883 Y24.7339 
G01 X13.0552 Y24.5280 
G01 X13.1535 Y24.3351 
G01 X13.2808 Y24.1599 
G01 X13.4339 Y24.0068 
G01 X13.6091 Y23.8796 
G01 X13.8020 Y23.7813 
G01 X14.0079 Y23.7144 
G01 X14.2217 Y23.6805 
G01 X14.4383 Y23.6805 
G01 X14.6521 Y23.7144 
G01 X14.8580 Y23.7813 
G01 X15.0509 Y23.8796 
G01 X15.2261 Y24.0068 
G01 X15.3792 Y24.1599 
G01 X15.5065 Y24.3351 
G01 X15.6048 Y24.5280 
G01 X15.6717 Y24.7339 
G01 X15.7055 Y24.9478 
G01 X15.7055 Y25.2934 
G01 X17.2673 Y25.2934 
G01 X17.4386 Y25.3275 
G01 X17.6000 Y25.3943 
G01 X17.7452 Y25.4913 
G01 X18.3672 Y26.1134 
G01 X20.4497 Y26.1134 
G01 X20.5369 Y25.9624 
G01 X20.6770 Y25.7797 
G01 X20.8398 Y25.6169 
G01 X21.0225 Y25.4767 
G01 X21.2219 Y25.3616 
G01 X21.4347 Y25.2734 
G01 X21.6571 Y25.2139 
G01 X21.8854 Y25.1838 
G01 X22.6189 Y25.1838 
G01 X22.6189 Y23.8727 
G01 X21.6328 Y22.8866 
G01 X18.0873 Y22.8866 
G00 Z2.4000 
G00 X96.9136 Y12.5117 
G01 Z-0.1000 F50.00 
G01 X97.0849 Y12.5458 F100.00 
G01 X97.2416 Y12.6107 
G01 X97.2463 Y12.6126 
G01 X97.3915 Y12.7096 
G01 X97.5150 Y12.8331 
G01 X97.5189 Y12.8389 
G01 X97.6120 Y12.9783 
G01 X97.6775 Y13.1364 
G01 X97.6788 Y13.1397 
G01 X97.7129 Y13.3110 
G01 X97.7129 Y13.4856 
G01 X97.6788 Y13.6569 
G01 X97.6139 Y13.8136 
G01 X97.6120 Y13.8183 
G01 X97.5150 Y13.9635 
G01 X97.3915 Y14.0870 
G01 X96.4791 Y14.9994 
G01 X96.3338 Y15.0964 
G01 X96.1725 Y15.1633 
G01 X96.0012 Y15.1973 
G01 X85.3262 Y15.1973 
G01 X85.1549 Y15.1633 
G01 X84.9936 Y15.0964 
G01 X84.8483 Y14.9994 
G01 X84.6297 Y14.7808 
G01 X84.1123 Y14.4820 
G01 X83.5351 Y14.3274 
G01 X79.9277 Y14.3274 
G01 X79.3505 Y14.4820 
G01 X78.8330 Y14.7808 
G01 X78.4105 Y15.2033 
G01 X78.1117 Y15.7208 
G01 X77.9571 Y16.2980 
G01 X77.9571 Y16.8955 
G01 X78.1117 Y17.4727 
G01 X78.4105 Y17.9901 
G01 X78.8330 Y18.4127 
G01 X79.3462 Y18.7089 
G01 X79.3813 Y18.7170 
G01 X79.3966 Y18.7238 
G01 X79.4127 Y18.7281 
G01 X79.4761 Y18.7594 
G01 X79.5408 Y18.7883 
G01 X79.5543 Y18.7980 
G01 X79.5693 Y18.8053 
G01 X79.6255 Y18.8484 
G01 X79.6832 Y18.8894 
G01 X79.6946 Y18.9015 
G01 X79.7079 Y18.9116 
G01 X79.7545 Y18.9649 
G01 X79.8031 Y19.0163 
G01 X79.8120 Y19.0304 
G01 X79.8230 Y19.0429 
G01 X79.8584 Y19.1043 
G01 X79.8961 Y19.1642 
G01 X79.9020 Y19.1798 
G01 X79.9103 Y19.1942 
G01 X79.9331 Y19.2612 
G01 X79.9583 Y19.3273 
G01 X79.9611 Y19.3438 
G01 X79.9665 Y19.3596 
G01 X79.9757 Y19.4297 
G01 X79.9876 Y19.4995 
G01 X79.9871 Y19.5162 
G01 X79.9893 Y19.5327 
G01 X79.9846 Y19.6033 
G01 X79.9827 Y19.6741 
G01 X79.9789 Y19.6904 
G01 X79.9778 Y19.7070 
G01 X79.9595 Y19.7753 
G01 X79.9438 Y19.8444 
G01 X79.9384 Y19.8563 
G01 X80.1134 Y19.8094 
G01 X80.3417 Y19.7794 
G01 X83.5819 Y19.7794 
G01 X83.8102 Y19.8094 
G01 X83.8195 Y19.8119 
G01 X83.8158 Y19.8055 
G01 X83.8011 Y19.7621 
G01 X83.7824 Y19.7202 
G01 X83.7731 Y19.6796 
G01 X83.7597 Y19.6401 
G01 X83.7537 Y19.5947 
G01 X83.7435 Y19.5500 
G01 X83.7423 Y19.5083 
G01 X83.7369 Y19.4670 
G01 X83.7399 Y19.4212 
G01 X83.7386 Y19.3754 
G01 X83.7456 Y19.3343 
G01 X83.7483 Y19.2927 
G01 X83.7602 Y19.2484 
G01 X83.7679 Y19.2032 
G01 X83.7827 Y19.1643 
G01 X83.7935 Y19.1240 
G01 X83.8138 Y19.0829 
G01 X83.8301 Y19.0401 
G01 X83.8523 Y19.0048 
G01 X83.8708 Y18.9674 
G01 X83.8987 Y18.9310 
G01 X83.9231 Y18.8922 
G01 X83.9517 Y18.8619 
G01 X83.9771 Y18.8288 
G01 X84.0116 Y18.7986 
G01 X84.0430 Y18.7653 
G01 X84.0770 Y18.7412 
G01 X84.1084 Y18.7137 
G01 X84.1481 Y18.6908 
G01 X84.1855 Y18.6642 
G01 X84.2235 Y18.6472 
G01 X84.6297 Y18.4127 
G01 X84.8483 Y18.1941 
G01 X84.9936 Y18.0970 
G01 X85.1549 Y18.0302 
G01 X85.3262 Y17.9961 
G01 X90.5509 Y17.9961 
G01 X90.5799 Y17.9923 
G01 X90.6380 Y17.9961 
G01 X90.6963 Y17.9961 
G01 X90.7250 Y18.0018 
G01 X90.7541 Y18.0037 
G01 X90.8105 Y18.0188 
G01 X90.8676 Y18.0302 
G01 X90.8946 Y18.0414 
G01 X90.9228 Y18.0489 
G01 X90.9751 Y18.0747 
G01 X91.0290 Y18.0970 
G01 X91.0533 Y18.1133 
G01 X91.0795 Y18.1262 
G01 X91.1257 Y18.1617 
G01 X91.1742 Y18.1941 
G01 X91.1948 Y18.2147 
G01 X91.2180 Y18.2325 
G01 X91.2565 Y18.2763 
G01 X91.2977 Y18.3176 
G01 X91.3139 Y18.3418 
G01 X91.3332 Y18.3638 
G01 X91.3623 Y18.4143 
G01 X91.3947 Y18.4628 
G01 X91.4059 Y18.4898 
G01 X91.4205 Y18.5151 
G01 X91.4392 Y18.5703 
G01 X91.4615 Y18.6241 
G01 X91.4672 Y18.6528 
G01 X91.4766 Y18.6804 
G01 X91.4842 Y18.7382 
G01 X91.4956 Y18.7954 
G01 X91.4956 Y18.8246 
G01 X91.4994 Y18.8536 
G01 X91.4956 Y18.9118 
G01 X91.4956 Y18.9701 
G01 X91.4899 Y18.9987 
G01 X91.4880 Y19.0279 
G01 X91.4729 Y19.0842 
G01 X91.4615 Y19.1413 
G01 X91.4504 Y19.1683 
G01 X91.3717 Y19.4620 
G01 X91.3717 Y22.2072 
G01 X91.5004 Y22.6874 
G01 X91.7490 Y23.1180 
G01 X92.1005 Y23.4696 
G01 X92.5311 Y23.7182 
G01 X93.0114 Y23.8469 
G01 X93.5086 Y23.8469 
G01 X93.9889 Y23.7182 
G01 X94.4195 Y23.4696 
G01 X94.7711 Y23.1180 
G01 X94.9965 Y22.7276 
G01 X95.0076 Y22.7006 
G01 X95.0400 Y22.6522 
G01 X95.0692 Y22.6017 
G01 X95.0885 Y22.5797 
G01 X95.1047 Y22.5554 
G01 X95.1459 Y22.5142 
G01 X95.1843 Y22.4704 
G01 X95.2075 Y22.4526 
G01 X95.2282 Y22.4319 
G01 X95.2767 Y22.3995 
G01 X95.3229 Y22.3640 
G01 X95.3491 Y22.3511 
G01 X95.3734 Y22.3349 
G01 X95.4272 Y22.3126 
G01 X95.4795 Y22.2868 
G01 X95.5077 Y22.2792 
G01 X95.5347 Y22.2681 
G01 X95.5919 Y22.2567 
G01 X95.6482 Y22.2416 
G01 X95.6774 Y22.2397 
G01 X95.7060 Y22.2340 
G01 X95.7643 Y22.2340 
G01 X95.8225 Y22.2302 
G01 X95.8514 Y22.2340 
G01 X97.7338 Y22.2340 
G01 X97.9051 Y22.2681 
G01 X98.0665 Y22.3349 
G01 X98.2117 Y22.4319 
G01 X98.3352 Y22.5554 
G01 X98.4322 Y22.7006 
G01 X98.4990 Y22.8620 
G01 X98.5331 Y23.0333 
G01 X98.5331 Y23.2079 
G01 X98.4990 Y23.3792 
G01 X98.4322 Y23.5406 
G01 X98.3352 Y23.6858 
G01 X98.2117 Y23.8093 
G01 X98.0303 Y23.9907 
G01 X97.5737 Y24.4473 
G01 X97.5692 Y24.4581 
G01 X97.5505 Y24.5133 
G01 X97.5358 Y24.5386 
G01 X97.5247 Y24.5656 
G01 X97.4923 Y24.6140 
G01 X97.4631 Y24.6645 
G01 X97.4439 Y24.6865 
G01 X97.4276 Y24.7108 
G01 X97.3864 Y24.7520 
G01 X97.3480 Y24.7958 
G01 X97.3248 Y24.8136 
G01 X97.3042 Y24.8343 
G01 X97.2557 Y24.8667 
G01 X97.2094 Y24.9021 
G01 X97.1832 Y24.9151 
G01 X97.1589 Y24.9313 
G01 X97.1051 Y24.9536 
G01 X97.0528 Y24.9794 
G01 X97.0246 Y24.9869 
G01 X96.9976 Y24.9981 
G01 X96.9404 Y25.0095 
G01 X96.3791 Y25.1599 
G01 X95.8616 Y25.4587 
G01 X95.4391 Y25.8812 
G01 X95.3922 Y25.9624 
G01 X95.3811 Y25.9894 
G01 X95.3487 Y26.0379 
G01 X95.3195 Y26.0884 
G01 X95.3003 Y26.1103 
G01 X95.2840 Y26.1346 
G01 X95.2428 Y26.1758 
G01 X95.2044 Y26.2197 
G01 X95.1812 Y26.2374 
G01 X95.1605 Y26.2581 
G01 X95.1121 Y26.2905 
G01 X95.0658 Y26.3260 
G01 X95.0396 Y26.3389 
G01 X95.0153 Y26.3551 
G01 X94.9615 Y26.3774 
G01 X94.9092 Y26.4032 
G01 X94.8810 Y26.4108 
G01 X94.8540 Y26.4220 
G01 X94.7968 Y26.4333 
G01 X94.7405 Y26.4484 
G01 X94.7113 Y26.4503 
G01 X94.6827 Y26.4560 
G01 X94.6244 Y26.4560 
G01 X94.5662 Y26.4598 
G01 X94.5373 Y26.4560 
G01 X94.5080 Y26.4560 
G01 X94.4658 Y26.4476 
G01 X94.4937 Y26.4960 
G01 X94.5819 Y26.7088 
G01 X94.6415 Y26.9312 
G01 X94.6715 Y27.1595 
G01 X94.6715 Y27.3897 
G01 X94.6415 Y27.6180 
G01 X94.5819 Y27.8404 
G01 X94.4937 Y28.0532 
G01 X94.3786 Y28.2526 
G01 X94.2384 Y28.4352 
G01 X94.0756 Y28.5981 
G01 X93.8929 Y28.7382 
G01 X93.6935 Y28.8534 
G01 X93.4808 Y28.9415 
G01 X93.2584 Y29.0011 
G01 X93.0301 Y29.0311 
G01 X89.7899 Y29.0311 
G01 X89.5616 Y29.0011 
G01 X89.3392 Y28.9415 
G01 X89.1265 Y28.8534 
G01 X88.9613 Y28.7580 
G01 X88.9613 Y28.7817 
G01 X88.9655 Y28.8315 
G01 X88.9613 Y28.8688 
G01 X88.9613 Y28.9063 
G01 X88.9516 Y28.9553 
G01 X88.9460 Y29.0050 
G01 X88.9346 Y29.0408 
G01 X88.9272 Y29.0776 
G01 X88.9081 Y29.1238 
G01 X88.8929 Y29.1714 
G01 X88.8748 Y29.2043 
G01 X88.8604 Y29.2390 
G01 X88.8326 Y29.2805 
G01 X88.8085 Y29.3243 
G01 X88.7842 Y29.3530 
G01 X88.7634 Y29.3842 
G01 X88.7280 Y29.4195 
G01 X88.6958 Y29.4577 
G01 X88.6664 Y29.4811 
G01 X88.6399 Y29.5077 
G01 X88.5983 Y29.5354 
G01 X88.5592 Y29.5666 
G01 X88.5259 Y29.5838 
G01 X88.4947 Y29.6047 
G01 X88.4485 Y29.6238 
G01 X88.4041 Y29.6468 
G01 X88.3680 Y29.6572 
G01 X88.3333 Y29.6715 
G01 X88.2843 Y29.6813 
G01 X88.2363 Y29.6951 
G01 X88.1989 Y29.6983 
G01 X88.1620 Y29.7056 
G01 X88.1121 Y29.7056 
G01 X88.0622 Y29.7098 
G01 X88.0249 Y29.7056 
G01 X34.2176 Y29.7056 
G01 X34.1677 Y29.7098 
G01 X34.1305 Y29.7056 
G01 X34.0930 Y29.7056 
G01 X34.0439 Y29.6958 
G01 X33.9941 Y29.6902 
G01 X33.9584 Y29.6788 
G01 X33.9217 Y29.6715 
G01 X33.8755 Y29.6524 
G01 X33.8278 Y29.6372 
G01 X33.7950 Y29.6190 
G01 X33.7604 Y29.6047 
G01 X33.7187 Y29.5769 
G01 X33.6749 Y29.5527 
G01 X33.6463 Y29.5285 
G01 X33.6151 Y29.5077 
G01 X33.5798 Y29.4723 
G01 X33.5415 Y29.4400 
G01 X33.5181 Y29.4107 
G01 X33.4916 Y29.3842 
G01 X33.4638 Y29.3425 
G01 X33.4326 Y29.3034 
G01 X33.4154 Y29.2701 
G01 X33.3946 Y29.2390 
G01 X33.3755 Y29.1927 
G01 X33.3525 Y29.1482 
G01 X33.3421 Y29.1122 
G01 X33.3278 Y29.0776 
G01 X33.3180 Y29.0285 
G01 X33.3042 Y28.9804 
G01 X33.3010 Y28.9431 
G01 X33.2937 Y28.9063 
G01 X33.2937 Y28.8563 
G01 X33.2895 Y28.8064 
G01 X33.2937 Y28.7691 
G01 X33.2937 Y28.7317 
G01 X33.3035 Y28.6826 
G01 X33.3091 Y28.6328 
G01 X33.3120 Y28.6236 
G01 X33.1658 Y28.6842 
G01 X32.9434 Y28.7438 
G01 X32.7151 Y28.7738 
G01 X29.4750 Y28.7738 
G01 X29.2467 Y28.7438 
G01 X29.0243 Y28.6842 
G01 X28.8115 Y28.5961 
G01 X28.6121 Y28.4809 
G01 X28.4294 Y28.3408 
G01 X28.2666 Y28.1780 
G01 X28.1264 Y27.9953 
G01 X28.0730 Y27.9027 
G01 X27.9077 Y27.8698 
G01 X27.7464 Y27.8030 
G01 X27.6012 Y27.7060 
G01 X27.4777 Y27.5825 
G01 X27.3807 Y27.4373 
G01 X27.3138 Y27.2759 
G01 X27.2798 Y27.1046 
G01 X27.2798 Y26.9300 
G01 X27.3138 Y26.7587 
G01 X27.3807 Y26.5973 
G01 X27.4777 Y26.4521 
G01 X27.6012 Y26.3286 
G01 X27.6235 Y26.3137 
G01 X27.5499 Y26.2925 
G01 X27.4735 Y26.2720 
G01 X27.4661 Y26.2684 
G01 X27.4580 Y26.2661 
G01 X27.3878 Y26.2298 
G01 X27.3169 Y26.1948 
G01 X27.3103 Y26.1897 
G01 X27.3029 Y26.1859 
G01 X27.2411 Y26.1366 
G01 X27.1783 Y26.0885 
G01 X27.1729 Y26.0822 
G01 X27.1663 Y26.0770 
G01 X27.1153 Y26.0166 
G01 X27.0632 Y25.9572 
G01 X27.0590 Y25.9500 
G01 X27.0536 Y25.9436 
G01 X27.0154 Y25.8744 
G01 X26.8263 Y25.5469 
G01 X26.4038 Y25.1244 
G01 X25.8863 Y24.8256 
G01 X25.5900 Y24.7462 
G01 X25.5328 Y24.7349 
G01 X25.5059 Y24.7237 
G01 X25.4776 Y24.7161 
G01 X25.4253 Y24.6903 
G01 X25.3715 Y24.6680 
G01 X25.3472 Y24.6518 
G01 X25.3210 Y24.6389 
G01 X25.2747 Y24.6034 
G01 X25.2263 Y24.5710 
G01 X25.2056 Y24.5504 
G01 X25.1825 Y24.5326 
G01 X25.1440 Y24.4887 
G01 X25.1028 Y24.4475 
G01 X25.0866 Y24.4232 
G01 X25.0673 Y24.4013 
G01 X25.0382 Y24.3508 
G01 X25.0058 Y24.3023 
G01 X24.9946 Y24.2753 
G01 X24.9800 Y24.2500 
G01 X24.9612 Y24.1948 
G01 X24.9389 Y24.1410 
G01 X24.9332 Y24.1123 
G01 X24.9238 Y24.0846 
G01 X24.9162 Y24.0268 
G01 X24.9049 Y23.9697 
G01 X24.9049 Y23.9405 
G01 X24.9010 Y23.9115 
G01 X24.9049 Y23.8533 
G01 X24.9049 Y23.2271 
G01 X24.6893 Y22.7067 
G01 X24.6747 Y22.6814 
G01 X24.6560 Y22.6263 
G01 X24.6337 Y22.5724 
G01 X24.6280 Y22.5437 
G01 X24.6186 Y22.5161 
G01 X24.6110 Y22.4583 
G01 X24.5996 Y22.4011 
G01 X24.5996 Y22.3719 
G01 X24.5958 Y22.3429 
G01 X24.5996 Y22.2848 
G01 X24.5996 Y22.2264 
G01 X24.6053 Y22.1978 
G01 X24.6072 Y22.1686 
G01 X24.6223 Y22.1123 
G01 X24.6337 Y22.0552 
G01 X24.6448 Y22.0282 
G01 X24.6524 Y22.0000 
G01 X24.6782 Y21.9477 
G01 X24.7005 Y21.8938 
G01 X24.7167 Y21.8695 
G01 X24.7296 Y21.8433 
G01 X24.7651 Y21.7971 
G01 X24.7975 Y21.7486 
G01 X24.8182 Y21.7279 
G01 X24.8360 Y21.7048 
G01 X24.8798 Y21.6663 
G01 X24.9210 Y21.6251 
G01 X24.9453 Y21.6089 
G01 X24.9673 Y21.5896 
G01 X25.0177 Y21.5605 
G01 X25.0662 Y21.5281 
G01 X25.0932 Y21.5169 
G01 X25.1185 Y21.5023 
G01 X25.1737 Y21.4836 
G01 X25.2276 Y21.4612 
G01 X25.2562 Y21.4555 
G01 X25.2839 Y21.4462 
G01 X25.3417 Y21.4385 
G01 X25.3989 Y21.4272 
G01 X25.4281 Y21.4272 
G01 X25.4570 Y21.4234 
G01 X25.5152 Y21.4272 
G01 X25.5735 Y21.4272 
G01 X25.6022 Y21.4329 
G01 X25.6313 Y21.4348 
G01 X25.6876 Y21.4499 
G01 X25.7448 Y21.4612 
G01 X25.7718 Y21.4724 
G01 X25.8740 Y21.4998 
G01 X29.4814 Y21.4998 
G01 X30.0586 Y21.3452 
G01 X30.5761 Y21.0464 
G01 X30.7947 Y20.8278 
G01 X30.9399 Y20.7308 
G01 X31.1013 Y20.6639 
G01 X31.2725 Y20.6299 
G01 X35.0479 Y20.6299 
G01 X35.5622 Y20.4168 
G01 X40.1161 Y15.8630 
G01 X40.3291 Y15.3486 
G01 X40.3291 Y14.9373 
G01 X40.3253 Y14.8791 
G01 X40.3291 Y14.8502 
G01 X40.3291 Y14.8209 
G01 X40.3405 Y14.7638 
G01 X40.3481 Y14.7060 
G01 X40.3575 Y14.6783 
G01 X40.3632 Y14.6497 
G01 X40.3855 Y14.5958 
G01 X40.4043 Y14.5406 
G01 X40.4189 Y14.5153 
G01 X40.4300 Y14.4883 
G01 X40.4624 Y14.4398 
G01 X40.4916 Y14.3893 
G01 X40.5108 Y14.3674 
G01 X40.5271 Y14.3431 
G01 X40.5683 Y14.3019 
G01 X40.6067 Y14.2580 
G01 X40.6299 Y14.2403 
G01 X40.6506 Y14.2196 
G01 X40.6990 Y14.1872 
G01 X40.7453 Y14.1517 
G01 X40.7715 Y14.1388 
G01 X40.7958 Y14.1226 
G01 X40.8496 Y14.1003 
G01 X40.9019 Y14.0745 
G01 X40.9301 Y14.0669 
G01 X40.9571 Y14.0557 
G01 X41.0143 Y14.0444 
G01 X41.3106 Y13.9650 
G01 X41.8281 Y13.6662 
G01 X42.2506 Y13.2437 
G01 X42.5494 Y12.7262 
G01 X42.7040 Y12.1490 
G01 X42.7040 Y11.5515 
G01 X42.5494 Y10.9743 
G01 X42.2506 Y10.4569 
G01 X42.0055 Y10.2118 
G01 X41.8860 Y10.0923 
G01 X41.8820 Y10.0883 
G01 X41.8511 Y10.0420 
G01 X41.7850 Y9.9431 
G01 X41.7181 Y9.7817 
G01 X41.6841 Y9.6104 
G01 X41.6841 Y9.4358 
G01 X41.7181 Y9.2645 
G01 X41.7450 Y9.1996 
G01 X41.7850 Y9.1031 
G01 X41.8185 Y9.0530 
G01 X41.8820 Y8.9579 
G01 X42.0036 Y8.8364 
G01 X42.1179 Y8.7220 
G01 X42.2631 Y8.6250 
G01 X42.4245 Y8.5582 
G01 X42.5957 Y8.5241 
G01 X85.2651 Y8.5241 
G01 X85.4364 Y8.5582 
G01 X85.5978 Y8.6250 
G01 X85.7430 Y8.7220 
G01 X85.8665 Y8.8455 
G01 X89.3196 Y12.2987 
G01 X89.8339 Y12.5117 
G01 X96.9136 Y12.5117 
G00 Z2.4000 
G00 X26.0526 Y17.3977 
G01 Z-0.1000 F50.00 
G01 X29.3028 Y17.3977 F100.00 
G01 X29.5410 Y17.4291 
G01 X29.7731 Y17.4913 
G01 X29.9950 Y17.5832 
G01 X30.2031 Y17.7033 
G01 X30.3937 Y17.8496 
G01 X30.5636 Y18.0195 
G01 X30.7098 Y18.2101 
G01 X30.7431 Y18.2677 
G01 X34.3707 Y18.2677 
G01 X37.9669 Y14.6715 
G01 X37.9669 Y13.6830 
G01 X37.3047 Y13.6830 
G01 X37.0665 Y13.6517 
G01 X36.8344 Y13.5895 
G01 X36.6124 Y13.4975 
G01 X36.4044 Y13.3774 
G01 X36.2138 Y13.2312 
G01 X36.0439 Y13.0613 
G01 X35.8976 Y12.8707 
G01 X35.7775 Y12.6626 
G01 X35.6856 Y12.4407 
G01 X35.6234 Y12.2086 
G01 X35.5920 Y11.9704 
G01 X35.5920 Y11.7302 
G01 X35.6234 Y11.4920 
G01 X35.6856 Y11.2599 
G01 X35.7775 Y11.0379 
G01 X35.8976 Y10.8299 
G01 X36.0439 Y10.6393 
G01 X36.2138 Y10.4694 
G01 X36.4044 Y10.3231 
G01 X36.6124 Y10.2030 
G01 X36.8344 Y10.1111 
G01 X37.0665 Y10.0489 
G01 X37.3047 Y10.0175 
G01 X40.5548 Y10.0175 
G01 X40.7930 Y10.0489 
G01 X41.0251 Y10.1111 
G01 X41.2470 Y10.2030 
G01 X41.4551 Y10.3231 
G01 X41.6457 Y10.4694 
G01 X41.8156 Y10.6393 
G01 X41.9618 Y10.8299 
G01 X42.0819 Y11.0379 
G01 X42.1739 Y11.2599 
G01 X42.2361 Y11.4920 
G01 X42.2674 Y11.7302 
G01 X42.2674 Y11.9704 
G01 X42.2361 Y12.2086 
G01 X42.1739 Y12.4407 
G01 X42.0819 Y12.6626 
G01 X41.9618 Y12.8707 
G01 X41.8156 Y13.0613 
G01 X41.6457 Y13.2312 
G01 X41.4551 Y13.3774 
G01 X41.2470 Y13.4975 
G01 X41.0251 Y13.5895 
G01 X40.7930 Y13.6517 
G01 X40.5548 Y13.6830 
G01 X39.8925 Y13.6830 
G01 X39.8925 Y15.1651 
G01 X39.8555 Y15.3511 
G01 X39.7829 Y15.5263 
G01 X39.6776 Y15.6840 
G01 X35.3833 Y19.9783 
G01 X35.2256 Y20.0837 
G01 X35.0504 Y20.1563 
G01 X34.8644 Y20.1933 
G01 X30.7431 Y20.1933 
G01 X30.7098 Y20.2509 
G01 X30.5636 Y20.4415 
G01 X30.3937 Y20.6114 
G01 X30.2031 Y20.7576 
G01 X29.9950 Y20.8777 
G01 X29.7731 Y20.9697 
G01 X29.5410 Y21.0319 
G01 X29.3028 Y21.0632 
G01 X26.0526 Y21.0632 
G01 X25.8145 Y21.0319 
G01 X25.5824 Y20.9697 
G01 X25.3604 Y20.8777 
G01 X25.1524 Y20.7576 
G01 X24.9618 Y20.6114 
G01 X24.7919 Y20.4415 
G01 X24.6456 Y20.2509 
G01 X24.5255 Y20.0428 
G01 X24.4336 Y19.8208 
G01 X24.3714 Y19.5888 
G01 X24.3400 Y19.3506 
G01 X24.3400 Y19.1103 
G01 X24.3714 Y18.8721 
G01 X24.4336 Y18.6401 
G01 X24.5255 Y18.4181 
G01 X24.6456 Y18.2101 
G01 X24.7919 Y18.0195 
G01 X24.9618 Y17.8496 
G01 X25.1524 Y17.7033 
G01 X25.3604 Y17.5832 
G01 X25.5824 Y17.4913 
G01 X25.8145 Y17.4291 
G01 X26.0526 Y17.3977 
G00 Z2.4000 
G00 X15.7817 Y9.7018 
G01 Z-0.1000 F50.00 
G01 X15.7817 Y9.9772 F100.00 
G01 X16.4283 Y9.9772 
G01 X17.0659 Y9.3396 
G01 X17.0659 Y3.8764 
G01 X17.1029 Y3.6904 
G01 X17.1755 Y3.5152 
G01 X17.2809 Y3.3575 
G01 X19.6011 Y1.0373 
G01 X19.7353 Y0.9031 
G01 X19.8929 Y0.7978 
G01 X20.0682 Y0.7252 
G01 X20.2542 Y0.6882 
G01 X102.0948 Y0.6882 
G01 X102.2808 Y0.7252 
G01 X102.4561 Y0.7978 
G01 X102.6137 Y0.9031 
G01 X102.7479 Y1.0373 
G01 X104.6137 Y2.9031 
G01 X104.7479 Y3.0373 
G01 X104.8532 Y3.1949 
G01 X104.9258 Y3.3702 
G01 X104.9628 Y3.5562 
G01 X104.9628 Y9.5523 
G01 X104.9258 Y9.7383 
G01 X104.8532 Y9.9136 
G01 X104.7479 Y10.0713 
G01 X104.6137 Y10.2054 
G01 X97.6086 Y17.2105 
G01 X97.4745 Y17.3446 
G01 X97.3168 Y17.4500 
G01 X97.1416 Y17.5225 
G01 X96.9556 Y17.5595 
G01 X84.7967 Y17.5595 
G01 X84.7635 Y17.6171 
G01 X84.6172 Y17.8077 
G01 X84.4473 Y17.9776 
G01 X84.2567 Y18.1239 
G01 X84.0487 Y18.2440 
G01 X83.8267 Y18.3359 
G01 X83.5947 Y18.3981 
G01 X83.3565 Y18.4295 
G01 X80.1063 Y18.4295 
G01 X79.8681 Y18.3981 
G01 X79.6361 Y18.3359 
G01 X79.4141 Y18.2440 
G01 X79.2060 Y18.1239 
G01 X79.0154 Y17.9776 
G01 X78.8455 Y17.8077 
G01 X78.6993 Y17.6171 
G01 X78.5792 Y17.4091 
G01 X78.4872 Y17.1871 
G01 X78.4250 Y16.9551 
G01 X78.3937 Y16.7169 
G01 X78.3937 Y16.4766 
G01 X78.4250 Y16.2384 
G01 X78.4872 Y16.0064 
G01 X78.5792 Y15.7844 
G01 X78.6993 Y15.5763 
G01 X78.8455 Y15.3857 
G01 X79.0154 Y15.2158 
G01 X79.2060 Y15.0696 
G01 X79.4141 Y14.9495 
G01 X79.6361 Y14.8575 
G01 X79.8681 Y14.7953 
G01 X80.1063 Y14.7640 
G01 X83.3565 Y14.7640 
G01 X83.5947 Y14.7953 
G01 X83.8267 Y14.8575 
G01 X84.0487 Y14.9495 
G01 X84.2567 Y15.0696 
G01 X84.4473 Y15.2158 
G01 X84.6172 Y15.3857 
G01 X84.7635 Y15.5763 
G01 X84.7967 Y15.6339 
G01 X96.4620 Y15.6339 
G01 X103.0372 Y9.0587 
G01 X103.0372 Y4.0498 
G01 X101.6012 Y2.6138 
G01 X20.7478 Y2.6138 
G01 X18.9915 Y4.3701 
G01 X18.9915 Y9.8332 
G01 X18.9545 Y10.0192 
G01 X18.8820 Y10.1944 
G01 X18.7766 Y10.3521 
G01 X18.6425 Y10.4862 
G01 X17.4409 Y11.6879 
G01 X17.2832 Y11.7932 
G01 X17.1079 Y11.8658 
G01 X16.9219 Y11.9028 
G01 X15.7817 Y11.9028 
G01 X15.7817 Y12.1782 
G01 X15.7460 Y12.4039 
G01 X15.6754 Y12.6212 
G01 X15.5716 Y12.8248 
G01 X15.4373 Y13.0097 
G01 X15.2758 Y13.1713 
G01 X15.0909 Y13.3056 
G01 X14.8873 Y13.4093 
G01 X14.6700 Y13.4800 
G01 X14.4443 Y13.5157 
G01 X14.2157 Y13.5157 
G01 X13.9900 Y13.4800 
G01 X13.7727 Y13.4093 
G01 X13.5691 Y13.3056 
G01 X13.3842 Y13.1713 
G01 X13.2227 Y13.0097 
G01 X13.0884 Y12.8248 
G01 X12.9846 Y12.6212 
G01 X12.9140 Y12.4039 
G01 X12.8783 Y12.1782 
G01 X12.8783 Y9.7018 
G01 X12.9140 Y9.4761 
G01 X12.9846 Y9.2588 
G01 X13.0884 Y9.0552 
G01 X13.2227 Y8.8703 
G01 X13.3842 Y8.7087 
G01 X13.5691 Y8.5744 
G01 X13.7727 Y8.4707 
G01 X13.9900 Y8.4000 
G01 X14.2157 Y8.3643 
G01 X14.4443 Y8.3643 
G01 X14.6700 Y8.4000 
G01 X14.8873 Y8.4707 
G01 X15.0909 Y8.5744 
G01 X15.2758 Y8.7087 
G01 X15.4373 Y8.8703 
G01 X15.5716 Y9.0552 
G01 X15.6754 Y9.2588 
G01 X15.7460 Y9.4761 
G01 X15.7817 Y9.7018 
G00 Z2.4000 
G00 X102.0318 Y19.5964 
G01 Z-0.1000 F50.00 
G01 X102.0318 Y22.0728 F100.00 
G01 X101.9960 Y22.2985 
G01 X101.9254 Y22.5158 
G01 X101.8217 Y22.7194 
G01 X101.6874 Y22.9043 
G01 X101.5428 Y23.0488 
G01 X101.5428 Y23.5148 
G01 X101.5058 Y23.7008 
G01 X101.4332 Y23.8760 
G01 X101.3279 Y24.0337 
G01 X99.9198 Y25.4418 
G01 X100.3851 Y25.4418 
G01 X100.6233 Y25.4732 
G01 X100.8554 Y25.5354 
G01 X101.0773 Y25.6273 
G01 X101.2854 Y25.7474 
G01 X101.4760 Y25.8937 
G01 X101.6459 Y26.0636 
G01 X101.7921 Y26.2542 
G01 X101.9122 Y26.4622 
G01 X102.0042 Y26.6842 
G01 X102.0664 Y26.9163 
G01 X102.0977 Y27.1545 
G01 X102.0977 Y27.3947 
G01 X102.0664 Y27.6329 
G01 X102.0042 Y27.8650 
G01 X101.9122 Y28.0869 
G01 X101.7921 Y28.2950 
G01 X101.6459 Y28.4856 
G01 X101.4760 Y28.6555 
G01 X101.2854 Y28.8017 
G01 X101.0773 Y28.9219 
G01 X100.8554 Y29.0138 
G01 X100.6233 Y29.0760 
G01 X100.3851 Y29.1073 
G01 X97.1349 Y29.1073 
G01 X96.8967 Y29.0760 
G01 X96.6647 Y29.0138 
G01 X96.4427 Y28.9219 
G01 X96.2347 Y28.8017 
G01 X96.0441 Y28.6555 
G01 X95.8742 Y28.4856 
G01 X95.7279 Y28.2950 
G01 X95.6078 Y28.0869 
G01 X95.5159 Y27.8650 
G01 X95.4537 Y27.6329 
G01 X95.4223 Y27.3947 
G01 X95.4223 Y27.1545 
G01 X95.4537 Y26.9163 
G01 X95.5159 Y26.6842 
G01 X95.6078 Y26.4622 
G01 X95.7279 Y26.2542 
G01 X95.8742 Y26.0636 
G01 X96.0441 Y25.8937 
G01 X96.2347 Y25.7474 
G01 X96.4427 Y25.6273 
G01 X96.6647 Y25.5354 
G01 X96.8967 Y25.4732 
G01 X97.1349 Y25.4418 
G01 X97.7972 Y25.4418 
G01 X97.7972 Y25.1452 
G01 X97.8342 Y24.9591 
G01 X97.9068 Y24.7839 
G01 X98.0122 Y24.6262 
G01 X99.6034 Y23.0350 
G01 X99.4727 Y22.9043 
G01 X99.3384 Y22.7194 
G01 X99.2346 Y22.5158 
G01 X99.1640 Y22.2985 
G01 X99.1283 Y22.0728 
G01 X99.1283 Y21.7974 
G01 X94.7118 Y21.7974 
G01 X94.7118 Y22.0728 
G01 X94.6760 Y22.2985 
G01 X94.6054 Y22.5158 
G01 X94.5017 Y22.7194 
G01 X94.3674 Y22.9043 
G01 X94.2058 Y23.0659 
G01 X94.0209 Y23.2002 
G01 X93.8173 Y23.3039 
G01 X93.6000 Y23.3745 
G01 X93.3743 Y23.4103 
G01 X93.1458 Y23.4103 
G01 X92.9201 Y23.3745 
G01 X92.7027 Y23.3039 
G01 X92.4991 Y23.2002 
G01 X92.3143 Y23.0659 
G01 X92.1527 Y22.9043 
G01 X92.0184 Y22.7194 
G01 X91.9146 Y22.5158 
G01 X91.8440 Y22.2985 
G01 X91.8083 Y22.0728 
G01 X91.8083 Y19.5964 
G01 X91.8440 Y19.3707 
G01 X91.9146 Y19.1534 
G01 X92.0184 Y18.9498 
G01 X92.1527 Y18.7649 
G01 X92.3143 Y18.6033 
G01 X92.4991 Y18.4690 
G01 X92.7027 Y18.3653 
G01 X92.9201 Y18.2946 
G01 X93.1458 Y18.2589 
G01 X93.3743 Y18.2589 
G01 X93.6000 Y18.2946 
G01 X93.8173 Y18.3653 
G01 X94.0209 Y18.4690 
G01 X94.2058 Y18.6033 
G01 X94.3674 Y18.7649 
G01 X94.5017 Y18.9498 
G01 X94.6054 Y19.1534 
G01 X94.6760 Y19.3707 
G01 X94.7118 Y19.5964 
G01 X94.7118 Y19.8718 
G01 X99.1283 Y19.8718 
G01 X99.1283 Y19.5964 
G01 X99.1640 Y19.3707 
G01 X99.2346 Y19.1534 
G01 X99.3384 Y18.9498 
G01 X99.4727 Y18.7649 
G01 X99.6343 Y18.6033 
G01 X99.8191 Y18.4690 
G01 X100.0227 Y18.3653 
G01 X100.2401 Y18.2946 
G01 X100.4658 Y18.2589 
G01 X100.6943 Y18.2589 
G01 X100.9200 Y18.2946 
G01 X101.1373 Y18.3653 
G01 X101.3409 Y18.4690 
G01 X101.5258 Y18.6033 
G01 X101.6874 Y18.7649 
G01 X101.8217 Y18.9498 
G01 X101.9254 Y19.1534 
G01 X101.9960 Y19.3707 
G01 X102.0318 Y19.5964 
G00 Z2.4000 
G00 X102.0318 Y4.3564 
G01 Z-0.1000 F50.00 
G01 X102.0318 Y6.8328 F100.00 
G01 X101.9960 Y7.0585 
G01 X101.9254 Y7.2758 
G01 X101.8217 Y7.4794 
G01 X101.6874 Y7.6643 
G01 X101.5428 Y7.8088 
G01 X101.5428 Y9.7394 
G01 X101.5058 Y9.9254 
G01 X101.4332 Y10.1006 
G01 X101.3279 Y10.2583 
G01 X99.8602 Y11.7261 
G01 X99.7261 Y11.8602 
G01 X99.5684 Y11.9655 
G01 X99.3931 Y12.0381 
G01 X99.2071 Y12.0751 
G01 X90.0175 Y12.0751 
G01 X89.8315 Y12.0381 
G01 X89.6562 Y11.9655 
G01 X89.4986 Y11.8602 
G01 X85.7259 Y8.0875 
G01 X42.0663 Y8.0875 
G01 X42.0330 Y8.1451 
G01 X41.8868 Y8.3357 
G01 X41.7169 Y8.5056 
G01 X41.5263 Y8.6518 
G01 X41.3182 Y8.7720 
G01 X41.0963 Y8.8639 
G01 X40.8642 Y8.9261 
G01 X40.6260 Y8.9574 
G01 X37.3759 Y8.9574 
G01 X37.1377 Y8.9261 
G01 X36.9056 Y8.8639 
G01 X36.6836 Y8.7720 
G01 X36.4756 Y8.6518 
G01 X36.2850 Y8.5056 
G01 X36.1151 Y8.3357 
G01 X35.9688 Y8.1451 
G01 X35.8636 Y7.9628 
G01 X35.3988 Y7.9628 
G01 X33.9628 Y9.3988 
G01 X33.9628 Y11.0948 
G01 X33.9258 Y11.2808 
G01 X33.8532 Y11.4561 
G01 X33.7479 Y11.6137 
G01 X31.8212 Y13.5404 
G01 X31.6635 Y13.6458 
G01 X31.4883 Y13.7184 
G01 X31.3022 Y13.7554 
G01 X30.9733 Y13.7554 
G01 X30.9400 Y13.8130 
G01 X30.7938 Y14.0036 
G01 X30.6239 Y14.1735 
G01 X30.4333 Y14.3197 
G01 X30.2252 Y14.4398 
G01 X30.0033 Y14.5318 
G01 X29.7712 Y14.5940 
G01 X29.5330 Y14.6253 
G01 X26.2828 Y14.6253 
G01 X26.0447 Y14.5940 
G01 X25.8126 Y14.5318 
G01 X25.5906 Y14.4398 
G01 X25.3826 Y14.3197 
G01 X25.1920 Y14.1735 
G01 X25.0221 Y14.0036 
G01 X24.8758 Y13.8130 
G01 X24.7557 Y13.6049 
G01 X24.6638 Y13.3830 
G01 X24.6016 Y13.1509 
G01 X24.5702 Y12.9127 
G01 X24.5702 Y12.6725 
G01 X24.6016 Y12.4343 
G01 X24.6638 Y12.2022 
G01 X24.7557 Y11.9802 
G01 X24.8758 Y11.7722 
G01 X25.0221 Y11.5816 
G01 X25.1920 Y11.4117 
G01 X25.3826 Y11.2654 
G01 X25.5906 Y11.1453 
G01 X25.8126 Y11.0534 
G01 X26.0447 Y10.9912 
G01 X26.2828 Y10.9598 
G01 X29.5330 Y10.9598 
G01 X29.7712 Y10.9912 
G01 X30.0033 Y11.0534 
G01 X30.2252 Y11.1453 
G01 X30.4333 Y11.2654 
G01 X30.6239 Y11.4117 
G01 X30.7938 Y11.5816 
G01 X30.9080 Y11.7304 
G01 X32.0372 Y10.6012 
G01 X32.0372 Y8.9052 
G01 X32.0742 Y8.7192 
G01 X32.1468 Y8.5439 
G01 X32.2521 Y8.3863 
G01 X34.2521 Y6.3863 
G01 X34.3863 Y6.2521 
G01 X34.5439 Y6.1468 
G01 X34.7192 Y6.0742 
G01 X34.9052 Y6.0372 
G01 X36.0203 Y6.0372 
G01 X36.1151 Y5.9137 
G01 X36.2850 Y5.7438 
G01 X36.4756 Y5.5975 
G01 X36.6836 Y5.4774 
G01 X36.9056 Y5.3855 
G01 X37.1377 Y5.3233 
G01 X37.3759 Y5.2919 
G01 X40.6260 Y5.2919 
G01 X40.8642 Y5.3233 
G01 X41.0963 Y5.3855 
G01 X41.3182 Y5.4774 
G01 X41.5263 Y5.5975 
G01 X41.7169 Y5.7438 
G01 X41.8868 Y5.9137 
G01 X42.0330 Y6.1043 
G01 X42.0663 Y6.1619 
G01 X86.2195 Y6.1619 
G01 X86.4055 Y6.1989 
G01 X86.5807 Y6.2715 
G01 X86.7384 Y6.3768 
G01 X90.5111 Y10.1495 
G01 X98.7135 Y10.1495 
G01 X99.6172 Y9.2458 
G01 X99.6172 Y7.8088 
G01 X99.4727 Y7.6643 
G01 X99.3384 Y7.4794 
G01 X99.2346 Y7.2758 
G01 X99.1640 Y7.0585 
G01 X99.1283 Y6.8328 
G01 X99.1283 Y4.3564 
G01 X99.1640 Y4.1307 
G01 X99.2346 Y3.9134 
G01 X99.3384 Y3.7098 
G01 X99.4727 Y3.5249 
G01 X99.6343 Y3.3633 
G01 X99.8191 Y3.2290 
G01 X100.0227 Y3.1253 
G01 X100.2401 Y3.0546 
G01 X100.4658 Y3.0189 
G01 X100.6943 Y3.0189 
G01 X100.9200 Y3.0546 
G01 X101.1373 Y3.1253 
G01 X101.3409 Y3.2290 
G01 X101.5258 Y3.3633 
G01 X101.6874 Y3.5249 
G01 X101.8217 Y3.7098 
G01 X101.9254 Y3.9134 
G01 X101.9960 Y4.1307 
G01 X102.0318 Y4.3564 
G00 Z2.4000 
G00 X18.0948 Y22.9628 
G01 Z-0.1000 F50.00 
G01 X17.9052 Y22.9628 F100.00 
G01 X17.7192 Y22.9258 
G01 X17.5439 Y22.8532 
G01 X17.3863 Y22.7479 
G01 X15.3863 Y20.7479 
G01 X15.2521 Y20.6137 
G01 X15.1468 Y20.4561 
G01 X15.0742 Y20.2808 
G01 X15.0372 Y20.0948 
G01 X15.0372 Y14.9052 
G01 X15.0742 Y14.7192 
G01 X15.1468 Y14.5439 
G01 X15.2521 Y14.3863 
G01 X19.4133 Y10.2251 
G01 X19.4133 Y5.5291 
G01 X19.4503 Y5.3431 
G01 X19.5229 Y5.1678 
G01 X19.6282 Y5.0102 
G01 X21.3151 Y3.3233 
G01 X21.4492 Y3.1891 
G01 X21.6069 Y3.0838 
G01 X21.7822 Y3.0112 
G01 X21.9682 Y2.9742 
G01 X88.0318 Y2.9742 
G01 X88.2178 Y3.0112 
G01 X88.3931 Y3.0838 
G01 X88.5507 Y3.1891 
G01 X88.6849 Y3.3233 
G01 X89.9934 Y4.6318 
G01 X91.8083 Y4.6318 
G01 X91.8083 Y4.3564 
G01 X91.8440 Y4.1307 
G01 X91.9146 Y3.9134 
G01 X92.0184 Y3.7098 
G01 X92.1527 Y3.5249 
G01 X92.3143 Y3.3633 
G01 X92.4991 Y3.2290 
G01 X92.7027 Y3.1253 
G01 X92.9201 Y3.0546 
G01 X93.1458 Y3.0189 
G01 X93.3743 Y3.0189 
G01 X93.6000 Y3.0546 
G01 X93.8173 Y3.1253 
G01 X94.0209 Y3.2290 
G01 X94.2058 Y3.3633 
G01 X94.3674 Y3.5249 
G01 X94.5017 Y3.7098 
G01 X94.6054 Y3.9134 
G01 X94.6760 Y4.1307 
G01 X94.7118 Y4.3564 
G01 X94.7118 Y6.8328 
G01 X94.6760 Y7.0585 
G01 X94.6054 Y7.2758 
G01 X94.5017 Y7.4794 
G01 X94.3674 Y7.6643 
G01 X94.2058 Y7.8259 
G01 X94.0209 Y7.9602 
G01 X93.8173 Y8.0639 
G01 X93.6000 Y8.1345 
G01 X93.3743 Y8.1703 
G01 X93.1458 Y8.1703 
G01 X92.9201 Y8.1345 
G01 X92.7027 Y8.0639 
G01 X92.4991 Y7.9602 
G01 X92.3143 Y7.8259 
G01 X92.1527 Y7.6643 
G01 X92.0184 Y7.4794 
G01 X91.9146 Y7.2758 
G01 X91.8440 Y7.0585 
G01 X91.8083 Y6.8328 
G01 X91.8083 Y6.5574 
G01 X89.4998 Y6.5574 
G01 X89.3138 Y6.5204 
G01 X89.1385 Y6.4478 
G01 X88.9808 Y6.3424 
G01 X87.5382 Y4.8998 
G01 X22.4618 Y4.8998 
G01 X21.3389 Y6.0227 
G01 X21.3389 Y10.7187 
G01 X21.3019 Y10.9047 
G01 X21.2293 Y11.0800 
G01 X21.1239 Y11.2377 
G01 X20.9898 Y11.3718 
G01 X16.9628 Y15.3988 
G01 X16.9628 Y19.6012 
G01 X18.3988 Y21.0372 
G01 X22.0948 Y21.0372 
G01 X22.2808 Y21.0742 
G01 X22.4561 Y21.1468 
G01 X22.6137 Y21.2521 
G01 X24.2533 Y22.8917 
G01 X24.3587 Y23.0494 
G01 X24.4313 Y23.2246 
G01 X24.4683 Y23.4106 
G01 X24.4683 Y25.1076 
G01 X25.1305 Y25.1076 
G01 X25.3687 Y25.1390 
G01 X25.6008 Y25.2011 
G01 X25.8228 Y25.2931 
G01 X26.0308 Y25.4132 
G01 X26.2214 Y25.5595 
G01 X26.3913 Y25.7293 
G01 X26.5375 Y25.9199 
G01 X26.6577 Y26.1280 
G01 X26.7496 Y26.3500 
G01 X26.8118 Y26.5820 
G01 X26.8432 Y26.8202 
G01 X26.8432 Y27.0605 
G01 X26.8118 Y27.2987 
G01 X26.7496 Y27.5307 
G01 X26.6577 Y27.7527 
G01 X26.5375 Y27.9607 
G01 X26.3913 Y28.1514 
G01 X26.2214 Y28.3212 
G01 X26.0308 Y28.4675 
G01 X25.8228 Y28.5876 
G01 X25.6008 Y28.6796 
G01 X25.3687 Y28.7417 
G01 X25.1305 Y28.7731 
G01 X21.8804 Y28.7731 
G01 X21.6422 Y28.7417 
G01 X21.4101 Y28.6796 
G01 X21.1882 Y28.5876 
G01 X20.9801 Y28.4675 
G01 X20.7895 Y28.3212 
G01 X20.6196 Y28.1514 
G01 X20.4749 Y27.9628 
G01 X17.9052 Y27.9628 
G01 X17.7192 Y27.9258 
G01 X17.5439 Y27.8532 
G01 X17.3863 Y27.7479 
G01 X17.2521 Y27.6137 
G01 X16.7812 Y27.1428 
G01 X15.7817 Y27.1428 
G01 X15.7817 Y27.4182 
G01 X15.7460 Y27.6439 
G01 X15.6754 Y27.8612 
G01 X15.5716 Y28.0648 
G01 X15.4373 Y28.2497 
G01 X15.2758 Y28.4113 
G01 X15.0909 Y28.5456 
G01 X14.8873 Y28.6493 
G01 X14.6700 Y28.7200 
G01 X14.4443 Y28.7557 
G01 X14.2157 Y28.7557 
G01 X13.9900 Y28.7200 
G01 X13.7727 Y28.6493 
G01 X13.5691 Y28.5456 
G01 X13.3842 Y28.4113 
G01 X13.2227 Y28.2497 
G01 X13.0884 Y28.0648 
G01 X12.9846 Y27.8612 
G01 X12.9140 Y27.6439 
G01 X12.8783 Y27.4182 
G01 X12.8783 Y24.9418 
G01 X12.9140 Y24.7161 
G01 X12.9846 Y24.4988 
G01 X13.0884 Y24.2952 
G01 X13.2227 Y24.1103 
G01 X13.3842 Y23.9487 
G01 X13.5691 Y23.8144 
G01 X13.7727 Y23.7107 
G01 X13.9900 Y23.6400 
G01 X14.2157 Y23.6043 
G01 X14.4443 Y23.6043 
G01 X14.6700 Y23.6400 
G01 X14.8873 Y23.7107 
G01 X15.0909 Y23.8144 
G01 X15.2758 Y23.9487 
G01 X15.4373 Y24.1103 
G01 X15.5716 Y24.2952 
G01 X15.6754 Y24.4988 
G01 X15.7460 Y24.7161 
G01 X15.7817 Y24.9418 
G01 X15.7817 Y25.2172 
G01 X17.2748 Y25.2172 
G01 X17.4608 Y25.2542 
G01 X17.6361 Y25.3268 
G01 X17.7937 Y25.4321 
G01 X18.3988 Y26.0372 
G01 X20.4057 Y26.0372 
G01 X20.4734 Y25.9199 
G01 X20.6196 Y25.7293 
G01 X20.7895 Y25.5595 
G01 X20.9801 Y25.4132 
G01 X21.1882 Y25.2931 
G01 X21.4101 Y25.2011 
G01 X21.6422 Y25.1390 
G01 X21.8804 Y25.1076 
G01 X22.5427 Y25.1076 
G01 X22.5427 Y23.9043 
G01 X21.6012 Y22.9628 
G01 X18.0948 Y22.9628 
G00 Z2.4000 
G00 X97.1072 Y12.4725 
G01 Z-0.1000 F50.00 
G01 X97.2773 Y12.5430 F100.00 
G01 X97.2824 Y12.5451 
G01 X97.2855 Y12.5472 
G01 X97.4401 Y12.6504 
G01 X97.5721 Y12.7825 
G01 X97.6795 Y12.9422 
G01 X97.7521 Y13.1175 
G01 X97.7891 Y13.3035 
G01 X97.7891 Y13.4931 
G01 X97.7870 Y13.5037 
G01 X97.7521 Y13.6791 
G01 X97.6816 Y13.8493 
G01 X97.6795 Y13.8544 
G01 X97.6774 Y13.8575 
G01 X97.5742 Y14.0121 
G01 X96.5276 Y15.0586 
G01 X96.5245 Y15.0607 
G01 X96.3699 Y15.1640 
G01 X96.1947 Y15.2365 
G01 X96.0087 Y15.2735 
G01 X85.3187 Y15.2735 
G01 X85.2468 Y15.2592 
G01 X85.1327 Y15.2365 
G01 X84.9575 Y15.1640 
G01 X84.8760 Y15.1095 
G01 X84.7998 Y15.0586 
G01 X84.5830 Y14.8418 
G01 X84.0829 Y14.5530 
G01 X83.5251 Y14.4036 
G01 X79.9377 Y14.4036 
G01 X79.3799 Y14.5530 
G01 X78.8798 Y14.8418 
G01 X78.4715 Y15.2501 
G01 X78.1827 Y15.7502 
G01 X78.0333 Y16.3080 
G01 X78.0333 Y16.8855 
G01 X78.1827 Y17.4433 
G01 X78.4715 Y17.9434 
G01 X78.8798 Y18.3517 
G01 X79.3743 Y18.6372 
G01 X79.4056 Y18.6443 
G01 X79.4221 Y18.6517 
G01 X79.4396 Y18.6564 
G01 X79.5086 Y18.6904 
G01 X79.5787 Y18.7218 
G01 X79.5935 Y18.7323 
G01 X79.6097 Y18.7403 
G01 X79.6707 Y18.7871 
G01 X79.7334 Y18.8316 
G01 X79.7458 Y18.8447 
G01 X79.7602 Y18.8558 
G01 X79.8109 Y18.9136 
G01 X79.8637 Y18.9694 
G01 X79.8733 Y18.9847 
G01 X79.8852 Y18.9983 
G01 X79.9237 Y19.0649 
G01 X79.9646 Y19.1300 
G01 X79.9710 Y19.1469 
G01 X79.9801 Y19.1626 
G01 X80.0048 Y19.2353 
G01 X80.0322 Y19.3072 
G01 X80.0352 Y19.3250 
G01 X80.0410 Y19.3422 
G01 X80.0511 Y19.4184 
G01 X80.0639 Y19.4942 
G01 X80.0634 Y19.5123 
G01 X80.0658 Y19.5302 
G01 X80.0608 Y19.6069 
G01 X80.0586 Y19.6837 
G01 X80.0546 Y19.7014 
G01 X80.0534 Y19.7195 
G01 X80.0456 Y19.7487 
G01 X80.0985 Y19.7345 
G01 X80.3367 Y19.7032 
G01 X83.5869 Y19.7032 
G01 X83.7038 Y19.7186 
G01 X83.6997 Y19.7004 
G01 X83.6851 Y19.6575 
G01 X83.6786 Y19.6081 
G01 X83.6675 Y19.5596 
G01 X83.6663 Y19.5144 
G01 X83.6604 Y19.4695 
G01 X83.6636 Y19.4198 
G01 X83.6622 Y19.3700 
G01 X83.6698 Y19.3254 
G01 X83.6728 Y19.2802 
G01 X83.6857 Y19.2321 
G01 X83.6940 Y19.1831 
G01 X83.7101 Y19.1408 
G01 X83.7219 Y19.0970 
G01 X83.7439 Y19.0524 
G01 X83.7616 Y19.0059 
G01 X83.7857 Y18.9675 
G01 X83.8057 Y18.9269 
G01 X83.8360 Y18.8874 
G01 X83.8625 Y18.8453 
G01 X83.8936 Y18.8124 
G01 X83.9212 Y18.7765 
G01 X83.9586 Y18.7437 
G01 X83.9928 Y18.7075 
G01 X84.0297 Y18.6813 
G01 X84.0638 Y18.6514 
G01 X84.1069 Y18.6265 
G01 X84.1475 Y18.5977 
G01 X84.1888 Y18.5792 
G01 X84.5830 Y18.3517 
G01 X84.7998 Y18.1349 
G01 X84.8823 Y18.0797 
G01 X84.9575 Y18.0295 
G01 X85.1327 Y17.9569 
G01 X85.2426 Y17.9351 
G01 X85.3187 Y17.9199 
G01 X90.5459 Y17.9199 
G01 X90.5774 Y17.9158 
G01 X90.6405 Y17.9199 
G01 X90.7038 Y17.9199 
G01 X90.7349 Y17.9261 
G01 X90.7666 Y17.9282 
G01 X90.8278 Y17.9446 
G01 X90.8899 Y17.9569 
G01 X90.9192 Y17.9691 
G01 X90.9498 Y17.9773 
G01 X91.0066 Y18.0053 
G01 X91.0651 Y18.0295 
G01 X91.0915 Y18.0471 
G01 X91.1199 Y18.0612 
G01 X91.1701 Y18.0997 
G01 X91.2228 Y18.1349 
G01 X91.2452 Y18.1573 
G01 X91.2704 Y18.1766 
G01 X91.3121 Y18.2242 
G01 X91.3569 Y18.2690 
G01 X91.3745 Y18.2954 
G01 X91.3954 Y18.3192 
G01 X91.4271 Y18.3740 
G01 X91.4622 Y18.4267 
G01 X91.4744 Y18.4560 
G01 X91.4902 Y18.4835 
G01 X91.5106 Y18.5434 
G01 X91.5348 Y18.6019 
G01 X91.5410 Y18.6330 
G01 X91.5512 Y18.6630 
G01 X91.5595 Y18.7258 
G01 X91.5718 Y18.7879 
G01 X91.5718 Y18.8196 
G01 X91.5760 Y18.8511 
G01 X91.5718 Y18.9143 
G01 X91.5718 Y18.9776 
G01 X91.5656 Y19.0087 
G01 X91.5636 Y19.0403 
G01 X91.5472 Y19.1015 
G01 X91.5348 Y19.1636 
G01 X91.5227 Y19.1929 
G01 X91.4479 Y19.4721 
G01 X91.4479 Y22.1971 
G01 X91.5714 Y22.6580 
G01 X91.8099 Y23.0712 
G01 X92.1473 Y23.4086 
G01 X92.5606 Y23.6472 
G01 X93.0214 Y23.7707 
G01 X93.4986 Y23.7707 
G01 X93.9595 Y23.6472 
G01 X94.3727 Y23.4086 
G01 X94.7101 Y23.0712 
G01 X94.9280 Y22.6938 
G01 X94.9401 Y22.6645 
G01 X94.9753 Y22.6119 
G01 X95.0069 Y22.5571 
G01 X95.0279 Y22.5332 
G01 X95.0455 Y22.5068 
G01 X95.0902 Y22.4621 
G01 X95.1320 Y22.4145 
G01 X95.1572 Y22.3952 
G01 X95.1796 Y22.3727 
G01 X95.2322 Y22.3376 
G01 X95.2825 Y22.2990 
G01 X95.3109 Y22.2850 
G01 X95.3373 Y22.2674 
G01 X95.3958 Y22.2431 
G01 X95.4526 Y22.2151 
G01 X95.4832 Y22.2069 
G01 X95.5125 Y22.1948 
G01 X95.5746 Y22.1824 
G01 X95.6357 Y22.1661 
G01 X95.6674 Y22.1640 
G01 X95.6985 Y22.1578 
G01 X95.7618 Y22.1578 
G01 X95.8250 Y22.1537 
G01 X95.8564 Y22.1578 
G01 X97.7413 Y22.1578 
G01 X97.9274 Y22.1948 
G01 X98.1026 Y22.2674 
G01 X98.2603 Y22.3727 
G01 X98.3944 Y22.5068 
G01 X98.4997 Y22.6645 
G01 X98.5723 Y22.8398 
G01 X98.6093 Y23.0258 
G01 X98.6093 Y23.2154 
G01 X98.5723 Y23.4014 
G01 X98.4997 Y23.5766 
G01 X98.3944 Y23.7343 
G01 X98.2603 Y23.8684 
G01 X98.0789 Y24.0499 
G01 X97.6389 Y24.4898 
G01 X97.6202 Y24.5449 
G01 X97.6043 Y24.5723 
G01 X97.5922 Y24.6017 
G01 X97.5570 Y24.6543 
G01 X97.5254 Y24.7091 
G01 X97.5045 Y24.7330 
G01 X97.4868 Y24.7593 
G01 X97.4421 Y24.8041 
G01 X97.4003 Y24.8517 
G01 X97.3752 Y24.8710 
G01 X97.3527 Y24.8935 
G01 X97.3001 Y24.9286 
G01 X97.2499 Y24.9672 
G01 X97.2214 Y24.9812 
G01 X97.1950 Y24.9988 
G01 X97.1365 Y25.0230 
G01 X97.0798 Y25.0510 
G01 X97.0491 Y25.0593 
G01 X97.0198 Y25.0714 
G01 X96.9577 Y25.0837 
G01 X96.4085 Y25.2309 
G01 X95.9084 Y25.5196 
G01 X95.5001 Y25.9280 
G01 X95.4607 Y25.9962 
G01 X95.4486 Y26.0255 
G01 X95.4134 Y26.0781 
G01 X95.3818 Y26.1330 
G01 X95.3608 Y26.1568 
G01 X95.3432 Y26.1832 
G01 X95.2985 Y26.2279 
G01 X95.2567 Y26.2755 
G01 X95.2315 Y26.2949 
G01 X95.2091 Y26.3173 
G01 X95.1565 Y26.3524 
G01 X95.1063 Y26.3910 
G01 X95.0778 Y26.4050 
G01 X95.0514 Y26.4227 
G01 X94.9929 Y26.4469 
G01 X94.9362 Y26.4749 
G01 X94.9055 Y26.4831 
G01 X94.8762 Y26.4952 
G01 X94.8141 Y26.5076 
G01 X94.7530 Y26.5240 
G01 X94.7213 Y26.5260 
G01 X94.6902 Y26.5322 
G01 X94.6269 Y26.5322 
G01 X94.5922 Y26.5345 
G01 X94.6542 Y26.6842 
G01 X94.7164 Y26.9163 
G01 X94.7477 Y27.1545 
G01 X94.7477 Y27.3947 
G01 X94.7164 Y27.6329 
G01 X94.6542 Y27.8650 
G01 X94.5622 Y28.0869 
G01 X94.4421 Y28.2950 
G01 X94.2959 Y28.4856 
G01 X94.1260 Y28.6555 
G01 X93.9354 Y28.8017 
G01 X93.7273 Y28.9219 
G01 X93.5054 Y29.0138 
G01 X93.2733 Y29.0760 
G01 X93.0351 Y29.1073 
G01 X89.7849 Y29.1073 
G01 X89.5467 Y29.0760 
G01 X89.3147 Y29.0138 
G01 X89.0927 Y28.9219 
G01 X89.0375 Y28.8900 
G01 X89.0375 Y28.9138 
G01 X89.0269 Y28.9671 
G01 X89.0208 Y29.0210 
G01 X89.0085 Y29.0599 
G01 X89.0005 Y29.0998 
G01 X88.9797 Y29.1500 
G01 X88.9633 Y29.2017 
G01 X88.9435 Y29.2374 
G01 X88.9279 Y29.2751 
G01 X88.8978 Y29.3202 
G01 X88.8715 Y29.3677 
G01 X88.8452 Y29.3989 
G01 X88.8226 Y29.4327 
G01 X88.7842 Y29.4711 
G01 X88.7492 Y29.5126 
G01 X88.7173 Y29.5380 
G01 X88.6885 Y29.5669 
G01 X88.6433 Y29.5970 
G01 X88.6009 Y29.6309 
G01 X88.5647 Y29.6496 
G01 X88.5308 Y29.6722 
G01 X88.4806 Y29.6930 
G01 X88.4324 Y29.7179 
G01 X88.3932 Y29.7292 
G01 X88.3556 Y29.7448 
G01 X88.3023 Y29.7554 
G01 X88.2501 Y29.7704 
G01 X88.2095 Y29.7738 
G01 X88.1695 Y29.7818 
G01 X88.1152 Y29.7818 
G01 X88.0612 Y29.7864 
G01 X88.0207 Y29.7818 
G01 X34.2208 Y29.7818 
G01 X34.1666 Y29.7864 
G01 X34.1262 Y29.7818 
G01 X34.0855 Y29.7818 
G01 X34.0322 Y29.7712 
G01 X33.9781 Y29.7651 
G01 X33.9394 Y29.7527 
G01 X33.8995 Y29.7448 
G01 X33.8493 Y29.7240 
G01 X33.7975 Y29.7075 
G01 X33.7619 Y29.6878 
G01 X33.7243 Y29.6722 
G01 X33.6791 Y29.6420 
G01 X33.6315 Y29.6157 
G01 X33.6004 Y29.5895 
G01 X33.5666 Y29.5669 
G01 X33.5281 Y29.5284 
G01 X33.4866 Y29.4933 
G01 X33.4612 Y29.4615 
G01 X33.4325 Y29.4327 
G01 X33.4023 Y29.3875 
G01 X33.3684 Y29.3450 
G01 X33.3497 Y29.3089 
G01 X33.3271 Y29.2751 
G01 X33.3063 Y29.2248 
G01 X33.2813 Y29.1765 
G01 X33.2701 Y29.1374 
G01 X33.2545 Y29.0998 
G01 X33.2439 Y29.0465 
G01 X33.2289 Y28.9943 
G01 X33.2255 Y28.9537 
G01 X33.2175 Y28.9138 
G01 X33.2175 Y28.8595 
G01 X33.2130 Y28.8053 
G01 X33.2175 Y28.7648 
G01 X33.2175 Y28.7453 
G01 X33.1904 Y28.7565 
G01 X32.9583 Y28.8187 
G01 X32.7201 Y28.8500 
G01 X29.4700 Y28.8500 
G01 X29.2318 Y28.8187 
G01 X28.9997 Y28.7565 
G01 X28.7777 Y28.6646 
G01 X28.5697 Y28.5444 
G01 X28.3791 Y28.3982 
G01 X28.2092 Y28.2283 
G01 X28.0629 Y28.0377 
G01 X28.0243 Y27.9707 
G01 X27.8855 Y27.9431 
G01 X27.7103 Y27.8705 
G01 X27.5526 Y27.7652 
G01 X27.4185 Y27.6311 
G01 X27.3131 Y27.4734 
G01 X27.2406 Y27.2981 
G01 X27.2036 Y27.1121 
G01 X27.2036 Y26.9225 
G01 X27.2406 Y26.7364 
G01 X27.3131 Y26.5612 
G01 X27.4185 Y26.4035 
G01 X27.4716 Y26.3504 
G01 X27.4466 Y26.3437 
G01 X27.4384 Y26.3397 
G01 X27.4297 Y26.3372 
G01 X27.3535 Y26.2978 
G01 X27.2765 Y26.2598 
G01 X27.2693 Y26.2543 
G01 X27.2612 Y26.2502 
G01 X27.1941 Y26.1966 
G01 X27.1260 Y26.1444 
G01 X27.1200 Y26.1376 
G01 X27.1130 Y26.1319 
G01 X27.0576 Y26.0663 
G01 X27.0010 Y26.0018 
G01 X26.9964 Y25.9939 
G01 X26.9906 Y25.9870 
G01 X26.9491 Y25.9119 
G01 X26.7654 Y25.5937 
G01 X26.3570 Y25.1854 
G01 X25.8569 Y24.8967 
G01 X25.5727 Y24.8205 
G01 X25.5106 Y24.8081 
G01 X25.4813 Y24.7960 
G01 X25.4507 Y24.7878 
G01 X25.3939 Y24.7598 
G01 X25.3354 Y24.7356 
G01 X25.3090 Y24.7179 
G01 X25.2806 Y24.7039 
G01 X25.2303 Y24.6654 
G01 X25.1777 Y24.6302 
G01 X25.1553 Y24.6078 
G01 X25.1301 Y24.5885 
G01 X25.0884 Y24.5409 
G01 X25.0436 Y24.4961 
G01 X25.0260 Y24.4697 
G01 X25.0051 Y24.4459 
G01 X24.9734 Y24.3910 
G01 X24.9382 Y24.3384 
G01 X24.9261 Y24.3091 
G01 X24.9102 Y24.2816 
G01 X24.8899 Y24.2217 
G01 X24.8657 Y24.1632 
G01 X24.8595 Y24.1321 
G01 X24.8493 Y24.1020 
G01 X24.8410 Y24.0393 
G01 X24.8287 Y23.9772 
G01 X24.8287 Y23.9455 
G01 X24.8245 Y23.9140 
G01 X24.8287 Y23.8508 
G01 X24.8287 Y23.2423 
G01 X24.6208 Y22.7405 
G01 X24.6050 Y22.7130 
G01 X24.5846 Y22.6531 
G01 X24.5604 Y22.5946 
G01 X24.5542 Y22.5635 
G01 X24.5440 Y22.5335 
G01 X24.5357 Y22.4707 
G01 X24.5234 Y22.4086 
G01 X24.5234 Y22.3769 
G01 X24.5192 Y22.3454 
G01 X24.5234 Y22.2822 
G01 X24.5234 Y22.2189 
G01 X24.5296 Y22.1878 
G01 X24.5317 Y22.1562 
G01 X24.5480 Y22.0950 
G01 X24.5604 Y22.0329 
G01 X24.5725 Y22.0036 
G01 X24.5807 Y21.9730 
G01 X24.6087 Y21.9162 
G01 X24.6330 Y21.8577 
G01 X24.6506 Y21.8313 
G01 X24.6646 Y21.8029 
G01 X24.7032 Y21.7527 
G01 X24.7383 Y21.7000 
G01 X24.7608 Y21.6776 
G01 X24.7801 Y21.6524 
G01 X24.8277 Y21.6107 
G01 X24.8724 Y21.5659 
G01 X24.8988 Y21.5483 
G01 X24.9227 Y21.5274 
G01 X24.9775 Y21.4957 
G01 X25.0301 Y21.4605 
G01 X25.0594 Y21.4484 
G01 X25.0869 Y21.4325 
G01 X25.1468 Y21.4122 
G01 X25.2053 Y21.3880 
G01 X25.2365 Y21.3818 
G01 X25.2665 Y21.3716 
G01 X25.3293 Y21.3633 
G01 X25.3914 Y21.3510 
G01 X25.4231 Y21.3510 
G01 X25.4545 Y21.3468 
G01 X25.5177 Y21.3510 
G01 X25.5810 Y21.3510 
G01 X25.6121 Y21.3572 
G01 X25.6438 Y21.3592 
G01 X25.7050 Y21.3756 
G01 X25.7670 Y21.3880 
G01 X25.7963 Y21.4001 
G01 X25.8840 Y21.4236 
G01 X29.4714 Y21.4236 
G01 X30.0292 Y21.2742 
G01 X30.5293 Y20.9854 
G01 X30.7461 Y20.7686 
G01 X30.9038 Y20.6632 
G01 X31.0790 Y20.5907 
G01 X31.2650 Y20.5537 
G01 X35.0327 Y20.5537 
G01 X35.5191 Y20.3522 
G01 X40.0515 Y15.8198 
G01 X40.2529 Y15.3335 
G01 X40.2529 Y14.9398 
G01 X40.2488 Y14.8766 
G01 X40.2529 Y14.8452 
G01 X40.2529 Y14.8134 
G01 X40.2653 Y14.7513 
G01 X40.2735 Y14.6886 
G01 X40.2837 Y14.6585 
G01 X40.2899 Y14.6274 
G01 X40.3142 Y14.5690 
G01 X40.3345 Y14.5090 
G01 X40.3504 Y14.4815 
G01 X40.3625 Y14.4522 
G01 X40.3977 Y14.3996 
G01 X40.4293 Y14.3447 
G01 X40.4503 Y14.3209 
G01 X40.4679 Y14.2945 
G01 X40.5126 Y14.2498 
G01 X40.5544 Y14.2022 
G01 X40.5796 Y14.1828 
G01 X40.6020 Y14.1604 
G01 X40.6546 Y14.1253 
G01 X40.7048 Y14.0867 
G01 X40.7333 Y14.0727 
G01 X40.7597 Y14.0551 
G01 X40.8181 Y14.0308 
G01 X40.8749 Y14.0028 
G01 X40.9056 Y13.9946 
G01 X40.9349 Y13.9825 
G01 X40.9970 Y13.9701 
G01 X41.2812 Y13.8940 
G01 X41.7813 Y13.6052 
G01 X42.1896 Y13.1969 
G01 X42.4784 Y12.6968 
G01 X42.6278 Y12.1390 
G01 X42.6278 Y11.5615 
G01 X42.4784 Y11.0038 
G01 X42.1896 Y10.5036 
G01 X41.9569 Y10.2709 
G01 X41.8310 Y10.1450 
G01 X41.8228 Y10.1368 
G01 X41.7893 Y10.0866 
G01 X41.7174 Y9.9791 
G01 X41.6449 Y9.8039 
G01 X41.6079 Y9.6179 
G01 X41.6079 Y9.4283 
G01 X41.6449 Y9.2422 
G01 X41.6741 Y9.1718 
G01 X41.7174 Y9.0670 
G01 X41.8228 Y8.9093 
G01 X41.9569 Y8.7752 
G01 X42.0693 Y8.6628 
G01 X42.2270 Y8.5575 
G01 X42.4022 Y8.4849 
G01 X42.5882 Y8.4479 
G01 X85.2726 Y8.4479 
G01 X85.4586 Y8.4849 
G01 X85.6339 Y8.5575 
G01 X85.7915 Y8.6628 
G01 X85.9257 Y8.7969 
G01 X89.3628 Y12.2341 
G01 X89.8491 Y12.4355 
G01 X96.9211 Y12.4355 
G01 X96.9317 Y12.4376 
G01 X97.1072 Y12.4725 
G00 Z2.4000 
G00 X18.0818 Y23.0390 
G01 Z-0.1000 F50.00 
G01 X17.9182 Y23.0390 F100.00 
G01 X17.7567 Y23.0134 
G01 X17.6012 Y22.9629 
G01 X17.4554 Y22.8886 
G01 X17.3231 Y22.7925 
G01 X15.3231 Y20.7925 
G01 X15.2075 Y20.6769 
G01 X15.1114 Y20.5446 
G01 X15.0371 Y20.3988 
G01 X14.9866 Y20.2433 
G01 X14.9610 Y20.0818 
G01 X14.9610 Y14.9182 
G01 X14.9866 Y14.7567 
G01 X15.0371 Y14.6012 
G01 X15.1114 Y14.4554 
G01 X15.2075 Y14.3231 
G01 X19.3371 Y10.1935 
G01 X19.3371 Y5.5421 
G01 X19.3627 Y5.3806 
G01 X19.4132 Y5.2251 
G01 X19.4875 Y5.0793 
G01 X19.5836 Y4.9470 
G01 X21.2705 Y3.2601 
G01 X21.3861 Y3.1445 
G01 X21.5184 Y3.0484 
G01 X21.6642 Y2.9741 
G01 X21.8197 Y2.9236 
G01 X21.9812 Y2.8980 
G01 X88.0188 Y2.8980 
G01 X88.1803 Y2.9236 
G01 X88.3358 Y2.9741 
G01 X88.4816 Y3.0484 
G01 X88.6139 Y3.1445 
G01 X88.7295 Y3.2601 
G01 X90.0250 Y4.5556 
G01 X91.7321 Y4.5556 
G01 X91.7321 Y4.3504 
G01 X91.7697 Y4.1128 
G01 X91.8440 Y3.8841 
G01 X91.9532 Y3.6698 
G01 X92.0946 Y3.4752 
G01 X92.2646 Y3.3052 
G01 X92.4592 Y3.1638 
G01 X92.6735 Y3.0546 
G01 X92.9022 Y2.9803 
G01 X93.1398 Y2.9427 
G01 X93.3803 Y2.9427 
G01 X93.6178 Y2.9803 
G01 X93.8465 Y3.0546 
G01 X94.0608 Y3.1638 
G01 X94.2554 Y3.3052 
G01 X94.4255 Y3.4752 
G01 X94.5668 Y3.6698 
G01 X94.6760 Y3.8841 
G01 X94.7503 Y4.1128 
G01 X94.7880 Y4.3504 
G01 X94.7880 Y6.8388 
G01 X94.7503 Y7.0763 
G01 X94.6760 Y7.3051 
G01 X94.5668 Y7.5194 
G01 X94.4255 Y7.7139 
G01 X94.2554 Y7.8840 
G01 X94.0608 Y8.0254 
G01 X93.8465 Y8.1345 
G01 X93.6178 Y8.2089 
G01 X93.3803 Y8.2465 
G01 X93.1398 Y8.2465 
G01 X92.9022 Y8.2089 
G01 X92.6735 Y8.1345 
G01 X92.4592 Y8.0254 
G01 X92.2646 Y7.8840 
G01 X92.0946 Y7.7139 
G01 X91.9532 Y7.5194 
G01 X91.8440 Y7.3051 
G01 X91.7697 Y7.0763 
G01 X91.7321 Y6.8388 
G01 X91.7321 Y6.6336 
G01 X89.5128 Y6.6336 
G01 X89.3513 Y6.6080 
G01 X89.1958 Y6.5575 
G01 X89.0500 Y6.4832 
G01 X88.9177 Y6.3871 
G01 X87.5066 Y4.9760 
G01 X22.4934 Y4.9760 
G01 X21.4151 Y6.0543 
G01 X21.4151 Y10.7057 
G01 X21.3895 Y10.8672 
G01 X21.3390 Y11.0227 
G01 X21.2647 Y11.1685 
G01 X21.1686 Y11.3008 
G01 X21.0530 Y11.4164 
G01 X17.0390 Y15.4304 
G01 X17.0390 Y19.5696 
G01 X18.4304 Y20.9610 
G01 X22.0818 Y20.9610 
G01 X22.2433 Y20.9866 
G01 X22.3988 Y21.0371 
G01 X22.5446 Y21.1114 
G01 X22.6769 Y21.2075 
G01 X24.2980 Y22.8286 
G01 X24.3941 Y22.9609 
G01 X24.4683 Y23.1066 
G01 X24.5189 Y23.2622 
G01 X24.5445 Y23.4237 
G01 X24.5445 Y25.0314 
G01 X25.1355 Y25.0314 
G01 X25.3836 Y25.0641 
G01 X25.6253 Y25.1288 
G01 X25.8565 Y25.2246 
G01 X26.0732 Y25.3497 
G01 X26.2718 Y25.5020 
G01 X26.4487 Y25.6790 
G01 X26.6010 Y25.8775 
G01 X26.7262 Y26.0942 
G01 X26.8219 Y26.3254 
G01 X26.8867 Y26.5671 
G01 X26.9194 Y26.8152 
G01 X26.9194 Y27.0655 
G01 X26.8867 Y27.3136 
G01 X26.8219 Y27.5553 
G01 X26.7262 Y27.7865 
G01 X26.6010 Y28.0032 
G01 X26.4487 Y28.2017 
G01 X26.2718 Y28.3786 
G01 X26.0732 Y28.5310 
G01 X25.8565 Y28.6561 
G01 X25.6253 Y28.7519 
G01 X25.3836 Y28.8166 
G01 X25.1355 Y28.8493 
G01 X21.8754 Y28.8493 
G01 X21.6273 Y28.8166 
G01 X21.3856 Y28.7519 
G01 X21.1544 Y28.6561 
G01 X20.9377 Y28.5310 
G01 X20.7391 Y28.3786 
G01 X20.5622 Y28.2017 
G01 X20.4374 Y28.0390 
G01 X17.9182 Y28.0390 
G01 X17.7567 Y28.0134 
G01 X17.6012 Y27.9629 
G01 X17.4554 Y27.8886 
G01 X17.3231 Y27.7925 
G01 X17.2075 Y27.6769 
G01 X16.7496 Y27.2190 
G01 X15.8579 Y27.2190 
G01 X15.8579 Y27.4242 
G01 X15.8203 Y27.6617 
G01 X15.7460 Y27.8905 
G01 X15.6368 Y28.1048 
G01 X15.4955 Y28.2993 
G01 X15.3254 Y28.4694 
G01 X15.1308 Y28.6108 
G01 X14.9165 Y28.7200 
G01 X14.6878 Y28.7943 
G01 X14.4503 Y28.8319 
G01 X14.2097 Y28.8319 
G01 X13.9722 Y28.7943 
G01 X13.7435 Y28.7200 
G01 X13.5292 Y28.6108 
G01 X13.3346 Y28.4694 
G01 X13.1645 Y28.2993 
G01 X13.0232 Y28.1048 
G01 X12.9140 Y27.8905 
G01 X12.8397 Y27.6617 
G01 X12.8021 Y27.4242 
G01 X12.8021 Y24.9358 
G01 X12.8397 Y24.6983 
G01 X12.9140 Y24.4695 
G01 X13.0232 Y24.2552 
G01 X13.1645 Y24.0607 
G01 X13.3346 Y23.8906 
G01 X13.5292 Y23.7492 
G01 X13.7435 Y23.6400 
G01 X13.9722 Y23.5657 
G01 X14.2097 Y23.5281 
G01 X14.4503 Y23.5281 
G01 X14.6878 Y23.5657 
G01 X14.9165 Y23.6400 
G01 X15.1308 Y23.7492 
G01 X15.3254 Y23.8906 
G01 X15.4955 Y24.0607 
G01 X15.6368 Y24.2552 
G01 X15.7460 Y24.4695 
G01 X15.8203 Y24.6983 
G01 X15.8579 Y24.9358 
G01 X15.8579 Y25.1410 
G01 X17.2618 Y25.1410 
G01 X17.4233 Y25.1666 
G01 X17.5788 Y25.2171 
G01 X17.7246 Y25.2914 
G01 X17.8569 Y25.3875 
G01 X18.4304 Y25.9610 
G01 X20.3617 Y25.9610 
G01 X20.4099 Y25.8775 
G01 X20.5622 Y25.6790 
G01 X20.7391 Y25.5020 
G01 X20.9377 Y25.3497 
G01 X21.1544 Y25.2246 
G01 X21.3856 Y25.1288 
G01 X21.6273 Y25.0641 
G01 X21.8754 Y25.0314 
G01 X22.4665 Y25.0314 
G01 X22.4665 Y23.9358 
G01 X21.5696 Y23.0390 
G01 X18.0818 Y23.0390 
G00 Z2.4000 
G00 X102.1080 Y4.3504 
G01 Z-0.1000 F50.00 
G01 X102.1080 Y6.8388 F100.00 
G01 X102.0703 Y7.0763 
G01 X101.9960 Y7.3051 
G01 X101.8868 Y7.5194 
G01 X101.7455 Y7.7139 
G01 X101.6190 Y7.8404 
G01 X101.6190 Y9.7264 
G01 X101.5934 Y9.8879 
G01 X101.5429 Y10.0434 
G01 X101.4687 Y10.1891 
G01 X101.3725 Y10.3215 
G01 X99.9048 Y11.7892 
G01 X99.7892 Y11.9048 
G01 X99.6569 Y12.0009 
G01 X99.5111 Y12.0752 
G01 X99.3556 Y12.1257 
G01 X99.1941 Y12.1513 
G01 X90.0305 Y12.1513 
G01 X89.8690 Y12.1257 
G01 X89.7135 Y12.0752 
G01 X89.5678 Y12.0009 
G01 X89.4354 Y11.9048 
G01 X85.6943 Y8.1637 
G01 X42.1103 Y8.1637 
G01 X42.0965 Y8.1875 
G01 X41.9442 Y8.3860 
G01 X41.7672 Y8.5630 
G01 X41.5687 Y8.7153 
G01 X41.3520 Y8.8404 
G01 X41.1208 Y8.9362 
G01 X40.8791 Y9.0010 
G01 X40.6310 Y9.0336 
G01 X37.3709 Y9.0336 
G01 X37.1228 Y9.0010 
G01 X36.8811 Y8.9362 
G01 X36.6499 Y8.8404 
G01 X36.4332 Y8.7153 
G01 X36.2346 Y8.5630 
G01 X36.0577 Y8.3860 
G01 X35.9053 Y8.1875 
G01 X35.8196 Y8.0390 
G01 X35.4304 Y8.0390 
G01 X34.0390 Y9.4304 
G01 X34.0390 Y11.0818 
G01 X34.0134 Y11.2433 
G01 X33.9629 Y11.3988 
G01 X33.8886 Y11.5446 
G01 X33.7925 Y11.6769 
G01 X31.8843 Y13.5851 
G01 X31.7520 Y13.6812 
G01 X31.6063 Y13.7555 
G01 X31.4507 Y13.8060 
G01 X31.2892 Y13.8316 
G01 X31.0173 Y13.8316 
G01 X31.0035 Y13.8554 
G01 X30.8512 Y14.0539 
G01 X30.6742 Y14.2309 
G01 X30.4757 Y14.3832 
G01 X30.2590 Y14.5083 
G01 X30.0278 Y14.6041 
G01 X29.7861 Y14.6689 
G01 X29.5380 Y14.7015 
G01 X26.2779 Y14.7015 
G01 X26.0298 Y14.6689 
G01 X25.7880 Y14.6041 
G01 X25.5569 Y14.5083 
G01 X25.3401 Y14.3832 
G01 X25.1416 Y14.2309 
G01 X24.9647 Y14.0539 
G01 X24.8123 Y13.8554 
G01 X24.6872 Y13.6387 
G01 X24.5915 Y13.4075 
G01 X24.5267 Y13.1658 
G01 X24.4940 Y12.9177 
G01 X24.4940 Y12.6675 
G01 X24.5267 Y12.4194 
G01 X24.5915 Y12.1776 
G01 X24.6872 Y11.9465 
G01 X24.8123 Y11.7298 
G01 X24.9647 Y11.5312 
G01 X25.1416 Y11.3543 
G01 X25.3401 Y11.2019 
G01 X25.5569 Y11.0768 
G01 X25.7880 Y10.9811 
G01 X26.0298 Y10.9163 
G01 X26.2779 Y10.8836 
G01 X29.5380 Y10.8836 
G01 X29.7861 Y10.9163 
G01 X30.0278 Y10.9811 
G01 X30.2590 Y11.0768 
G01 X30.4757 Y11.2019 
G01 X30.6742 Y11.3543 
G01 X30.8512 Y11.5312 
G01 X30.9155 Y11.6151 
G01 X31.9610 Y10.5696 
G01 X31.9610 Y8.9182 
G01 X31.9866 Y8.7567 
G01 X32.0371 Y8.6012 
G01 X32.1114 Y8.4554 
G01 X32.2075 Y8.3231 
G01 X34.2075 Y6.3231 
G01 X34.3231 Y6.2075 
G01 X34.4554 Y6.1114 
G01 X34.6012 Y6.0371 
G01 X34.7567 Y5.9866 
G01 X34.9182 Y5.9610 
G01 X35.9827 Y5.9610 
G01 X36.0577 Y5.8633 
G01 X36.2346 Y5.6864 
G01 X36.4332 Y5.5341 
G01 X36.6499 Y5.4089 
G01 X36.8811 Y5.3132 
G01 X37.1228 Y5.2484 
G01 X37.3709 Y5.2157 
G01 X40.6310 Y5.2157 
G01 X40.8791 Y5.2484 
G01 X41.1208 Y5.3132 
G01 X41.3520 Y5.4089 
G01 X41.5687 Y5.5341 
G01 X41.7672 Y5.6864 
G01 X41.9442 Y5.8633 
G01 X42.0965 Y6.0619 
G01 X42.1103 Y6.0857 
G01 X86.2065 Y6.0857 
G01 X86.3680 Y6.1113 
G01 X86.5235 Y6.1618 
G01 X86.6692 Y6.2361 
G01 X86.8016 Y6.3322 
G01 X90.5427 Y10.0733 
G01 X98.6819 Y10.0733 
G01 X99.5410 Y9.2142 
G01 X99.5410 Y7.8404 
G01 X99.4146 Y7.7139 
G01 X99.2732 Y7.5194 
G01 X99.1640 Y7.3051 
G01 X99.0897 Y7.0763 
G01 X99.0521 Y6.8388 
G01 X99.0521 Y4.3504 
G01 X99.0897 Y4.1128 
G01 X99.1640 Y3.8841 
G01 X99.2732 Y3.6698 
G01 X99.4146 Y3.4752 
G01 X99.5846 Y3.3052 
G01 X99.7792 Y3.1638 
G01 X99.9935 Y3.0546 
G01 X100.2222 Y2.9803 
G01 X100.4598 Y2.9427 
G01 X100.7003 Y2.9427 
G01 X100.9378 Y2.9803 
G01 X101.1665 Y3.0546 
G01 X101.3808 Y3.1638 
G01 X101.5754 Y3.3052 
G01 X101.7455 Y3.4752 
G01 X101.8868 Y3.6698 
G01 X101.9960 Y3.8841 
G01 X102.0703 Y4.1128 
G01 X102.1080 Y4.3504 
G00 Z2.4000 
G00 X102.1080 Y19.5904 
G01 Z-0.1000 F50.00 
G01 X102.1080 Y22.0788 F100.00 
G01 X102.0703 Y22.3163 
G01 X101.9960 Y22.5451 
G01 X101.8868 Y22.7594 
G01 X101.7455 Y22.9539 
G01 X101.6190 Y23.0804 
G01 X101.6190 Y23.5018 
G01 X101.5934 Y23.6633 
G01 X101.5429 Y23.8188 
G01 X101.4687 Y23.9645 
G01 X101.3725 Y24.0968 
G01 X100.1037 Y25.3656 
G01 X100.3901 Y25.3656 
G01 X100.6382 Y25.3983 
G01 X100.8799 Y25.4631 
G01 X101.1111 Y25.5588 
G01 X101.3278 Y25.6840 
G01 X101.5263 Y25.8363 
G01 X101.7033 Y26.0132 
G01 X101.8556 Y26.2118 
G01 X101.9807 Y26.4285 
G01 X102.0765 Y26.6597 
G01 X102.1413 Y26.9014 
G01 X102.1739 Y27.1495 
G01 X102.1739 Y27.3997 
G01 X102.1413 Y27.6478 
