(.../pcb-gcode-3.6.0.4/pcb-gcode.ulp)
(Copyright 2005 - 2012 by John Johnson)
(See readme.txt for licensing terms.)
(This file generated from the board:)
(.../Cart top solution DiodOR/DiodeOR.brd)
(Current profile is .../pcb-gcode-3.6.0.4/profiles/generic.pp  )
(This file generated 2020/03/02 21:34)
(Settings from pcb-machine.h)
(  Tool Size)
(0.3000 )
(Z Axis Settings)
(  High     Up        Down     Drill)
(12.7000 	2.4000 	-0.1000 	-1.7000 )
(spindle on time = 3.0000)
(milling depth = -0.2540)
(text depth = -0.1270)
(tool change at 0.0000 -12.0000 20.0000 )
(feed rate xy = F100.00 )
(feed rate z  = F50.00 )
(Settings from pcb-defaults.h)
(isolate min = 0.0254)
(isolate max = 0.2000)
(isolate step = 0.0762)
(Generated top outlines, top drill, )
(Unit of measure: mm)
( Tool|       Size       |  Min Sub |  Max Sub |   Count )
( T01  4.000mm 0.1575in 0.0000in 0.0000in )
( T02  1.499mm 0.0590in 0.0000in 0.0000in )
( T03  2.007mm 0.0790in 0.0000in 0.0000in )
(Metric Mode)
G21
(Absolute Coordinates)
G90
M05
G00 Z20.0000 
G00 X0.0000 Y-12.0000 
M06 T01  ; 4.0000 
G01 Z0.0000 F50.00 
M06 T01  ; 4.0000 
G00 Z2.4000 
M03
G04 P3.000000
G00 Z2.400000
G00 X6.0000 Y15.0000 
G01 Z-1.7000 F50.00 
G01 Z2.400000
(R2.4000  P1.000000)
(G00 Z2.400000)
G00 X109.0000 Y15.0000 
G01 Z-1.700000
G01 Z2.400000
M05
G00 Z20.0000 
M06 T02  ; 1.4986 
G01 Z0.0000 F50.00 
M06 T02  ; 1.4986 
G00 Z2.4000 
M03
G04 P3.000000
G00 Z2.400000
G00 X93.2600 Y5.5946 
G01 Z-1.7000 F50.00 
G01 Z2.400000
(R2.4000  P1.000000)
(G00 Z2.400000)
G00 X93.2600 Y20.8346 
G01 Z-1.700000
G01 Z2.400000
(G00 Z2.400000)
G00 X100.5800 Y5.5946 
G01 Z-1.700000
G01 Z2.400000
(G00 Z2.400000)
G00 X100.5800 Y20.8346 
G01 Z-1.700000
G01 Z2.400000
(G00 Z2.400000)
G00 X14.3300 Y10.9400 
G01 Z-1.700000
G01 Z2.400000
(G00 Z2.400000)
G00 X14.3300 Y26.1800 
G01 Z-1.700000
G01 Z2.400000
M05
G00 Z20.0000 
M06 T03  ; 2.0066 
G01 Z0.0000 F50.00 
M06 T03  ; 2.0066 
G00 Z2.4000 
M03
G04 P3.000000
G00 Z2.400000
G00 X38.9297 Y11.8503 
G01 Z-1.7000 F50.00 
G01 Z2.400000
(R2.4000  P1.000000)
(G00 Z2.400000)
G00 X39.0009 Y7.1247 
G01 Z-1.700000
G01 Z2.400000
(G00 Z2.400000)
G00 X81.7314 Y16.5967 
G01 Z-1.700000
G01 Z2.400000
(G00 Z2.400000)
G00 X81.9618 Y21.5359 
G01 Z-1.700000
G01 Z2.400000
(G00 Z2.400000)
G00 X91.4100 Y27.2746 
G01 Z-1.700000
G01 Z2.400000
(G00 Z2.400000)
G00 X98.7600 Y27.2746 
G01 Z-1.700000
G01 Z2.400000
(G00 Z2.400000)
G00 X23.5055 Y26.9403 
G01 Z-1.700000
G01 Z2.400000
(G00 Z2.400000)
G00 X27.6777 Y19.2305 
G01 Z-1.700000
G01 Z2.400000
(G00 Z2.400000)
G00 X27.9079 Y12.7926 
G01 Z-1.700000
G01 Z2.400000
(G00 Z2.400000)
G00 X31.0950 Y27.0173 
G01 Z-1.700000
G01 Z2.400000
T01 
G00 Z12.7000 
M05
M02
