(.../pcb-gcode-3.6.0.4/pcb-gcode.ulp)
(Copyright 2005 - 2012 by John Johnson)
(See readme.txt for licensing terms.)
(This file generated from the board:)
(.../Cart top solution/CTS Version 2.brd)
(Current profile is .../pcb-gcode-3.6.0.4/profiles/generic.pp  )
(This file generated 2019/12/10 10:11)
(Settings from pcb-machine.h)
(  Tool Size)
(0.3000 )
(Z Axis Settings)
(  High     Up        Down     Drill)
(12.7000 	2.4000 	-0.1000 	-1.7000 )
(spindle on time = 3.0000)
(milling depth = -0.2540)
(text depth = -0.1270)
(tool change at 0.0000 -12.0000 20.0000 )
(feed rate xy = F100.00 )
(feed rate z  = F50.00 )
(Settings from pcb-defaults.h)
(isolate min = 0.0254)
(isolate max = 0.3000)
(isolate step = 0.1500)
(Generated top outlines, top drill, bottom drill, )
(Unit of measure: mm)
(Metric Mode)
G21
(Absolute Coordinates)
G90
G00 X0.0000 Y0.0000 
M03
G04 P3.000000
G00 Z2.4000 
G00 X29.9964 Y15.2585 
G01 Z-0.1000 F50.00 
G01 X29.8743 Y15.3806 F100.00 
G01 X29.7818 Y15.4189 
G01 X28.1388 Y15.4189 
G01 X28.0463 Y15.3806 
G01 X27.9755 Y15.3098 
G01 X27.9242 Y15.2585 
G01 X26.9964 Y15.2585 
G01 X26.3403 Y15.9146 
G01 X26.3403 Y16.8424 
G01 X26.9964 Y17.4985 
G01 X27.9242 Y17.4985 
G01 X28.0463 Y17.3764 
G01 X28.1388 Y17.3381 
G01 X29.7818 Y17.3381 
G01 X29.8743 Y17.3764 
G01 X29.9451 Y17.4472 
G01 X29.9964 Y17.4985 
G01 X30.9242 Y17.4985 
G01 X31.5803 Y16.8424 
G01 X31.5803 Y15.9146 
G01 X30.9242 Y15.2585 
G01 X29.9964 Y15.2585 
G00 Z2.4000 
G00 X27.8065 Y17.2143 
G01 Z-0.1000 F50.00 
G01 X27.1141 Y17.2143 F100.00 
G01 X26.6245 Y16.7247 
G01 X26.6245 Y16.0323 
G01 X27.1141 Y15.5427 
G01 X27.8065 Y15.5427 
G01 X27.9669 Y15.7031 
G01 X29.9537 Y15.7031 
G01 X30.1141 Y15.5427 
G01 X30.8065 Y15.5427 
G01 X31.2961 Y16.0323 
G01 X31.2961 Y16.7247 
G01 X30.8065 Y17.2143 
G01 X30.1141 Y17.2143 
G01 X29.9537 Y17.0539 
G01 X27.9669 Y17.0539 
G01 X27.8065 Y17.2143 
G00 Z2.4000 
G00 X45.2523 Y62.4974 
G01 Z-0.1000 F50.00 
G01 X44.4380 Y62.1601 F100.00 
G01 X43.5566 Y62.1601 
G01 X42.7422 Y62.4974 
G01 X42.1190 Y63.1206 
G01 X41.7817 Y63.9350 
G01 X41.7817 Y64.8164 
G01 X42.1190 Y65.6307 
G01 X42.7422 Y66.2540 
G01 X43.5566 Y66.5913 
G01 X44.4380 Y66.5913 
G01 X45.2523 Y66.2540 
G01 X45.8756 Y65.6307 
G01 X46.2129 Y64.8164 
G01 X46.2129 Y63.9350 
G01 X45.8756 Y63.1206 
G01 X45.2523 Y62.4974 
G00 Z2.4000 
G00 X57.8652 Y30.5878 
G01 Z-0.1000 F50.00 
G01 X57.1519 Y30.2924 F100.00 
G01 X56.3799 Y30.2924 
G01 X55.6666 Y30.5878 
G01 X55.1207 Y31.1337 
G01 X54.8253 Y31.8469 
G01 X54.8253 Y32.6190 
G01 X55.1207 Y33.3322 
G01 X55.6666 Y33.8781 
G01 X56.3799 Y34.1736 
G01 X57.1519 Y34.1736 
G01 X57.8652 Y33.8781 
G01 X58.4111 Y33.3322 
G01 X58.7065 Y32.6190 
G01 X58.7065 Y31.8469 
G01 X58.4111 Y31.1337 
G01 X57.8652 Y30.5878 
G00 Z2.4000 
G00 X131.3644 Y10.8045 
G01 Z-0.1000 F50.00 
G01 X130.9286 Y10.3687 F100.00 
G01 X130.3949 Y10.0606 
G01 X129.7996 Y9.9011 
G01 X129.1833 Y9.9011 
G01 X128.5880 Y10.0606 
G01 X128.0543 Y10.3687 
G01 X127.6185 Y10.8045 
G01 X127.3103 Y11.3382 
G01 X127.1508 Y11.9335 
G01 X127.1508 Y12.5498 
G01 X127.3103 Y13.1451 
G01 X127.6185 Y13.6788 
G01 X128.0543 Y14.1146 
G01 X128.5880 Y14.4228 
G01 X129.1833 Y14.5823 
G01 X129.7996 Y14.5823 
G01 X130.3949 Y14.4228 
G01 X130.9286 Y14.1146 
G01 X131.3644 Y13.6788 
G01 X131.6725 Y13.1451 
G01 X131.8320 Y12.5498 
G01 X131.8320 Y11.9335 
G01 X131.6725 Y11.3382 
G01 X131.3644 Y10.8045 
G00 Z2.4000 
G00 X116.1244 Y40.5225 
G01 Z-0.1000 F50.00 
G01 X115.6886 Y40.0867 F100.00 
G01 X115.1549 Y39.7786 
G01 X114.5596 Y39.6191 
G01 X113.9433 Y39.6191 
G01 X113.3480 Y39.7786 
G01 X112.8143 Y40.0867 
G01 X112.3785 Y40.5225 
G01 X112.0703 Y41.0562 
G01 X111.9108 Y41.6515 
G01 X111.9108 Y42.2678 
G01 X112.0703 Y42.8631 
G01 X112.3785 Y43.3968 
G01 X112.8143 Y43.8326 
G01 X113.3480 Y44.1408 
G01 X113.9433 Y44.3003 
G01 X114.5596 Y44.3003 
G01 X115.1549 Y44.1408 
G01 X115.6886 Y43.8326 
G01 X116.1244 Y43.3968 
G01 X116.4325 Y42.8631 
G01 X116.5920 Y42.2678 
G01 X116.5920 Y41.6515 
G01 X116.4325 Y41.0562 
G01 X116.1244 Y40.5225 
G00 Z2.4000 
G00 X107.4888 Y57.7636 
G01 Z-0.1000 F50.00 
G01 X107.4888 Y57.7636 F100.00 
G01 X107.4180 Y57.6928 
G01 X107.3797 Y57.6004 
G01 X107.3797 Y27.0315 
G01 X107.4180 Y26.9390 
G01 X107.4888 Y26.8683 
G01 X125.3592 Y8.9979 
G01 X125.4516 Y8.9596 
G01 X128.6584 Y8.9596 
G01 X128.7509 Y8.9979 
G01 X128.8217 Y9.0687 
G01 X128.8600 Y9.1611 
G01 X128.8678 Y9.1800 
G01 X128.9971 Y9.3093 
G01 X129.1660 Y9.3793 
G01 X131.8489 Y9.3793 
G01 X132.0178 Y9.3093 
G01 X132.1471 Y9.1800 
G01 X132.2170 Y9.0111 
G01 X132.2170 Y6.3283 
G01 X132.1471 Y6.1593 
G01 X132.0178 Y6.0300 
G01 X131.8489 Y5.9601 
G01 X129.1660 Y5.9601 
G01 X128.9971 Y6.0300 
G01 X128.8678 Y6.1593 
G01 X128.7978 Y6.3283 
G01 X128.7978 Y6.8388 
G01 X128.7595 Y6.9313 
G01 X128.6888 Y7.0021 
G01 X128.5963 Y7.0404 
G01 X124.8091 Y7.0404 
G01 X124.4564 Y7.1865 
G01 X105.6066 Y26.0363 
G01 X105.4605 Y26.3890 
G01 X105.4605 Y57.6004 
G01 X105.4222 Y57.6928 
G01 X105.3514 Y57.7636 
G01 X105.2039 Y57.9111 
G01 X104.9855 Y58.4384 
G01 X104.9855 Y60.9591 
G01 X105.2039 Y61.4864 
G01 X105.6075 Y61.8899 
G01 X106.1348 Y62.1083 
G01 X106.7055 Y62.1083 
G01 X107.2328 Y61.8899 
G01 X107.6363 Y61.4864 
G01 X107.8547 Y60.9591 
G01 X107.8547 Y58.4384 
G01 X107.6363 Y57.9111 
G01 X107.4888 Y57.7636 
G00 Z2.4000 
G00 X107.5705 Y58.6332 
G01 Z-0.1000 F50.00 
G01 X107.5705 Y60.7643 F100.00 
G01 X107.5422 Y60.9431 
G01 X107.4862 Y61.1153 
G01 X107.4040 Y61.2767 
G01 X107.2976 Y61.4232 
G01 X107.1696 Y61.5512 
G01 X107.0231 Y61.6577 
G01 X106.8617 Y61.7399 
G01 X106.6895 Y61.7958 
G01 X106.5107 Y61.8241 
G01 X106.3296 Y61.8241 
G01 X106.1507 Y61.7958 
G01 X105.9785 Y61.7399 
G01 X105.8172 Y61.6577 
G01 X105.6707 Y61.5512 
G01 X105.5427 Y61.4232 
G01 X105.4362 Y61.2767 
G01 X105.3540 Y61.1153 
G01 X105.2981 Y60.9431 
G01 X105.2697 Y60.7643 
G01 X105.2697 Y58.6332 
G01 X105.2981 Y58.4544 
G01 X105.3540 Y58.2821 
G01 X105.4362 Y58.1208 
G01 X105.5427 Y57.9743 
G01 X105.6707 Y57.8463 
G01 X105.7447 Y57.7925 
G01 X105.7447 Y26.5133 
G01 X105.7707 Y26.3829 
G01 X105.8216 Y26.2599 
G01 X105.8955 Y26.1493 
G01 X124.5695 Y7.4754 
G01 X124.6801 Y7.4015 
G01 X124.8030 Y7.3506 
G01 X124.9335 Y7.3246 
G01 X129.0820 Y7.3246 
G01 X129.0820 Y6.3848 
G01 X129.1087 Y6.3203 
G01 X129.1581 Y6.2710 
G01 X129.2225 Y6.2443 
G01 X131.7923 Y6.2443 
G01 X131.8568 Y6.2710 
G01 X131.9061 Y6.3203 
G01 X131.9328 Y6.3848 
G01 X131.9328 Y8.9546 
G01 X131.9061 Y9.0190 
G01 X131.8568 Y9.0684 
G01 X131.7923 Y9.0951 
G01 X129.2225 Y9.0951 
G01 X129.1581 Y9.0684 
G01 X129.1087 Y9.0190 
G01 X129.0820 Y8.9546 
G01 X129.0820 Y8.6754 
G01 X125.2798 Y8.6754 
G01 X107.0955 Y26.8596 
G01 X107.0955 Y57.7925 
G01 X107.1696 Y57.8463 
G01 X107.2976 Y57.9743 
G01 X107.4040 Y58.1208 
G01 X107.4862 Y58.2821 
G01 X107.5422 Y58.4544 
G01 X107.5705 Y58.6332 
G00 Z2.4000 
G00 X94.2523 Y62.4974 
G01 Z-0.1000 F50.00 
G01 X93.4380 Y62.1601 F100.00 
G01 X92.5566 Y62.1601 
G01 X91.7422 Y62.4974 
G01 X91.1190 Y63.1206 
G01 X90.7817 Y63.9350 
G01 X90.7817 Y64.8164 
G01 X91.1190 Y65.6307 
G01 X91.7422 Y66.2540 
G01 X92.5566 Y66.5913 
G01 X93.4380 Y66.5913 
G01 X94.2523 Y66.2540 
G01 X94.8756 Y65.6307 
G01 X95.2129 Y64.8164 
G01 X95.2129 Y63.9350 
G01 X94.8756 Y63.1206 
G01 X94.2523 Y62.4974 
G00 Z2.4000 
G00 X76.9152 Y30.5878 
G01 Z-0.1000 F50.00 
G01 X76.2019 Y30.2924 F100.00 
G01 X75.4299 Y30.2924 
G01 X74.7166 Y30.5878 
G01 X74.1707 Y31.1337 
G01 X73.8753 Y31.8469 
G01 X73.8753 Y32.6190 
G01 X74.1707 Y33.3322 
G01 X74.7166 Y33.8781 
G01 X75.4299 Y34.1736 
G01 X76.2019 Y34.1736 
G01 X76.9152 Y33.8781 
G01 X77.4611 Y33.3322 
G01 X77.7565 Y32.6190 
G01 X77.7565 Y31.8469 
G01 X77.4611 Y31.1337 
G01 X76.9152 Y30.5878 
G00 Z2.4000 
G00 X26.9964 Y25.1185 
G01 Z-0.1000 F50.00 
G01 X27.9242 Y25.1185 F100.00 
G01 X28.5803 Y24.4624 
G01 X28.5803 Y23.5346 
G01 X27.9242 Y22.8785 
G01 X26.9964 Y22.8785 
G01 X26.8743 Y23.0006 
G01 X26.7818 Y23.0389 
G01 X24.1388 Y23.0389 
G01 X24.0463 Y23.0006 
G01 X23.9755 Y22.9298 
G01 X23.9242 Y22.8785 
G01 X22.9964 Y22.8785 
G01 X22.3403 Y23.5346 
G01 X22.3403 Y24.4624 
G01 X22.9964 Y25.1185 
G01 X23.9242 Y25.1185 
G01 X24.0463 Y24.9964 
G01 X24.1388 Y24.9581 
G01 X26.7818 Y24.9581 
G01 X26.8743 Y24.9964 
G01 X26.9451 Y25.0672 
G01 X26.9964 Y25.1185 
G00 Z2.4000 
G00 X28.2961 Y23.6523 
G01 Z-0.1000 F50.00 
G01 X28.2961 Y24.3447 F100.00 
G01 X27.8065 Y24.8343 
G01 X27.1141 Y24.8343 
G01 X26.9537 Y24.6739 
G01 X23.9669 Y24.6739 
G01 X23.8065 Y24.8343 
G01 X23.1141 Y24.8343 
G01 X22.6245 Y24.3447 
G01 X22.6245 Y23.6523 
G01 X23.1141 Y23.1627 
G01 X23.8065 Y23.1627 
G01 X23.9669 Y23.3231 
G01 X26.9537 Y23.3231 
G01 X27.1141 Y23.1627 
G01 X27.8065 Y23.1627 
G01 X28.2961 Y23.6523 
G00 Z2.4000 
G00 X33.9964 Y25.1185 
G01 Z-0.1000 F50.00 
G01 X34.9242 Y25.1185 F100.00 
G01 X35.5803 Y24.4624 
G01 X35.5803 Y23.5346 
G01 X34.9242 Y22.8785 
G01 X33.9964 Y22.8785 
G01 X33.8743 Y23.0006 
G01 X33.7818 Y23.0389 
G01 X31.1388 Y23.0389 
G01 X31.0463 Y23.0006 
G01 X30.9755 Y22.9298 
G01 X30.9242 Y22.8785 
G01 X29.9964 Y22.8785 
G01 X29.3403 Y23.5346 
G01 X29.3403 Y24.4624 
G01 X29.9964 Y25.1185 
G01 X30.9242 Y25.1185 
G01 X31.0463 Y24.9964 
G01 X31.1388 Y24.9581 
G01 X33.7818 Y24.9581 
G01 X33.8743 Y24.9964 
G01 X33.9451 Y25.0672 
G01 X33.9964 Y25.1185 
G00 Z2.4000 
G00 X35.2961 Y23.6523 
G01 Z-0.1000 F50.00 
G01 X35.2961 Y24.3447 F100.00 
G01 X34.8065 Y24.8343 
G01 X34.1141 Y24.8343 
G01 X33.9537 Y24.6739 
G01 X30.9669 Y24.6739 
G01 X30.8065 Y24.8343 
G01 X30.1141 Y24.8343 
G01 X29.6245 Y24.3447 
G01 X29.6245 Y23.6523 
G01 X30.1141 Y23.1627 
G01 X30.8065 Y23.1627 
G01 X30.9669 Y23.3231 
G01 X33.9537 Y23.3231 
G01 X34.1141 Y23.1627 
G01 X34.8065 Y23.1627 
G01 X35.2961 Y23.6523 
G00 Z2.4000 
G00 X101.9951 Y31.7461 
G01 Z-0.1000 F50.00 
G01 X101.9951 Y31.8792 F100.00 
G01 X101.9691 Y32.0097 
G01 X101.9182 Y32.1326 
G01 X101.8443 Y32.2432 
G01 X90.8102 Y43.2773 
G01 X90.7162 Y43.3713 
G01 X90.6055 Y43.4452 
G01 X90.4826 Y43.4962 
G01 X90.3521 Y43.5221 
G01 X67.2191 Y43.5221 
G01 X67.0886 Y43.4962 
G01 X66.9657 Y43.4452 
G01 X66.8551 Y43.3713 
G01 X66.7610 Y43.2773 
G01 X64.5904 Y41.1066 
G01 X64.4963 Y41.0125 
G01 X64.4224 Y40.9019 
G01 X64.3715 Y40.7790 
G01 X64.3455 Y40.6485 
G01 X64.3455 Y39.2219 
G01 X64.2990 Y39.1754 
G01 X64.1973 Y39.0232 
G01 X64.1272 Y38.8541 
G01 X64.0915 Y38.6745 
G01 X64.0915 Y38.4914 
G01 X64.1272 Y38.3119 
G01 X64.1973 Y38.1427 
G01 X64.2990 Y37.9905 
G01 X64.4284 Y37.8610 
G01 X64.5807 Y37.7593 
G01 X64.7498 Y37.6893 
G01 X64.9294 Y37.6536 
G01 X65.1124 Y37.6536 
G01 X65.2920 Y37.6893 
G01 X65.4611 Y37.7593 
G01 X65.6134 Y37.8610 
G01 X65.7428 Y37.9905 
G01 X65.8445 Y38.1427 
G01 X65.9146 Y38.3119 
G01 X65.9503 Y38.4914 
G01 X65.9503 Y38.6745 
G01 X65.9146 Y38.8541 
G01 X65.8445 Y39.0232 
G01 X65.7428 Y39.1754 
G01 X65.6963 Y39.2219 
G01 X65.6963 Y40.3022 
G01 X67.5654 Y42.1713 
G01 X90.0059 Y42.1713 
G01 X100.6443 Y31.5329 
G01 X100.6443 Y15.9117 
G01 X96.3097 Y11.5771 
G01 X91.0560 Y11.5771 
G01 X90.9255 Y11.5511 
G01 X90.8026 Y11.5002 
G01 X90.6920 Y11.4263 
G01 X90.5979 Y11.3322 
G01 X89.5761 Y10.3104 
G01 X81.2562 Y10.3104 
G01 X81.1257 Y10.2844 
G01 X81.0028 Y10.2335 
G01 X80.8922 Y10.1596 
G01 X80.7981 Y10.0655 
G01 X80.6780 Y9.9454 
G01 X78.4005 Y9.9454 
G01 X78.0073 Y10.3386 
G01 X77.8967 Y10.4125 
G01 X77.7737 Y10.4634 
G01 X77.6433 Y10.4894 
G01 X73.9886 Y10.4894 
G01 X73.8581 Y10.4634 
G01 X73.7352 Y10.4125 
G01 X73.6245 Y10.3386 
G01 X73.5305 Y10.2445 
G01 X73.2313 Y9.9454 
G01 X57.0098 Y9.9454 
G01 X52.6729 Y14.2823 
G01 X52.5623 Y14.3562 
G01 X52.4394 Y14.4071 
G01 X52.3089 Y14.4331 
G01 X48.0257 Y14.4331 
G01 X47.9886 Y14.4842 
G01 X47.8645 Y14.6083 
G01 X47.7224 Y14.7115 
G01 X47.5660 Y14.7911 
G01 X47.3991 Y14.8454 
G01 X47.2257 Y14.8729 
G01 X45.1706 Y14.8729 
G01 X44.9972 Y14.8454 
G01 X44.8303 Y14.7911 
G01 X44.6739 Y14.7115 
G01 X44.5318 Y14.6083 
G01 X44.4077 Y14.4842 
G01 X44.3045 Y14.3421 
G01 X44.2249 Y14.1857 
G01 X44.1706 Y14.0188 
G01 X44.1431 Y13.8454 
G01 X44.1431 Y13.6699 
G01 X44.1706 Y13.4965 
G01 X44.2249 Y13.3296 
G01 X44.3045 Y13.1732 
G01 X44.4077 Y13.0311 
G01 X44.5318 Y12.9070 
G01 X44.6739 Y12.8038 
G01 X44.8303 Y12.7242 
G01 X44.9972 Y12.6699 
G01 X45.1706 Y12.6425 
G01 X47.2257 Y12.6425 
G01 X47.3991 Y12.6699 
G01 X47.5660 Y12.7242 
G01 X47.7224 Y12.8038 
G01 X47.8645 Y12.9070 
G01 X47.9886 Y13.0311 
G01 X48.0257 Y13.0823 
G01 X51.9626 Y13.0823 
G01 X56.2995 Y8.7454 
G01 X56.4101 Y8.6715 
G01 X56.5330 Y8.6206 
G01 X56.6635 Y8.5946 
G01 X73.5776 Y8.5946 
G01 X73.7081 Y8.6206 
G01 X73.8310 Y8.6715 
G01 X73.9416 Y8.7454 
G01 X74.0357 Y8.8395 
G01 X74.3348 Y9.1386 
G01 X77.2970 Y9.1386 
G01 X77.5961 Y8.8395 
G01 X77.6902 Y8.7454 
G01 X77.8008 Y8.6715 
G01 X77.9237 Y8.6206 
G01 X78.0542 Y8.5946 
G01 X81.0243 Y8.5946 
G01 X81.1548 Y8.6206 
G01 X81.2777 Y8.6715 
G01 X81.3883 Y8.7454 
G01 X81.4824 Y8.8395 
G01 X81.6025 Y8.9596 
G01 X89.9224 Y8.9596 
G01 X90.0529 Y8.9856 
G01 X90.1758 Y9.0365 
G01 X90.2864 Y9.1104 
G01 X90.3805 Y9.2045 
G01 X91.4023 Y10.2263 
G01 X96.6560 Y10.2263 
G01 X96.7865 Y10.2523 
G01 X96.9094 Y10.3032 
G01 X97.0200 Y10.3771 
G01 X101.7502 Y15.1073 
G01 X101.8443 Y15.2014 
G01 X101.9182 Y15.3120 
G01 X101.9691 Y15.4349 
G01 X101.9951 Y15.5654 
G01 X101.9951 Y31.7461 
G00 Z2.4000 
G00 X53.4897 Y0.8808 
G01 Z-0.1000 F50.00 
G01 X53.6227 Y0.8808 F100.00 
G01 X53.7532 Y0.9067 
G01 X53.8761 Y0.9577 
G01 X53.9867 Y1.0316 
G01 X58.2798 Y5.3246 
G01 X70.7202 Y5.3246 
G01 X73.9506 Y2.0942 
G01 X74.0447 Y2.0002 
G01 X74.1553 Y1.9262 
G01 X74.2782 Y1.8753 
G01 X74.4087 Y1.8494 
G01 X111.5913 Y1.8494 
G01 X111.7218 Y1.8753 
G01 X111.8447 Y1.9262 
G01 X111.9553 Y2.0002 
G01 X113.7601 Y3.8049 
G01 X113.8340 Y3.9155 
G01 X113.8849 Y4.0384 
G01 X113.9108 Y4.1689 
G01 X113.9108 Y6.2443 
G01 X114.5203 Y6.2443 
G01 X114.5848 Y6.2710 
G01 X114.6341 Y6.3203 
G01 X114.6608 Y6.3848 
G01 X114.6608 Y8.9546 
G01 X114.6341 Y9.0190 
G01 X114.5848 Y9.0684 
G01 X114.5203 Y9.0951 
G01 X111.9505 Y9.0951 
G01 X111.8861 Y9.0684 
G01 X111.8367 Y9.0190 
G01 X111.8100 Y8.9546 
G01 X111.8100 Y6.3848 
G01 X111.8367 Y6.3203 
G01 X111.8861 Y6.2710 
G01 X111.9505 Y6.2443 
G01 X112.5600 Y6.2443 
G01 X112.5600 Y4.5152 
G01 X111.2450 Y3.2002 
G01 X74.7550 Y3.2002 
G01 X71.4305 Y6.5246 
G01 X71.3199 Y6.5985 
G01 X71.1970 Y6.6494 
G01 X71.0665 Y6.6754 
G01 X57.9335 Y6.6754 
G01 X57.8030 Y6.6494 
G01 X57.6801 Y6.5985 
G01 X57.5695 Y6.5246 
G01 X57.4754 Y6.4305 
G01 X53.2764 Y2.2316 
G01 X5.7236 Y2.2316 
G01 X4.6754 Y3.2798 
G01 X4.6754 Y15.0446 
G01 X4.6494 Y15.1751 
G01 X4.5985 Y15.2980 
G01 X4.5246 Y15.4087 
G01 X4.4305 Y15.5027 
G01 X4.3671 Y15.5662 
G01 X4.3671 Y24.0407 
G01 X4.3411 Y24.1712 
G01 X4.2902 Y24.2941 
G01 X4.2163 Y24.4047 
G01 X4.1222 Y24.4988 
G01 X3.7321 Y24.8889 
G01 X3.7321 Y63.1765 
G01 X6.6968 Y66.1413 
G01 X7.9139 Y66.1413 
G01 X8.0009 Y66.0831 
G01 X8.1238 Y66.0322 
G01 X8.2543 Y66.0063 
G01 X12.3393 Y66.0063 
G01 X12.4049 Y65.9160 
G01 X12.5357 Y65.7851 
G01 X12.6854 Y65.6764 
G01 X12.8502 Y65.5924 
G01 X13.0262 Y65.5352 
G01 X13.2089 Y65.5063 
G01 X13.3939 Y65.5063 
G01 X13.5767 Y65.5352 
G01 X13.7526 Y65.5924 
G01 X13.9175 Y65.6764 
G01 X14.0672 Y65.7851 
G01 X14.1980 Y65.9160 
G01 X14.3067 Y66.0656 
G01 X14.3907 Y66.2305 
G01 X14.4479 Y66.4064 
G01 X14.4768 Y66.5892 
G01 X14.4768 Y66.7742 
G01 X14.4479 Y66.9569 
G01 X14.3907 Y67.1329 
G01 X14.3067 Y67.2977 
G01 X14.1980 Y67.4474 
G01 X14.0672 Y67.5782 
G01 X13.9175 Y67.6870 
G01 X13.7526 Y67.7710 
G01 X13.5767 Y67.8281 
G01 X13.3939 Y67.8571 
G01 X13.2089 Y67.8571 
G01 X13.0262 Y67.8281 
G01 X12.8502 Y67.7710 
G01 X12.6854 Y67.6870 
G01 X12.5357 Y67.5782 
G01 X12.4049 Y67.4474 
G01 X12.3393 Y67.3571 
G01 X8.5927 Y67.3571 
G01 X8.5057 Y67.4152 
G01 X8.3828 Y67.4661 
G01 X8.2523 Y67.4921 
G01 X6.3506 Y67.4921 
G01 X6.2201 Y67.4661 
G01 X6.0972 Y67.4152 
G01 X5.9865 Y67.3413 
G01 X2.6262 Y63.9809 
G01 X2.5321 Y63.8868 
G01 X2.4582 Y63.7762 
G01 X2.4073 Y63.6533 
G01 X2.3813 Y63.5228 
G01 X2.3813 Y24.5426 
G01 X2.4073 Y24.4122 
G01 X2.4582 Y24.2892 
G01 X2.5321 Y24.1786 
G01 X2.6262 Y24.0845 
G01 X3.0163 Y23.6944 
G01 X3.0163 Y15.2199 
G01 X3.0423 Y15.0894 
G01 X3.0932 Y14.9665 
G01 X3.1671 Y14.8559 
G01 X3.3246 Y14.6983 
G01 X3.3246 Y2.9335 
G01 X3.3506 Y2.8030 
G01 X3.4015 Y2.6801 
G01 X3.4754 Y2.5695 
G01 X5.0133 Y1.0316 
G01 X5.1239 Y0.9577 
G01 X5.2468 Y0.9067 
G01 X5.3773 Y0.8808 
G01 X53.4897 Y0.8808 
G00 Z2.4000 
G00 X53.5688 Y56.5609 
G01 Z-0.1000 F50.00 
G01 X53.4408 Y56.2520 F100.00 
G01 X50.8738 Y53.6850 
G01 X50.5649 Y53.5571 
G01 X48.3306 Y53.5571 
G01 X48.2381 Y53.5187 
G01 X48.1673 Y53.4480 
G01 X47.9895 Y53.2702 
G01 X47.9512 Y53.1777 
G01 X47.9512 Y53.0776 
G01 X47.9895 Y52.9851 
G01 X48.0603 Y52.9144 
G01 X48.3243 Y52.6504 
G01 X48.5373 Y52.1360 
G01 X48.5373 Y51.5793 
G01 X48.3243 Y51.0650 
G01 X47.9895 Y50.7302 
G01 X47.9512 Y50.6377 
G01 X47.9512 Y50.5376 
G01 X47.9895 Y50.4451 
G01 X48.0603 Y50.3744 
G01 X48.3243 Y50.1104 
G01 X48.5373 Y49.5960 
G01 X48.5373 Y49.0393 
G01 X48.3243 Y48.5250 
G01 X47.9895 Y48.1902 
G01 X47.9512 Y48.0977 
G01 X47.9512 Y47.9976 
G01 X47.9895 Y47.9051 
G01 X48.0603 Y47.8344 
G01 X48.3243 Y47.5704 
G01 X48.5373 Y47.0560 
G01 X48.5373 Y46.4993 
G01 X48.3243 Y45.9850 
G01 X47.9895 Y45.6502 
G01 X47.9512 Y45.5577 
G01 X47.9512 Y45.4576 
G01 X47.9895 Y45.3651 
G01 X48.0603 Y45.2944 
G01 X48.3243 Y45.0304 
G01 X48.5373 Y44.5160 
G01 X48.5373 Y43.9593 
G01 X48.3243 Y43.4449 
G01 X47.9306 Y43.0513 
G01 X47.7852 Y42.9911 
G01 X47.7652 Y42.9879 
G01 X47.7394 Y42.9721 
G01 X47.7115 Y42.9605 
G01 X47.6971 Y42.9462 
G01 X47.6799 Y42.9356 
G01 X47.6621 Y42.9111 
G01 X47.6407 Y42.8897 
G01 X47.6329 Y42.8710 
G01 X47.6210 Y42.8546 
G01 X47.6140 Y42.8252 
G01 X47.6024 Y42.7973 
G01 X47.6024 Y42.7770 
G01 X47.5977 Y42.7573 
G01 X47.6024 Y42.7274 
G01 X47.6024 Y42.7126 
G01 X47.5660 Y42.7311 
G01 X47.3991 Y42.7854 
G01 X47.2257 Y42.8129 
G01 X45.1706 Y42.8129 
G01 X44.9972 Y42.7854 
G01 X44.8303 Y42.7311 
G01 X44.6739 Y42.6515 
G01 X44.5318 Y42.5483 
G01 X44.4077 Y42.4242 
G01 X44.3045 Y42.2821 
G01 X44.2249 Y42.1257 
G01 X44.1706 Y41.9588 
G01 X44.1431 Y41.7854 
G01 X44.1431 Y41.6099 
G01 X44.1706 Y41.4365 
G01 X44.2249 Y41.2696 
G01 X44.3045 Y41.1132 
G01 X44.4077 Y40.9711 
G01 X44.5318 Y40.8470 
G01 X44.6739 Y40.7438 
G01 X44.8303 Y40.6642 
G01 X44.9972 Y40.6099 
G01 X45.1706 Y40.5825 
G01 X47.2257 Y40.5825 
G01 X47.3991 Y40.6099 
G01 X47.5660 Y40.6642 
G01 X47.6024 Y40.6827 
G01 X47.6024 Y40.6679 
G01 X47.5977 Y40.6380 
G01 X47.6024 Y40.6183 
G01 X47.6024 Y40.5980 
G01 X47.6140 Y40.5701 
G01 X47.6210 Y40.5407 
G01 X47.6329 Y40.5243 
G01 X47.6407 Y40.5056 
G01 X47.6621 Y40.4842 
G01 X47.6799 Y40.4597 
G01 X47.6971 Y40.4491 
G01 X47.7115 Y40.4348 
G01 X47.7394 Y40.4232 
G01 X47.7652 Y40.4074 
G01 X47.7852 Y40.4042 
G01 X47.9306 Y40.3440 
G01 X48.2381 Y40.0366 
G01 X48.3306 Y39.9982 
G01 X51.7553 Y39.9982 
G01 X51.8478 Y40.0366 
G01 X51.9185 Y40.1073 
G01 X53.5274 Y41.7162 
G01 X53.5657 Y41.8087 
G01 X53.5657 Y47.5492 
G01 X53.6937 Y47.8581 
G01 X54.0009 Y48.1654 
G01 X54.7241 Y48.8886 
G01 X54.7624 Y48.9810 
G01 X54.7624 Y57.6611 
G01 X54.7241 Y57.7536 
G01 X54.7124 Y57.7653 
G01 X54.0336 Y58.4441 
G01 X53.9629 Y58.5148 
G01 X53.8704 Y58.5531 
G01 X53.7703 Y58.5531 
G01 X53.6778 Y58.5148 
G01 X53.6071 Y58.4441 
G01 X53.5688 Y58.3516 
G01 X53.5688 Y56.8954 
G01 X53.5688 Y56.5609 
G00 Z2.4000 
G00 X5.6896 Y29.1383 
G01 Z-0.1000 F50.00 
G01 X5.6896 Y29.1383 F100.00 
G01 X5.7604 Y29.0675 
G01 X5.7773 Y29.0605 
G01 X5.8529 Y29.0292 
G01 X5.9530 Y29.0292 
G01 X5.9923 Y29.0455 
G01 X6.0454 Y29.0675 
G01 X6.1162 Y29.1383 
G01 X6.1250 Y29.1471 
G01 X6.1958 Y29.2178 
G01 X6.2028 Y29.2348 
G01 X6.2341 Y29.3103 
G01 X6.2341 Y44.5713 
G01 X6.3802 Y44.9240 
G01 X12.6938 Y51.2376 
G01 X12.7321 Y51.3301 
G01 X12.7321 Y55.4773 
G01 X12.8782 Y55.8300 
G01 X18.3035 Y61.2553 
G01 X18.3418 Y61.3478 
G01 X18.3418 Y63.5229 
G01 X18.3035 Y63.6154 
G01 X18.2328 Y63.6862 
G01 X18.0640 Y63.8549 
G01 X17.8418 Y64.3913 
G01 X17.8418 Y64.9720 
G01 X18.0640 Y65.5085 
G01 X18.3035 Y65.7480 
G01 X18.3418 Y65.8404 
G01 X18.3418 Y69.0870 
G01 X18.4879 Y69.4397 
G01 X28.2961 Y79.2479 
G01 X28.3344 Y79.3404 
G01 X28.3344 Y79.4404 
G01 X28.2961 Y79.5329 
G01 X28.2253 Y79.6037 
G01 X28.1329 Y79.6420 
G01 X1.1506 Y79.6420 
G01 X1.1005 Y79.6420 
G01 X1.0507 Y79.6420 
G01 X1.0046 Y79.6229 
G01 X0.9582 Y79.6037 
G01 X0.9227 Y79.5682 
G01 X0.8874 Y79.5329 
G01 X0.8680 Y79.4861 
G01 X0.8491 Y79.4404 
G01 X0.8491 Y79.3892 
G01 X0.8491 Y79.3404 
G01 X0.9210 Y1.1017 
G01 X0.9210 Y1.0509 
G01 X0.9401 Y1.0048 
G01 X0.9593 Y0.9584 
G01 X0.9949 Y0.9229 
G01 X1.0301 Y0.8877 
G01 X1.0770 Y0.8683 
G01 X1.1226 Y0.8494 
G01 X1.1729 Y0.8494 
G01 X4.2362 Y0.8494 
G01 X4.3287 Y0.8877 
G01 X4.3994 Y0.9584 
G01 X4.4377 Y1.0509 
G01 X4.4377 Y1.1510 
G01 X4.3994 Y1.2435 
G01 X4.3287 Y1.3143 
G01 X3.1865 Y2.4564 
G01 X3.0404 Y2.8091 
G01 X3.0404 Y14.5265 
G01 X3.0021 Y14.6189 
G01 X2.8782 Y14.7428 
G01 X2.7321 Y15.0955 
G01 X2.7321 Y23.5225 
G01 X2.6938 Y23.6150 
G01 X2.6230 Y23.6858 
G01 X2.5131 Y23.7956 
G01 X2.2432 Y24.0656 
G01 X2.0971 Y24.4183 
G01 X2.0971 Y63.6472 
G01 X2.2432 Y63.9999 
G01 X2.5839 Y64.3406 
G01 X5.8735 Y67.6302 
G01 X6.2262 Y67.7763 
G01 X8.3767 Y67.7763 
G01 X8.7026 Y67.6413 
G01 X12.1427 Y67.6413 
G01 X12.2352 Y67.6796 
G01 X12.3059 Y67.7504 
G01 X12.4746 Y67.9191 
G01 X13.0111 Y68.1413 
G01 X13.5918 Y68.1413 
G01 X14.1282 Y67.9191 
G01 X14.5388 Y67.5085 
G01 X14.7610 Y66.9720 
G01 X14.7610 Y66.3913 
G01 X14.5388 Y65.8549 
G01 X14.1282 Y65.4443 
G01 X13.5918 Y65.2221 
G01 X13.0111 Y65.2221 
G01 X12.4746 Y65.4443 
G01 X12.2352 Y65.6838 
G01 X12.1427 Y65.7221 
G01 X8.7768 Y65.7221 
G01 X8.6844 Y65.6838 
G01 X8.6136 Y65.6130 
G01 X8.5753 Y65.5205 
G01 X8.5753 Y65.4204 
G01 X8.6136 Y65.3280 
G01 X8.7610 Y64.9720 
G01 X8.7610 Y64.3913 
G01 X8.5388 Y63.8549 
G01 X8.2993 Y63.6154 
G01 X8.2610 Y63.5229 
G01 X8.2610 Y59.7053 
G01 X8.1149 Y59.3526 
G01 X7.8450 Y59.0826 
G01 X5.6896 Y56.9272 
G01 X5.6513 Y56.8348 
G01 X5.6513 Y53.6531 
G01 X5.6896 Y53.5606 
G01 X5.7604 Y53.4898 
G01 X5.8529 Y53.4515 
G01 X5.9530 Y53.4515 
G01 X6.0454 Y53.4898 
G01 X6.1162 Y53.5606 
G01 X6.4746 Y53.9191 
G01 X7.0111 Y54.1413 
G01 X7.5918 Y54.1413 
G01 X8.1282 Y53.9191 
G01 X8.5388 Y53.5085 
G01 X8.7610 Y52.9720 
G01 X8.7610 Y52.3913 
G01 X8.5388 Y51.8549 
G01 X8.1282 Y51.4443 
G01 X7.5918 Y51.2221 
G01 X7.0111 Y51.2221 
G01 X6.4746 Y51.4443 
G01 X6.1162 Y51.8027 
G01 X6.0531 Y51.8658 
G01 X6.0454 Y51.8735 
G01 X5.9530 Y51.9118 
G01 X5.8529 Y51.9118 
G01 X5.7630 Y51.8746 
G01 X5.7604 Y51.8735 
G01 X5.6896 Y51.8027 
G01 X5.6513 Y51.7103 
G01 X5.6513 Y29.2307 
G01 X5.6676 Y29.1913 
G01 X5.6896 Y29.1383 
G00 Z2.4000 
G00 X35.2961 Y16.0323 
G01 Z-0.1000 F50.00 
G01 X35.2961 Y16.7247 F100.00 
G01 X34.8065 Y17.2143 
G01 X34.1141 Y17.2143 
G01 X33.6245 Y16.7247 
G01 X33.6245 Y16.0323 
G01 X33.7849 Y15.8719 
G01 X33.7849 Y11.7401 
G01 X31.0702 Y9.0254 
G01 X29.6504 Y9.0254 
G01 X29.6504 Y9.4155 
G01 X29.6221 Y9.5944 
G01 X29.5661 Y9.7666 
G01 X29.4839 Y9.9279 
G01 X29.3775 Y10.0744 
G01 X29.2494 Y10.2025 
G01 X29.1029 Y10.3089 
G01 X28.9416 Y10.3911 
G01 X28.7694 Y10.4471 
G01 X28.5905 Y10.4754 
G01 X28.4095 Y10.4754 
G01 X28.2306 Y10.4471 
G01 X28.0584 Y10.3911 
G01 X27.8971 Y10.3089 
G01 X27.7506 Y10.2025 
G01 X27.6225 Y10.0744 
G01 X27.5161 Y9.9279 
G01 X27.4339 Y9.7666 
G01 X27.3779 Y9.5944 
G01 X27.3496 Y9.4155 
G01 X27.3496 Y7.2845 
G01 X27.3779 Y7.1056 
G01 X27.4339 Y6.9334 
G01 X27.5161 Y6.7721 
G01 X27.6225 Y6.6256 
G01 X27.7506 Y6.4975 
G01 X27.8971 Y6.3911 
G01 X28.0584 Y6.3089 
G01 X28.2306 Y6.2529 
G01 X28.4095 Y6.2246 
G01 X28.5905 Y6.2246 
G01 X28.7694 Y6.2529 
G01 X28.9416 Y6.3089 
G01 X29.1029 Y6.3911 
G01 X29.2494 Y6.4975 
G01 X29.3775 Y6.6256 
G01 X29.4839 Y6.7721 
G01 X29.5661 Y6.9334 
G01 X29.6221 Y7.1056 
G01 X29.6504 Y7.2845 
G01 X29.6504 Y7.6746 
G01 X31.4165 Y7.6746 
G01 X31.5470 Y7.7006 
G01 X31.6699 Y7.7515 
G01 X31.7805 Y7.8254 
G01 X34.9849 Y11.0298 
G01 X35.0588 Y11.1404 
G01 X35.1097 Y11.2633 
G01 X35.1357 Y11.3938 
G01 X35.1357 Y15.8719 
G01 X35.2961 Y16.0323 
G00 Z2.4000 
G00 X19.8377 Y39.7188 
G01 Z-0.1000 F50.00 
G01 X19.8430 Y39.7315 F100.00 
G01 X19.8430 Y39.7315 
G01 X19.8430 Y39.7810 
G01 X19.8430 Y39.8316 
G01 X19.8262 Y39.8722 
G01 X19.8047 Y39.9241 
G01 X19.7698 Y39.9589 
G01 X19.7339 Y39.9948 
G01 X19.6670 Y40.0225 
G01 X19.6414 Y40.0331 
G01 X19.5599 Y40.0669 
G01 X19.4306 Y40.1962 
G01 X19.4285 Y40.2012 
G01 X19.3909 Y40.2389 
G01 X19.3578 Y40.2720 
G01 X19.3106 Y40.2916 
G01 X19.2653 Y40.3104 
G01 X19.2154 Y40.3104 
G01 X19.1652 Y40.3104 
G01 X17.7216 Y40.3104 
G01 X17.6292 Y40.2721 
G01 X17.5584 Y40.2013 
G01 X15.9979 Y38.6408 
G01 X15.9596 Y38.5483 
G01 X15.9596 Y37.7639 
G01 X15.9979 Y37.6714 
G01 X16.0687 Y37.6006 
G01 X18.5436 Y35.1258 
G01 X18.8135 Y34.8558 
G01 X18.9596 Y34.5031 
G01 X18.9596 Y28.8091 
G01 X18.8135 Y28.4564 
G01 X18.4728 Y28.1157 
G01 X15.9979 Y25.6408 
G01 X15.9596 Y25.5484 
G01 X15.9596 Y19.2905 
G01 X15.9979 Y19.1980 
G01 X16.0235 Y19.1724 
G01 X17.5883 Y17.6076 
G01 X17.6335 Y17.5624 
G01 X17.6591 Y17.5368 
G01 X17.7515 Y17.4985 
G01 X17.9242 Y17.4985 
G01 X18.0463 Y17.3764 
G01 X18.1388 Y17.3381 
G01 X22.7818 Y17.3381 
G01 X22.8743 Y17.3764 
G01 X22.9451 Y17.4472 
G01 X22.9964 Y17.4985 
G01 X23.9242 Y17.4985 
G01 X24.5803 Y16.8424 
G01 X24.5803 Y15.9146 
G01 X23.9242 Y15.2585 
G01 X22.9964 Y15.2585 
G01 X22.8743 Y15.3806 
G01 X22.7818 Y15.4189 
G01 X18.1388 Y15.4189 
G01 X18.0463 Y15.3806 
G01 X17.9755 Y15.3098 
G01 X17.9242 Y15.2585 
G01 X16.9964 Y15.2585 
G01 X16.3403 Y15.9146 
G01 X16.3403 Y16.0873 
G01 X16.3020 Y16.1797 
G01 X16.2312 Y16.2505 
G01 X14.4564 Y18.0253 
G01 X14.1865 Y18.2952 
G01 X14.0404 Y18.6479 
G01 X14.0404 Y20.1260 
G01 X14.0250 Y20.1632 
G01 X14.0021 Y20.2184 
G01 X13.9313 Y20.2892 
G01 X13.9165 Y20.2953 
G01 X13.8388 Y20.3275 
G01 X13.7387 Y20.3275 
G01 X13.7015 Y20.3121 
G01 X13.6463 Y20.2892 
G01 X13.5755 Y20.2184 
G01 X13.5668 Y20.2098 
G01 X8.7056 Y15.3485 
G01 X8.6673 Y15.2561 
G01 X8.6673 Y5.3596 
G01 X8.7056 Y5.2671 
G01 X8.7764 Y5.1963 
G01 X9.0055 Y4.9672 
G01 X9.0055 Y3.8921 
G01 X8.2453 Y3.1319 
G01 X7.1702 Y3.1319 
G01 X6.4099 Y3.8921 
G01 X6.4099 Y4.9672 
G01 X6.7098 Y5.2671 
G01 X6.7481 Y5.3596 
G01 X6.7481 Y15.8986 
G01 X6.8942 Y16.2513 
G01 X7.1006 Y16.4577 
G01 X7.1687 Y16.5258 
G01 X7.1714 Y16.5285 
G01 X7.2097 Y16.6209 
G01 X7.2097 Y16.7210 
G01 X7.1714 Y16.8135 
G01 X7.1017 Y16.8832 
G01 X7.0081 Y16.9226 
G01 X6.9355 Y16.9226 
G01 X6.4585 Y17.1202 
G01 X6.0935 Y17.4852 
G01 X5.8959 Y17.9622 
G01 X5.8959 Y18.4785 
G01 X6.0935 Y18.9555 
G01 X6.4585 Y19.3206 
G01 X6.9355 Y19.5182 
G01 X7.0802 Y19.5182 
G01 X7.1727 Y19.5565 
G01 X9.4854 Y21.8691 
G01 X9.5237 Y21.9616 
G01 X9.5237 Y22.8388 
G01 X9.4854 Y22.9313 
G01 X9.4146 Y23.0021 
G01 X9.3221 Y23.0404 
G01 X6.0461 Y23.0404 
G01 X5.6934 Y23.1865 
G01 X5.3527 Y23.5272 
G01 X5.1162 Y23.7637 
G01 X5.0483 Y23.8316 
G01 X5.0454 Y23.8345 
G01 X4.9530 Y23.8728 
G01 X4.8529 Y23.8728 
G01 X4.7604 Y23.8345 
G01 X4.6907 Y23.7648 
G01 X4.6513 Y23.6713 
G01 X4.6513 Y15.7380 
G01 X4.6896 Y15.6456 
G01 X4.7604 Y15.5748 
G01 X4.8135 Y15.5217 
G01 X4.9596 Y15.1690 
G01 X4.9596 Y3.4516 
G01 X4.9979 Y3.3592 
G01 X5.0687 Y3.2884 
G01 X5.8030 Y2.5541 
G01 X5.8955 Y2.5158 
G01 X40.4545 Y2.5158 
G01 X40.5470 Y2.5541 
G01 X40.6177 Y2.6249 
G01 X40.6560 Y2.7173 
G01 X40.6560 Y2.8174 
G01 X40.6177 Y2.9099 
G01 X40.5470 Y2.9807 
G01 X37.4841 Y6.0435 
G01 X37.3368 Y6.3992 
G01 X37.3368 Y7.4223 
G01 X37.2985 Y7.5148 
G01 X37.2277 Y7.5856 
G01 X37.1352 Y7.6239 
G01 X37.0351 Y7.6239 
G01 X36.9427 Y7.5856 
G01 X36.8719 Y7.5148 
G01 X32.9732 Y3.6161 
G01 X32.6205 Y3.4701 
G01 X18.7976 Y3.4701 
G01 X18.7052 Y3.4317 
G01 X18.6344 Y3.3610 
G01 X18.4053 Y3.1319 
G01 X17.3301 Y3.1319 
G01 X16.5699 Y3.8921 
G01 X16.5699 Y4.9672 
G01 X17.3301 Y5.7275 
G01 X18.4053 Y5.7275 
G01 X18.7052 Y5.4276 
G01 X18.7976 Y5.3893 
G01 X31.9780 Y5.3893 
G01 X32.0705 Y5.4276 
G01 X32.1412 Y5.4983 
G01 X35.6635 Y9.0206 
G01 X35.7018 Y9.1130 
G01 X35.7018 Y10.7873 
G01 X35.6635 Y10.8798 
G01 X35.5927 Y10.9506 
G01 X35.5002 Y10.9889 
G01 X35.4001 Y10.9889 
G01 X35.3077 Y10.9506 
G01 X35.2369 Y10.8798 
G01 X31.8936 Y7.5365 
G01 X31.5409 Y7.3904 
G01 X30.1361 Y7.3904 
G01 X30.0437 Y7.3521 
G01 X29.9729 Y7.2813 
G01 X29.9346 Y7.1888 
G01 X29.9346 Y7.0896 
G01 X29.7162 Y6.5624 
G01 X29.3126 Y6.1588 
G01 X28.7854 Y5.9404 
G01 X28.2146 Y5.9404 
G01 X27.6874 Y6.1588 
G01 X27.2838 Y6.5624 
G01 X27.0654 Y7.0896 
G01 X27.0654 Y9.6104 
G01 X27.2838 Y10.1376 
G01 X27.6874 Y10.5412 
G01 X28.2146 Y10.7596 
G01 X28.7854 Y10.7596 
G01 X29.3126 Y10.5412 
G01 X29.7162 Y10.1376 
G01 X29.9346 Y9.6104 
G01 X29.9346 Y9.5111 
G01 X29.9729 Y9.4187 
G01 X30.0437 Y9.3479 
G01 X30.1361 Y9.3096 
G01 X30.8984 Y9.3096 
G01 X30.9908 Y9.3479 
G01 X31.0616 Y9.4187 
G01 X33.4624 Y11.8195 
G01 X33.5007 Y11.9119 
G01 X33.5007 Y15.7000 
G01 X33.4624 Y15.7925 
G01 X33.3916 Y15.8633 
G01 X33.3403 Y15.9146 
G01 X33.3403 Y16.8424 
G01 X33.9964 Y17.4985 
G01 X34.9242 Y17.4985 
G01 X35.2369 Y17.1858 
G01 X35.3001 Y17.1227 
G01 X35.3077 Y17.1151 
G01 X35.4001 Y17.0768 
G01 X35.5002 Y17.0768 
G01 X35.5901 Y17.1140 
G01 X35.5927 Y17.1151 
G01 X35.6635 Y17.1858 
G01 X35.7018 Y17.2783 
G01 X35.7018 Y21.8523 
G01 X35.8479 Y22.2049 
G01 X38.3741 Y24.7312 
G01 X38.7268 Y24.8773 
G01 X39.7651 Y24.8773 
G01 X39.8576 Y24.9156 
G01 X39.9284 Y24.9863 
G01 X40.0460 Y25.1040 
G01 X40.1915 Y25.1642 
G01 X40.2115 Y25.1674 
G01 X40.2373 Y25.1832 
G01 X40.2652 Y25.1948 
G01 X40.2796 Y25.2091 
G01 X40.2968 Y25.2197 
G01 X40.3146 Y25.2442 
G01 X40.3360 Y25.2656 
G01 X40.3438 Y25.2843 
G01 X40.3557 Y25.3007 
G01 X40.3627 Y25.3301 
G01 X40.3743 Y25.3580 
G01 X40.3743 Y25.3783 
G01 X40.3790 Y25.3980 
G01 X40.3743 Y25.4279 
G01 X40.3743 Y25.4427 
G01 X40.4107 Y25.4242 
G01 X40.5776 Y25.3699 
G01 X40.7510 Y25.3425 
G01 X42.8061 Y25.3425 
G01 X42.9795 Y25.3699 
G01 X43.1464 Y25.4242 
G01 X43.3028 Y25.5038 
G01 X43.4449 Y25.6070 
G01 X43.5690 Y25.7311 
G01 X43.6722 Y25.8732 
G01 X43.7518 Y26.0296 
G01 X43.8061 Y26.1965 
G01 X43.8335 Y26.3699 
G01 X43.8335 Y26.5454 
G01 X43.8061 Y26.7188 
G01 X43.7518 Y26.8857 
G01 X43.6722 Y27.0421 
G01 X43.5690 Y27.1842 
G01 X43.4449 Y27.3083 
G01 X43.3028 Y27.4115 
G01 X43.1464 Y27.4911 
G01 X42.9795 Y27.5454 
G01 X42.8061 Y27.5729 
G01 X40.7510 Y27.5729 
G01 X40.5776 Y27.5454 
G01 X40.4107 Y27.4911 
G01 X40.3743 Y27.4726 
G01 X40.3743 Y27.4874 
G01 X40.3790 Y27.5173 
G01 X40.3743 Y27.5370 
G01 X40.3743 Y27.5573 
G01 X40.3627 Y27.5852 
G01 X40.3557 Y27.6146 
G01 X40.3438 Y27.6310 
G01 X40.3360 Y27.6497 
G01 X40.3146 Y27.6711 
G01 X40.2968 Y27.6956 
G01 X40.2796 Y27.7062 
G01 X40.2652 Y27.7205 
G01 X40.2373 Y27.7321 
G01 X40.2115 Y27.7479 
G01 X40.1915 Y27.7511 
G01 X40.0460 Y27.8113 
G01 X39.6524 Y28.2050 
G01 X39.4393 Y28.7193 
G01 X39.4393 Y29.2760 
G01 X39.6524 Y29.7903 
G01 X39.9872 Y30.1251 
G01 X40.0255 Y30.2176 
G01 X40.0255 Y30.3177 
G01 X39.9872 Y30.4102 
G01 X39.9164 Y30.4809 
G01 X39.6524 Y30.7450 
G01 X39.4393 Y31.2593 
G01 X39.4393 Y31.8160 
G01 X39.6524 Y32.3303 
G01 X40.0460 Y32.7240 
G01 X40.1915 Y32.7842 
G01 X40.2115 Y32.7874 
G01 X40.2373 Y32.8032 
G01 X40.2652 Y32.8148 
G01 X40.2795 Y32.8291 
G01 X40.2968 Y32.8397 
G01 X40.3146 Y32.8642 
G01 X40.3360 Y32.8856 
G01 X40.3437 Y32.9043 
G01 X40.3557 Y32.9207 
G01 X40.3627 Y32.9501 
G01 X40.3743 Y32.9780 
G01 X40.3743 Y32.9983 
G01 X40.3790 Y33.0180 
G01 X40.3743 Y33.0479 
G01 X40.3743 Y33.0627 
G01 X40.4107 Y33.0442 
G01 X40.5776 Y32.9899 
G01 X40.7510 Y32.9625 
G01 X42.8061 Y32.9625 
G01 X42.9795 Y32.9899 
G01 X43.1464 Y33.0442 
G01 X43.3028 Y33.1238 
G01 X43.4449 Y33.2270 
G01 X43.5690 Y33.3511 
G01 X43.6722 Y33.4932 
G01 X43.7518 Y33.6496 
G01 X43.8061 Y33.8165 
G01 X43.8335 Y33.9899 
G01 X43.8335 Y34.1654 
G01 X43.8061 Y34.3388 
G01 X43.7518 Y34.5057 
G01 X43.6722 Y34.6621 
G01 X43.5690 Y34.8042 
G01 X43.4449 Y34.9283 
G01 X43.3028 Y35.0315 
G01 X43.1464 Y35.1111 
G01 X42.9795 Y35.1654 
G01 X42.8061 Y35.1928 
G01 X40.7510 Y35.1928 
G01 X40.5776 Y35.1654 
G01 X40.4107 Y35.1111 
G01 X40.3743 Y35.0926 
G01 X40.3743 Y35.1074 
G01 X40.3790 Y35.1373 
G01 X40.3743 Y35.1570 
G01 X40.3743 Y35.1773 
G01 X40.3627 Y35.2052 
G01 X40.3557 Y35.2346 
G01 X40.3438 Y35.2510 
G01 X40.3360 Y35.2697 
G01 X40.3146 Y35.2911 
G01 X40.2968 Y35.3156 
G01 X40.2796 Y35.3262 
G01 X40.2652 Y35.3405 
G01 X40.2373 Y35.3521 
G01 X40.2115 Y35.3679 
G01 X40.1915 Y35.3711 
G01 X40.0460 Y35.4313 
G01 X39.6524 Y35.8250 
G01 X39.4393 Y36.3393 
G01 X39.4393 Y36.8960 
G01 X39.6524 Y37.4103 
G01 X39.9872 Y37.7451 
G01 X40.0255 Y37.8376 
G01 X40.0255 Y37.9377 
G01 X39.9872 Y38.0302 
G01 X39.9164 Y38.1009 
G01 X39.8164 Y38.2010 
G01 X39.7456 Y38.2718 
G01 X39.6531 Y38.3101 
G01 X39.5530 Y38.3101 
G01 X39.4605 Y38.2718 
G01 X38.8789 Y37.6901 
G01 X38.8406 Y37.5976 
G01 X38.8406 Y35.8328 
G01 X38.7126 Y35.5238 
G01 X34.4762 Y31.2874 
G01 X34.1672 Y31.1594 
G01 X26.8328 Y31.1594 
G01 X26.5238 Y31.2874 
G01 X26.2166 Y31.5946 
G01 X24.5238 Y33.2874 
G01 X24.2874 Y33.5238 
G01 X24.1594 Y33.8328 
G01 X24.1594 Y39.8830 
G01 X24.1211 Y39.9755 
G01 X24.0503 Y40.0463 
G01 X23.9578 Y40.0846 
G01 X23.8578 Y40.0846 
G01 X23.7653 Y40.0463 
G01 X23.7336 Y40.0331 
G01 X23.7169 Y40.0262 
G01 X23.6411 Y39.9948 
G01 X23.6062 Y39.9600 
G01 X23.5703 Y39.9241 
G01 X23.5418 Y39.8551 
G01 X23.5320 Y39.8316 
G01 X23.5320 Y39.7821 
G01 X23.5320 Y39.7315 
G01 X23.5373 Y39.7188 
G01 X19.8377 Y39.7188 
G00 Z2.4000 
G00 X23.7301 Y40.4217 
G01 Z-0.1000 F50.00 
G01 X23.7301 Y42.1183 F100.00 
G01 X23.7034 Y42.1828 
G01 X23.6541 Y42.2321 
G01 X23.5896 Y42.2588 
G01 X19.7854 Y42.2588 
G01 X19.7209 Y42.2321 
G01 X19.6716 Y42.1828 
G01 X19.6449 Y42.1183 
G01 X19.6449 Y41.9454 
G01 X17.2035 Y41.9454 
G01 X17.0730 Y41.9194 
G01 X16.9501 Y41.8685 
G01 X16.8395 Y41.7946 
G01 X14.4754 Y39.4305 
G01 X14.4015 Y39.3199 
G01 X14.3506 Y39.1970 
G01 X14.3246 Y39.0665 
G01 X14.3246 Y37.2457 
G01 X14.3506 Y37.1152 
G01 X14.4015 Y36.9923 
G01 X14.4754 Y36.8817 
G01 X14.5695 Y36.7876 
G01 X17.3246 Y34.0325 
G01 X17.3246 Y29.2798 
G01 X14.4754 Y26.4305 
G01 X14.4015 Y26.3199 
G01 X14.3506 Y26.1970 
G01 X14.3246 Y26.0665 
G01 X14.3246 Y18.7723 
G01 X14.3506 Y18.6418 
G01 X14.4015 Y18.5189 
G01 X14.4754 Y18.4083 
G01 X16.6245 Y16.2592 
G01 X16.6245 Y16.0323 
G01 X17.1141 Y15.5427 
G01 X17.8065 Y15.5427 
G01 X17.9669 Y15.7031 
G01 X22.9537 Y15.7031 
G01 X23.1141 Y15.5427 
G01 X23.8065 Y15.5427 
G01 X24.2961 Y16.0323 
G01 X24.2961 Y16.7247 
G01 X23.8065 Y17.2143 
G01 X23.1141 Y17.2143 
G01 X22.9537 Y17.0539 
G01 X17.9669 Y17.0539 
G01 X17.8065 Y17.2143 
G01 X17.5797 Y17.2143 
G01 X15.6754 Y19.1186 
G01 X15.6754 Y25.7202 
G01 X18.4305 Y28.4754 
G01 X18.5246 Y28.5695 
G01 X18.5985 Y28.6801 
G01 X18.6494 Y28.8030 
G01 X18.6754 Y28.9335 
G01 X18.6754 Y34.3788 
G01 X18.6494 Y34.5093 
G01 X18.5985 Y34.6322 
G01 X18.5246 Y34.7428 
G01 X18.4305 Y34.8369 
G01 X15.6754 Y37.5920 
G01 X15.6754 Y38.7202 
G01 X17.5498 Y40.5946 
G01 X19.6449 Y40.5946 
G01 X19.6449 Y40.4217 
G01 X19.6716 Y40.3572 
G01 X19.7209 Y40.3079 
G01 X19.7854 Y40.2812 
G01 X23.5896 Y40.2812 
G01 X23.6541 Y40.3079 
G01 X23.7034 Y40.3572 
G01 X23.7301 Y40.4217 
G00 Z2.4000 
G00 X40.7510 Y58.3625 
G01 Z-0.1000 F50.00 
G01 X42.8061 Y58.3625 F100.00 
G01 X42.9795 Y58.3899 
G01 X43.1464 Y58.4442 
G01 X43.3028 Y58.5238 
G01 X43.4449 Y58.6270 
G01 X43.5690 Y58.7511 
G01 X43.6722 Y58.8932 
G01 X43.7518 Y59.0496 
G01 X43.8061 Y59.2165 
G01 X43.8335 Y59.3899 
G01 X43.8335 Y59.5654 
G01 X43.8061 Y59.7388 
G01 X43.7518 Y59.9057 
G01 X43.6722 Y60.0621 
G01 X43.5690 Y60.2042 
G01 X43.4449 Y60.3283 
G01 X43.3028 Y60.4315 
G01 X43.1464 Y60.5111 
G01 X42.9795 Y60.5654 
G01 X42.8061 Y60.5929 
G01 X40.7510 Y60.5929 
G01 X40.5776 Y60.5654 
G01 X40.4107 Y60.5111 
G01 X40.2543 Y60.4315 
G01 X40.1122 Y60.3283 
G01 X39.9881 Y60.2042 
G01 X39.8849 Y60.0621 
G01 X39.8053 Y59.9057 
G01 X39.7510 Y59.7388 
G01 X39.7235 Y59.5654 
G01 X39.7235 Y59.3899 
G01 X39.7510 Y59.2165 
G01 X39.8053 Y59.0496 
G01 X39.8849 Y58.8932 
G01 X39.9881 Y58.7511 
G01 X40.1122 Y58.6270 
G01 X40.2543 Y58.5238 
G01 X40.4107 Y58.4442 
G01 X40.5776 Y58.3899 
G01 X40.7510 Y58.3625 
G00 Z2.4000 
G00 X44.2249 Y59.9057 
G01 Z-0.1000 F50.00 
G01 X44.1706 Y59.7388 F100.00 
G01 X44.1431 Y59.5654 
G01 X44.1431 Y59.3899 
G01 X44.1706 Y59.2165 
G01 X44.2249 Y59.0496 
G01 X44.3045 Y58.8932 
G01 X44.4077 Y58.7511 
G01 X44.5318 Y58.6270 
G01 X44.6739 Y58.5238 
G01 X44.8303 Y58.4442 
G01 X44.9972 Y58.3899 
G01 X45.1706 Y58.3625 
G01 X47.2257 Y58.3625 
G01 X47.3991 Y58.3899 
G01 X47.5660 Y58.4442 
G01 X47.6024 Y58.4627 
G01 X47.6024 Y58.4479 
G01 X47.5977 Y58.4180 
G01 X47.6024 Y58.3983 
G01 X47.6024 Y58.3780 
G01 X47.6140 Y58.3501 
G01 X47.6210 Y58.3207 
G01 X47.6329 Y58.3043 
G01 X47.6407 Y58.2856 
G01 X47.6621 Y58.2642 
G01 X47.6799 Y58.2397 
G01 X47.6971 Y58.2291 
G01 X47.7115 Y58.2148 
G01 X47.7394 Y58.2032 
G01 X47.7652 Y58.1874 
G01 X47.7852 Y58.1842 
G01 X47.9306 Y58.1240 
G01 X48.3243 Y57.7303 
G01 X48.5373 Y57.2160 
G01 X48.5373 Y56.6593 
G01 X48.3243 Y56.1450 
G01 X47.9895 Y55.8102 
G01 X47.9512 Y55.7177 
G01 X47.9512 Y55.6176 
G01 X47.9895 Y55.5251 
G01 X48.0603 Y55.4544 
G01 X48.1673 Y55.3473 
G01 X48.2381 Y55.2766 
G01 X48.3306 Y55.2383 
G01 X49.9953 Y55.2383 
G01 X50.0878 Y55.2766 
G01 X50.1585 Y55.3473 
G01 X51.8493 Y57.0380 
G01 X51.8876 Y57.1305 
G01 X51.8876 Y58.5603 
G01 X51.8493 Y58.6528 
G01 X51.7785 Y58.7236 
G01 X50.8981 Y59.6039 
G01 X50.6617 Y59.8404 
G01 X50.5337 Y60.1493 
G01 X50.5337 Y64.1281 
G01 X50.4954 Y64.2205 
G01 X50.4246 Y64.2913 
G01 X45.5948 Y69.1211 
G01 X45.5024 Y69.1594 
G01 X42.4024 Y69.1594 
G01 X42.3099 Y69.1211 
G01 X42.2391 Y69.0503 
G01 X36.8789 Y63.6901 
G01 X36.8406 Y63.5976 
G01 X36.8406 Y56.6188 
G01 X36.8789 Y56.5263 
G01 X36.9497 Y56.4555 
G01 X37.0421 Y56.4172 
G01 X37.1422 Y56.4172 
G01 X37.2347 Y56.4555 
G01 X37.3055 Y56.5263 
G01 X38.1222 Y57.3430 
G01 X38.4294 Y57.6503 
G01 X38.7384 Y57.7782 
G01 X39.6461 Y57.7782 
G01 X39.7386 Y57.8166 
G01 X39.8094 Y57.8873 
G01 X39.9872 Y58.0651 
G01 X40.0255 Y58.1576 
G01 X40.0255 Y58.2577 
G01 X39.9872 Y58.3502 
G01 X39.9164 Y58.4209 
G01 X39.6524 Y58.6850 
G01 X39.4393 Y59.1993 
G01 X39.4393 Y59.7560 
G01 X39.6524 Y60.2703 
G01 X40.0460 Y60.6640 
G01 X40.5604 Y60.8771 
G01 X42.9967 Y60.8771 
G01 X43.5110 Y60.6640 
G01 X43.9047 Y60.2703 
G01 X43.9649 Y60.1249 
G01 X43.9681 Y60.1049 
G01 X43.9839 Y60.0791 
G01 X43.9955 Y60.0512 
G01 X44.0098 Y60.0368 
G01 X44.0204 Y60.0196 
G01 X44.0449 Y60.0018 
G01 X44.0663 Y59.9804 
G01 X44.0850 Y59.9726 
G01 X44.1014 Y59.9607 
G01 X44.1308 Y59.9537 
G01 X44.1587 Y59.9421 
G01 X44.1790 Y59.9421 
G01 X44.1987 Y59.9374 
G01 X44.2286 Y59.9421 
G01 X44.2434 Y59.9421 
G01 X44.2249 Y59.9057 
G00 Z2.4000 
G00 X40.7510 Y55.8225 
G01 Z-0.1000 F50.00 
G01 X42.8061 Y55.8225 F100.00 
G01 X42.9795 Y55.8499 
G01 X43.1464 Y55.9042 
G01 X43.3028 Y55.9838 
G01 X43.4449 Y56.0870 
G01 X43.5690 Y56.2111 
G01 X43.6722 Y56.3532 
G01 X43.7518 Y56.5096 
G01 X43.8061 Y56.6765 
G01 X43.8335 Y56.8499 
G01 X43.8335 Y57.0254 
G01 X43.8061 Y57.1988 
G01 X43.7518 Y57.3657 
G01 X43.6722 Y57.5221 
G01 X43.5690 Y57.6642 
G01 X43.4449 Y57.7883 
G01 X43.3028 Y57.8915 
G01 X43.1464 Y57.9711 
G01 X42.9795 Y58.0254 
G01 X42.8061 Y58.0528 
G01 X40.7510 Y58.0528 
G01 X40.5776 Y58.0254 
G01 X40.4107 Y57.9711 
G01 X40.2543 Y57.8915 
G01 X40.1122 Y57.7883 
G01 X39.9881 Y57.6642 
G01 X39.8849 Y57.5221 
G01 X39.8706 Y57.4941 
G01 X38.8324 Y57.4941 
G01 X38.6908 Y57.4561 
G01 X38.5640 Y57.3829 
G01 X37.5548 Y56.3737 
G01 X37.4815 Y56.2468 
G01 X37.4436 Y56.1053 
G01 X37.4436 Y40.2061 
G01 X36.2614 Y39.0239 
G01 X36.1578 Y38.9203 
G01 X36.0845 Y38.7934 
G01 X36.0466 Y38.6519 
G01 X36.0466 Y37.8335 
G01 X34.9595 Y36.7464 
G01 X32.3551 Y36.7464 
G01 X32.3551 Y37.0383 
G01 X32.3284 Y37.1028 
G01 X32.2791 Y37.1521 
G01 X32.2146 Y37.1788 
G01 X28.4104 Y37.1788 
G01 X28.3459 Y37.1521 
G01 X28.2966 Y37.1028 
G01 X28.2699 Y37.0383 
G01 X28.2699 Y35.3417 
G01 X28.2966 Y35.2772 
G01 X28.3459 Y35.2279 
G01 X28.4104 Y35.2011 
G01 X32.2146 Y35.2011 
G01 X32.2791 Y35.2279 
G01 X32.3284 Y35.2772 
G01 X32.3551 Y35.3417 
G01 X32.3551 Y35.6336 
G01 X35.2632 Y35.6336 
G01 X35.4048 Y35.6715 
G01 X35.5316 Y35.7448 
G01 X36.9446 Y37.1578 
G01 X37.0482 Y37.2614 
G01 X37.1215 Y37.3882 
G01 X37.1594 Y37.5297 
G01 X37.1594 Y38.3482 
G01 X38.4452 Y39.6340 
G01 X38.5185 Y39.7609 
G01 X38.5564 Y39.9024 
G01 X38.5564 Y55.8016 
G01 X39.1361 Y56.3813 
G01 X39.8706 Y56.3813 
G01 X39.8849 Y56.3532 
G01 X39.9881 Y56.2111 
G01 X40.1122 Y56.0870 
G01 X40.2543 Y55.9838 
G01 X40.4107 Y55.9042 
G01 X40.5776 Y55.8499 
G01 X40.7510 Y55.8225 
G00 Z2.4000 
G00 X47.2257 Y58.0528 
G01 Z-0.1000 F50.00 
G01 X45.1706 Y58.0528 F100.00 
G01 X44.9972 Y58.0254 
G01 X44.8303 Y57.9711 
G01 X44.6739 Y57.8915 
G01 X44.5318 Y57.7883 
G01 X44.4077 Y57.6642 
G01 X44.3045 Y57.5221 
G01 X44.2249 Y57.3657 
G01 X44.1706 Y57.1988 
G01 X44.1431 Y57.0254 
G01 X44.1431 Y56.8499 
G01 X44.1706 Y56.6765 
G01 X44.2249 Y56.5096 
G01 X44.3045 Y56.3532 
G01 X44.4077 Y56.2111 
G01 X44.5318 Y56.0870 
G01 X44.6739 Y55.9838 
G01 X44.8303 Y55.9042 
G01 X44.9972 Y55.8499 
G01 X45.1706 Y55.8225 
G01 X47.2257 Y55.8225 
G01 X47.3991 Y55.8499 
G01 X47.5660 Y55.9042 
G01 X47.7224 Y55.9838 
G01 X47.8645 Y56.0870 
G01 X47.9886 Y56.2111 
G01 X48.0918 Y56.3532 
G01 X48.1714 Y56.5096 
G01 X48.2257 Y56.6765 
G01 X48.2531 Y56.8499 
G01 X48.2531 Y57.0254 
G01 X48.2257 Y57.1988 
G01 X48.1714 Y57.3657 
G01 X48.0918 Y57.5221 
G01 X47.9886 Y57.6642 
G01 X47.8645 Y57.7883 
G01 X47.7224 Y57.8915 
G01 X47.5660 Y57.9711 
G01 X47.3991 Y58.0254 
G01 X47.2257 Y58.0528 
G00 Z2.4000 
G00 X40.7510 Y53.2825 
G01 Z-0.1000 F50.00 
G01 X42.8061 Y53.2825 F100.00 
G01 X42.9795 Y53.3099 
G01 X43.1464 Y53.3642 
G01 X43.3028 Y53.4438 
G01 X43.4449 Y53.5470 
G01 X43.5690 Y53.6711 
G01 X43.6722 Y53.8132 
G01 X43.7518 Y53.9696 
G01 X43.8061 Y54.1365 
G01 X43.8335 Y54.3099 
G01 X43.8335 Y54.4854 
G01 X43.8061 Y54.6588 
G01 X43.7518 Y54.8257 
G01 X43.6722 Y54.9821 
G01 X43.5690 Y55.1242 
G01 X43.4449 Y55.2483 
G01 X43.3028 Y55.3515 
G01 X43.1464 Y55.4311 
G01 X42.9795 Y55.4854 
G01 X42.8061 Y55.5129 
G01 X40.7510 Y55.5129 
G01 X40.5776 Y55.4854 
G01 X40.4107 Y55.4311 
G01 X40.2543 Y55.3515 
G01 X40.1122 Y55.2483 
G01 X39.9881 Y55.1242 
G01 X39.8849 Y54.9821 
G01 X39.8053 Y54.8257 
G01 X39.7510 Y54.6588 
G01 X39.7235 Y54.4854 
G01 X39.7235 Y54.3099 
G01 X39.7510 Y54.1365 
G01 X39.8053 Y53.9696 
G01 X39.8849 Y53.8132 
G01 X39.9881 Y53.6711 
G01 X40.1122 Y53.5470 
G01 X40.2543 Y53.4438 
G01 X40.4107 Y53.3642 
G01 X40.5776 Y53.3099 
G01 X40.7510 Y53.2825 
G00 Z2.4000 
G00 X47.2257 Y55.5129 
G01 Z-0.1000 F50.00 
G01 X45.1706 Y55.5129 F100.00 
G01 X44.9972 Y55.4854 
G01 X44.8303 Y55.4311 
G01 X44.6739 Y55.3515 
G01 X44.5318 Y55.2483 
G01 X44.4077 Y55.1242 
G01 X44.3045 Y54.9821 
G01 X44.2249 Y54.8257 
G01 X44.1706 Y54.6588 
G01 X44.1431 Y54.4854 
G01 X44.1431 Y54.3099 
G01 X44.1706 Y54.1365 
G01 X44.2249 Y53.9696 
G01 X44.3045 Y53.8132 
G01 X44.4077 Y53.6711 
G01 X44.5318 Y53.5470 
G01 X44.6739 Y53.4438 
G01 X44.8303 Y53.3642 
G01 X44.9972 Y53.3099 
G01 X45.1706 Y53.2825 
G01 X47.2257 Y53.2825 
G01 X47.3991 Y53.3099 
G01 X47.5660 Y53.3642 
G01 X47.7224 Y53.4438 
G01 X47.8645 Y53.5470 
G01 X47.9886 Y53.6711 
G01 X48.0918 Y53.8132 
G01 X48.1061 Y53.8413 
G01 X50.4709 Y53.8413 
G01 X50.6124 Y53.8792 
G01 X50.7393 Y53.9524 
G01 X53.1734 Y56.3865 
G01 X53.2466 Y56.5134 
G01 X53.2846 Y56.6549 
G01 X53.2846 Y59.0359 
G01 X53.2466 Y59.1774 
G01 X53.1734 Y59.3043 
G01 X53.0698 Y59.4079 
G01 X51.9307 Y60.5470 
G01 X51.9307 Y64.6037 
G01 X51.8928 Y64.7452 
G01 X51.8195 Y64.8721 
G01 X51.7159 Y64.9757 
G01 X46.2464 Y70.4452 
G01 X46.1195 Y70.5185 
G01 X45.9780 Y70.5564 
G01 X41.9267 Y70.5564 
G01 X41.7852 Y70.5185 
G01 X41.6584 Y70.4452 
G01 X35.5548 Y64.3416 
G01 X35.4815 Y64.2148 
G01 X35.4436 Y64.0733 
G01 X35.4436 Y41.2305 
G01 X33.4995 Y39.2864 
G01 X32.3551 Y39.2864 
G01 X32.3551 Y39.5783 
G01 X32.3284 Y39.6428 
G01 X32.2791 Y39.6921 
G01 X32.2146 Y39.7188 
G01 X28.4104 Y39.7188 
G01 X28.3459 Y39.6921 
G01 X28.2966 Y39.6428 
G01 X28.2699 Y39.5783 
G01 X28.2699 Y37.8817 
G01 X28.2966 Y37.8172 
G01 X28.3459 Y37.7679 
G01 X28.4104 Y37.7412 
G01 X32.2146 Y37.7412 
G01 X32.2791 Y37.7679 
G01 X32.3284 Y37.8172 
G01 X32.3551 Y37.8817 
G01 X32.3551 Y38.1736 
G01 X33.8032 Y38.1736 
G01 X33.9448 Y38.2115 
G01 X34.0716 Y38.2848 
G01 X36.3416 Y40.5548 
G01 X36.4452 Y40.6584 
G01 X36.5185 Y40.7852 
G01 X36.5564 Y40.9267 
G01 X36.5564 Y63.7695 
G01 X42.2305 Y69.4436 
G01 X45.6743 Y69.4436 
G01 X50.8179 Y64.3000 
G01 X50.8179 Y60.2433 
G01 X50.8558 Y60.1018 
G01 X50.9291 Y59.9749 
G01 X51.0327 Y59.8713 
G01 X52.1718 Y58.7322 
G01 X52.1718 Y56.9586 
G01 X50.1672 Y54.9541 
G01 X48.1061 Y54.9541 
G01 X48.0918 Y54.9821 
G01 X47.9886 Y55.1242 
G01 X47.8645 Y55.2483 
G01 X47.7224 Y55.3515 
G01 X47.5660 Y55.4311 
G01 X47.3991 Y55.4854 
G01 X47.2257 Y55.5129 
G00 Z2.4000 
G00 X47.2257 Y52.9729 
G01 Z-0.1000 F50.00 
G01 X45.1706 Y52.9729 F100.00 
G01 X44.9972 Y52.9454 
G01 X44.8303 Y52.8911 
G01 X44.6739 Y52.8115 
G01 X44.5318 Y52.7083 
G01 X44.4077 Y52.5842 
G01 X44.3045 Y52.4421 
G01 X44.2249 Y52.2857 
G01 X44.1706 Y52.1188 
G01 X44.1431 Y51.9454 
G01 X44.1431 Y51.7699 
G01 X44.1706 Y51.5965 
G01 X44.2249 Y51.4296 
G01 X44.3045 Y51.2732 
G01 X44.4077 Y51.1311 
G01 X44.5318 Y51.0070 
G01 X44.6739 Y50.9038 
G01 X44.8303 Y50.8242 
G01 X44.9972 Y50.7699 
G01 X45.1706 Y50.7425 
G01 X47.2257 Y50.7425 
G01 X47.3991 Y50.7699 
G01 X47.5660 Y50.8242 
G01 X47.7224 Y50.9038 
G01 X47.8645 Y51.0070 
G01 X47.9886 Y51.1311 
G01 X48.0918 Y51.2732 
G01 X48.1714 Y51.4296 
G01 X48.2257 Y51.5965 
G01 X48.2531 Y51.7699 
G01 X48.2531 Y51.9454 
G01 X48.2257 Y52.1188 
G01 X48.1714 Y52.2857 
G01 X48.0918 Y52.4421 
G01 X47.9886 Y52.5842 
G01 X47.8645 Y52.7083 
G01 X47.7224 Y52.8115 
G01 X47.5660 Y52.8911 
G01 X47.3991 Y52.9454 
G01 X47.2257 Y52.9729 
G00 Z2.4000 
G00 X40.7510 Y48.2025 
G01 Z-0.1000 F50.00 
G01 X42.8061 Y48.2025 F100.00 
G01 X42.9795 Y48.2299 
G01 X43.1464 Y48.2842 
G01 X43.3028 Y48.3638 
G01 X43.4449 Y48.4670 
G01 X43.5690 Y48.5911 
G01 X43.6722 Y48.7332 
G01 X43.7518 Y48.8896 
G01 X43.8061 Y49.0565 
G01 X43.8335 Y49.2299 
G01 X43.8335 Y49.4054 
G01 X43.8061 Y49.5788 
G01 X43.7518 Y49.7457 
G01 X43.6722 Y49.9021 
G01 X43.5690 Y50.0442 
G01 X43.4449 Y50.1683 
G01 X43.3028 Y50.2715 
G01 X43.1464 Y50.3511 
G01 X42.9795 Y50.4054 
G01 X42.8061 Y50.4329 
G01 X40.7510 Y50.4329 
G01 X40.5776 Y50.4054 
G01 X40.4107 Y50.3511 
G01 X40.2543 Y50.2715 
G01 X40.1122 Y50.1683 
G01 X39.9881 Y50.0442 
G01 X39.8849 Y49.9021 
G01 X39.8053 Y49.7457 
G01 X39.7510 Y49.5788 
G01 X39.7235 Y49.4054 
G01 X39.7235 Y49.2299 
G01 X39.7510 Y49.0565 
G01 X39.8053 Y48.8896 
G01 X39.8849 Y48.7332 
G01 X39.9881 Y48.5911 
G01 X40.1122 Y48.4670 
G01 X40.2543 Y48.3638 
G01 X40.4107 Y48.2842 
G01 X40.5776 Y48.2299 
G01 X40.7510 Y48.2025 
G00 Z2.4000 
G00 X47.2257 Y50.4329 
G01 Z-0.1000 F50.00 
G01 X45.1706 Y50.4329 F100.00 
G01 X44.9972 Y50.4054 
G01 X44.8303 Y50.3511 
G01 X44.6739 Y50.2715 
G01 X44.5318 Y50.1683 
G01 X44.4077 Y50.0442 
G01 X44.3045 Y49.9021 
G01 X44.2249 Y49.7457 
G01 X44.1706 Y49.5788 
G01 X44.1431 Y49.4054 
G01 X44.1431 Y49.2299 
G01 X44.1706 Y49.0565 
G01 X44.2249 Y48.8896 
G01 X44.3045 Y48.7332 
G01 X44.4077 Y48.5911 
G01 X44.5318 Y48.4670 
G01 X44.6739 Y48.3638 
G01 X44.8303 Y48.2842 
G01 X44.9972 Y48.2299 
G01 X45.1706 Y48.2025 
G01 X47.2257 Y48.2025 
G01 X47.3991 Y48.2299 
G01 X47.5660 Y48.2842 
G01 X47.7224 Y48.3638 
G01 X47.8645 Y48.4670 
G01 X47.9886 Y48.5911 
G01 X48.0918 Y48.7332 
G01 X48.1714 Y48.8896 
G01 X48.2257 Y49.0565 
G01 X48.2531 Y49.2299 
G01 X48.2531 Y49.4054 
G01 X48.2257 Y49.5788 
G01 X48.1714 Y49.7457 
G01 X48.0918 Y49.9021 
G01 X47.9886 Y50.0442 
G01 X47.8645 Y50.1683 
G01 X47.7224 Y50.2715 
G01 X47.5660 Y50.3511 
G01 X47.3991 Y50.4054 
G01 X47.2257 Y50.4329 
G00 Z2.4000 
G00 X40.7510 Y45.6625 
G01 Z-0.1000 F50.00 
G01 X42.8061 Y45.6625 F100.00 
G01 X42.9795 Y45.6899 
G01 X43.1464 Y45.7442 
G01 X43.3028 Y45.8238 
G01 X43.4449 Y45.9270 
G01 X43.5690 Y46.0511 
G01 X43.6722 Y46.1932 
G01 X43.7518 Y46.3496 
G01 X43.8061 Y46.5165 
G01 X43.8335 Y46.6899 
G01 X43.8335 Y46.8654 
G01 X43.8061 Y47.0388 
G01 X43.7518 Y47.2057 
G01 X43.6722 Y47.3621 
G01 X43.5690 Y47.5042 
G01 X43.4449 Y47.6283 
G01 X43.3028 Y47.7315 
G01 X43.1464 Y47.8111 
G01 X42.9795 Y47.8654 
G01 X42.8061 Y47.8929 
G01 X40.7510 Y47.8929 
G01 X40.5776 Y47.8654 
G01 X40.4107 Y47.8111 
G01 X40.3743 Y47.7926 
G01 X40.3743 Y47.8074 
G01 X40.3790 Y47.8373 
G01 X40.3743 Y47.8570 
G01 X40.3743 Y47.8773 
G01 X40.3627 Y47.9052 
G01 X40.3557 Y47.9346 
G01 X40.3438 Y47.9510 
G01 X40.3360 Y47.9697 
G01 X40.3146 Y47.9911 
G01 X40.2968 Y48.0156 
G01 X40.2796 Y48.0262 
G01 X40.2652 Y48.0405 
G01 X40.2373 Y48.0521 
G01 X40.2115 Y48.0679 
G01 X40.1915 Y48.0711 
G01 X40.0460 Y48.1313 
G01 X39.6524 Y48.5250 
G01 X39.4393 Y49.0393 
G01 X39.4393 Y49.5960 
G01 X39.6524 Y50.1103 
G01 X40.0460 Y50.5040 
G01 X40.1915 Y50.5642 
G01 X40.2115 Y50.5674 
G01 X40.2373 Y50.5832 
G01 X40.2652 Y50.5948 
G01 X40.2796 Y50.6091 
G01 X40.2968 Y50.6197 
G01 X40.3146 Y50.6442 
G01 X40.3360 Y50.6656 
G01 X40.3438 Y50.6843 
G01 X40.3557 Y50.7007 
G01 X40.3627 Y50.7301 
G01 X40.3743 Y50.7580 
G01 X40.3743 Y50.7783 
G01 X40.3790 Y50.7980 
G01 X40.3743 Y50.8279 
G01 X40.3743 Y50.8427 
G01 X40.4107 Y50.8242 
G01 X40.5776 Y50.7699 
G01 X40.7510 Y50.7425 
G01 X42.8061 Y50.7425 
G01 X42.9795 Y50.7699 
G01 X43.1464 Y50.8242 
G01 X43.3028 Y50.9038 
G01 X43.4449 Y51.0070 
G01 X43.5690 Y51.1311 
G01 X43.6722 Y51.2732 
G01 X43.7518 Y51.4296 
G01 X43.8061 Y51.5965 
G01 X43.8335 Y51.7699 
G01 X43.8335 Y51.9454 
G01 X43.8061 Y52.1188 
G01 X43.7518 Y52.2857 
G01 X43.6722 Y52.4421 
G01 X43.5690 Y52.5842 
G01 X43.4449 Y52.7083 
G01 X43.3028 Y52.8115 
G01 X43.1464 Y52.8911 
G01 X42.9795 Y52.9454 
G01 X42.8061 Y52.9729 
G01 X40.7510 Y52.9729 
G01 X40.5776 Y52.9454 
G01 X40.4107 Y52.8911 
G01 X40.3743 Y52.8726 
G01 X40.3743 Y52.8874 
G01 X40.3790 Y52.9173 
G01 X40.3743 Y52.9370 
G01 X40.3743 Y52.9573 
G01 X40.3627 Y52.9852 
G01 X40.3557 Y53.0146 
G01 X40.3438 Y53.0310 
G01 X40.3360 Y53.0497 
G01 X40.3146 Y53.0711 
G01 X40.2968 Y53.0956 
G01 X40.2796 Y53.1062 
G01 X40.2652 Y53.1205 
G01 X40.2373 Y53.1321 
G01 X40.2115 Y53.1479 
G01 X40.1915 Y53.1511 
G01 X40.0460 Y53.2113 
G01 X39.6524 Y53.6050 
G01 X39.4393 Y54.1193 
G01 X39.4393 Y54.6760 
G01 X39.6524 Y55.1903 
G01 X39.9872 Y55.5251 
G01 X40.0255 Y55.6176 
G01 X40.0255 Y55.7177 
G01 X39.9872 Y55.8102 
G01 X39.9164 Y55.8809 
G01 X39.7386 Y56.0587 
G01 X39.6461 Y56.0971 
G01 X39.3080 Y56.0971 
G01 X39.2155 Y56.0587 
G01 X39.1447 Y55.9880 
G01 X38.8789 Y55.7222 
G01 X38.8406 Y55.6297 
G01 X38.8406 Y40.1998 
G01 X38.8789 Y40.1073 
G01 X38.9497 Y40.0366 
G01 X39.0421 Y39.9982 
G01 X39.6461 Y39.9982 
G01 X39.7386 Y40.0366 
G01 X39.8094 Y40.1073 
G01 X39.9872 Y40.2851 
G01 X40.0255 Y40.3776 
G01 X40.0255 Y40.4777 
G01 X39.9872 Y40.5702 
G01 X39.9164 Y40.6409 
G01 X39.6524 Y40.9049 
G01 X39.4393 Y41.4193 
G01 X39.4393 Y41.9760 
G01 X39.6524 Y42.4903 
G01 X39.9872 Y42.8251 
G01 X40.0255 Y42.9176 
G01 X40.0255 Y43.0177 
G01 X39.9872 Y43.1102 
G01 X39.9164 Y43.1809 
G01 X39.6524 Y43.4449 
G01 X39.4393 Y43.9593 
G01 X39.4393 Y44.5160 
G01 X39.6524 Y45.0303 
G01 X40.0460 Y45.4240 
G01 X40.1915 Y45.4842 
G01 X40.2115 Y45.4874 
G01 X40.2373 Y45.5032 
G01 X40.2652 Y45.5148 
G01 X40.2796 Y45.5291 
G01 X40.2968 Y45.5397 
G01 X40.3146 Y45.5642 
G01 X40.3360 Y45.5856 
G01 X40.3438 Y45.6043 
G01 X40.3557 Y45.6207 
G01 X40.3627 Y45.6501 
G01 X40.3743 Y45.6780 
G01 X40.3743 Y45.6983 
G01 X40.3790 Y45.7180 
G01 X40.3743 Y45.7479 
G01 X40.3743 Y45.7627 
G01 X40.4107 Y45.7442 
G01 X40.5776 Y45.6899 
G01 X40.7510 Y45.6625 
G00 Z2.4000 
G00 X47.2257 Y47.8929 
G01 Z-0.1000 F50.00 
G01 X45.1706 Y47.8929 F100.00 
G01 X44.9972 Y47.8654 
G01 X44.8303 Y47.8111 
G01 X44.6739 Y47.7315 
G01 X44.5318 Y47.6283 
G01 X44.4077 Y47.5042 
G01 X44.3045 Y47.3621 
G01 X44.2249 Y47.2057 
G01 X44.1706 Y47.0388 
G01 X44.1431 Y46.8654 
G01 X44.1431 Y46.6899 
G01 X44.1706 Y46.5165 
G01 X44.2249 Y46.3496 
G01 X44.3045 Y46.1932 
G01 X44.4077 Y46.0511 
G01 X44.5318 Y45.9270 
G01 X44.6739 Y45.8238 
G01 X44.8303 Y45.7442 
G01 X44.9972 Y45.6899 
G01 X45.1706 Y45.6625 
G01 X47.2257 Y45.6625 
G01 X47.3991 Y45.6899 
G01 X47.5660 Y45.7442 
G01 X47.7224 Y45.8238 
G01 X47.8645 Y45.9270 
G01 X47.9886 Y46.0511 
G01 X48.0918 Y46.1932 
G01 X48.1714 Y46.3496 
G01 X48.2257 Y46.5165 
G01 X48.2531 Y46.6899 
G01 X48.2531 Y46.8654 
G01 X48.2257 Y47.0388 
G01 X48.1714 Y47.2057 
G01 X48.0918 Y47.3621 
G01 X47.9886 Y47.5042 
G01 X47.8645 Y47.6283 
G01 X47.7224 Y47.7315 
G01 X47.5660 Y47.8111 
G01 X47.3991 Y47.8654 
G01 X47.2257 Y47.8929 
G00 Z2.4000 
G00 X40.7510 Y43.1225 
G01 Z-0.1000 F50.00 
G01 X42.8061 Y43.1225 F100.00 
G01 X42.9795 Y43.1499 
G01 X43.1464 Y43.2042 
G01 X43.3028 Y43.2838 
G01 X43.4449 Y43.3870 
G01 X43.5690 Y43.5111 
G01 X43.6722 Y43.6532 
G01 X43.7518 Y43.8096 
G01 X43.8061 Y43.9765 
G01 X43.8335 Y44.1499 
G01 X43.8335 Y44.3254 
G01 X43.8061 Y44.4988 
G01 X43.7518 Y44.6657 
G01 X43.6722 Y44.8221 
G01 X43.5690 Y44.9642 
G01 X43.4449 Y45.0883 
G01 X43.3028 Y45.1915 
G01 X43.1464 Y45.2711 
G01 X42.9795 Y45.3254 
G01 X42.8061 Y45.3529 
G01 X40.7510 Y45.3529 
G01 X40.5776 Y45.3254 
G01 X40.4107 Y45.2711 
G01 X40.2543 Y45.1915 
G01 X40.1122 Y45.0883 
G01 X39.9881 Y44.9642 
G01 X39.8849 Y44.8221 
G01 X39.8053 Y44.6657 
G01 X39.7510 Y44.4988 
G01 X39.7235 Y44.3254 
G01 X39.7235 Y44.1499 
G01 X39.7510 Y43.9765 
G01 X39.8053 Y43.8096 
G01 X39.8849 Y43.6532 
G01 X39.9881 Y43.5111 
G01 X40.1122 Y43.3870 
G01 X40.2543 Y43.2838 
G01 X40.4107 Y43.2042 
G01 X40.5776 Y43.1499 
G01 X40.7510 Y43.1225 
G00 Z2.4000 
G00 X47.2257 Y45.3529 
G01 Z-0.1000 F50.00 
G01 X45.1706 Y45.3529 F100.00 
G01 X44.9972 Y45.3254 
G01 X44.8303 Y45.2711 
G01 X44.6739 Y45.1915 
G01 X44.5318 Y45.0883 
G01 X44.4077 Y44.9642 
G01 X44.3045 Y44.8221 
G01 X44.2249 Y44.6657 
G01 X44.1706 Y44.4988 
G01 X44.1431 Y44.3254 
G01 X44.1431 Y44.1499 
G01 X44.1706 Y43.9765 
G01 X44.2249 Y43.8096 
G01 X44.3045 Y43.6532 
G01 X44.4077 Y43.5111 
G01 X44.5318 Y43.3870 
G01 X44.6739 Y43.2838 
G01 X44.8303 Y43.2042 
G01 X44.9972 Y43.1499 
G01 X45.1706 Y43.1225 
G01 X47.2257 Y43.1225 
G01 X47.3991 Y43.1499 
G01 X47.5660 Y43.2042 
G01 X47.7224 Y43.2838 
G01 X47.8645 Y43.3870 
G01 X47.9886 Y43.5111 
G01 X48.0918 Y43.6532 
G01 X48.1714 Y43.8096 
G01 X48.2257 Y43.9765 
G01 X48.2531 Y44.1499 
G01 X48.2531 Y44.3254 
G01 X48.2257 Y44.4988 
G01 X48.1714 Y44.6657 
G01 X48.0918 Y44.8221 
G01 X47.9886 Y44.9642 
G01 X47.8645 Y45.0883 
G01 X47.7224 Y45.1915 
G01 X47.5660 Y45.2711 
G01 X47.3991 Y45.3254 
G01 X47.2257 Y45.3529 
G00 Z2.4000 
G00 X40.7510 Y12.6425 
G01 Z-0.1000 F50.00 
G01 X42.0174 Y12.6425 F100.00 
G01 X42.0174 Y12.3329 
G01 X40.7510 Y12.3329 
G01 X40.5776 Y12.3054 
G01 X40.4107 Y12.2511 
G01 X40.2543 Y12.1715 
G01 X40.1122 Y12.0683 
G01 X39.9881 Y11.9442 
G01 X39.9696 Y11.9186 
G01 X39.8499 Y11.9186 
G01 X39.8097 Y11.9266 
G01 X39.6750 Y11.9266 
G01 X39.5430 Y11.9004 
G01 X39.4186 Y11.8489 
G01 X39.3067 Y11.7741 
G01 X37.7736 Y10.2409 
G01 X37.6988 Y10.1290 
G01 X37.6472 Y10.0046 
G01 X37.6210 Y9.8726 
G01 X37.6210 Y6.5243 
G01 X37.6472 Y6.3923 
G01 X37.6988 Y6.2679 
G01 X37.7736 Y6.1560 
G01 X41.0952 Y2.8344 
G01 X41.1904 Y2.7392 
G01 X41.3023 Y2.6644 
G01 X41.4267 Y2.6129 
G01 X41.5587 Y2.5866 
G01 X46.5618 Y2.5866 
G01 X46.6939 Y2.6129 
G01 X46.8182 Y2.6644 
G01 X46.9302 Y2.7392 
G01 X47.0253 Y2.8344 
G01 X47.0481 Y2.8685 
G01 X51.6832 Y7.5036 
G01 X55.2290 Y7.5036 
G01 X55.5281 Y7.2045 
G01 X55.6222 Y7.1104 
G01 X55.7328 Y7.0365 
G01 X55.8557 Y6.9856 
G01 X55.9862 Y6.9596 
G01 X74.2549 Y6.9596 
G01 X74.3854 Y6.9856 
G01 X74.5083 Y7.0365 
G01 X74.6189 Y7.1104 
G01 X74.7130 Y7.2045 
G01 X75.0121 Y7.5036 
G01 X76.6197 Y7.5036 
G01 X76.9188 Y7.2045 
G01 X77.0129 Y7.1104 
G01 X77.1235 Y7.0365 
G01 X77.2465 Y6.9856 
G01 X77.3769 Y6.9596 
G01 X81.7015 Y6.9596 
G01 X81.8320 Y6.9856 
G01 X81.9549 Y7.0365 
G01 X82.0655 Y7.1104 
G01 X82.1596 Y7.2045 
G01 X82.2798 Y7.3246 
G01 X90.5996 Y7.3246 
G01 X90.7301 Y7.3506 
G01 X90.8530 Y7.4015 
G01 X90.9636 Y7.4754 
G01 X92.0796 Y8.5913 
G01 X97.3332 Y8.5913 
G01 X97.4637 Y8.6173 
G01 X97.5866 Y8.6682 
G01 X97.6972 Y8.7421 
G01 X103.5544 Y14.5992 
G01 X103.6283 Y14.7099 
G01 X103.6792 Y14.8328 
G01 X103.7052 Y14.9633 
G01 X103.7052 Y33.6977 
G01 X103.7132 Y33.7380 
G01 X103.7132 Y33.8726 
G01 X103.6869 Y34.0046 
G01 X103.6354 Y34.1290 
G01 X103.5606 Y34.2409 
G01 X92.0123 Y45.7892 
G01 X91.9004 Y45.8640 
G01 X91.7760 Y45.9155 
G01 X91.6440 Y45.9417 
G01 X72.2027 Y45.9417 
G01 X72.2027 Y46.2932 
G01 X72.1760 Y46.3577 
G01 X72.1267 Y46.4070 
G01 X72.0622 Y46.4338 
G01 X71.7027 Y46.4338 
G01 X71.7027 Y47.1489 
G01 X71.6767 Y47.2794 
G01 X71.6258 Y47.4023 
G01 X71.5519 Y47.5129 
G01 X69.8290 Y49.2358 
G01 X69.7349 Y49.3299 
G01 X69.6243 Y49.4038 
G01 X69.5014 Y49.4547 
G01 X69.3709 Y49.4807 
G01 X66.2379 Y49.4807 
G01 X66.1074 Y49.4547 
G01 X65.9845 Y49.4038 
G01 X65.8738 Y49.3299 
G01 X62.8738 Y46.3299 
G01 X62.7798 Y46.2358 
G01 X62.7059 Y46.1252 
G01 X62.6549 Y46.0023 
G01 X62.6290 Y45.8718 
G01 X62.6290 Y45.0850 
G01 X61.9563 Y44.4123 
G01 X61.8824 Y44.3017 
G01 X61.8315 Y44.1788 
G01 X61.8055 Y44.0483 
G01 X61.8055 Y39.2219 
G01 X61.7590 Y39.1754 
G01 X61.6573 Y39.0232 
G01 X61.5872 Y38.8541 
G01 X61.5515 Y38.6745 
G01 X61.5515 Y38.4914 
G01 X61.5872 Y38.3119 
G01 X61.6573 Y38.1427 
G01 X61.7590 Y37.9905 
G01 X61.8884 Y37.8610 
G01 X62.0407 Y37.7593 
G01 X62.2098 Y37.6893 
G01 X62.3894 Y37.6536 
G01 X62.5724 Y37.6536 
G01 X62.7520 Y37.6893 
G01 X62.9211 Y37.7593 
G01 X63.0734 Y37.8610 
G01 X63.2028 Y37.9905 
G01 X63.3045 Y38.1427 
G01 X63.3746 Y38.3119 
G01 X63.4103 Y38.4914 
G01 X63.4103 Y38.6745 
G01 X63.3746 Y38.8541 
G01 X63.3045 Y39.0232 
G01 X63.2028 Y39.1754 
G01 X63.1563 Y39.2219 
G01 X63.1563 Y43.7020 
G01 X63.8290 Y44.3747 
G01 X63.9029 Y44.4854 
G01 X63.9538 Y44.6083 
G01 X63.9798 Y44.7388 
G01 X63.9798 Y45.5255 
G01 X66.5841 Y48.1299 
G01 X69.0246 Y48.1299 
G01 X70.3519 Y46.8026 
G01 X70.3519 Y46.4338 
G01 X69.9924 Y46.4338 
G01 X69.9280 Y46.4070 
G01 X69.8786 Y46.3577 
G01 X69.8519 Y46.2932 
G01 X69.8519 Y44.2235 
G01 X69.8786 Y44.1590 
G01 X69.9280 Y44.1097 
G01 X69.9924 Y44.0830 
G01 X72.0622 Y44.0830 
G01 X72.1267 Y44.1097 
G01 X72.1760 Y44.1590 
G01 X72.2027 Y44.2235 
G01 X72.2027 Y44.5750 
G01 X91.2936 Y44.5750 
G01 X102.3544 Y33.5142 
G01 X102.3544 Y15.3095 
G01 X96.9869 Y9.9421 
G01 X91.7333 Y9.9421 
G01 X91.6028 Y9.9161 
G01 X91.4799 Y9.8652 
G01 X91.3693 Y9.7913 
G01 X91.2752 Y9.6972 
G01 X90.2533 Y8.6754 
G01 X81.9335 Y8.6754 
G01 X81.8030 Y8.6494 
G01 X81.6801 Y8.5985 
G01 X81.5695 Y8.5246 
G01 X81.4754 Y8.4305 
G01 X81.3552 Y8.3104 
G01 X77.7232 Y8.3104 
G01 X77.3300 Y8.7036 
G01 X77.2194 Y8.7775 
G01 X77.0965 Y8.8284 
G01 X76.9660 Y8.8544 
G01 X74.6658 Y8.8544 
G01 X74.5353 Y8.8284 
G01 X74.4124 Y8.7775 
G01 X74.3018 Y8.7036 
G01 X73.9086 Y8.3104 
G01 X56.3325 Y8.3104 
G01 X55.9393 Y8.7036 
G01 X55.8287 Y8.7775 
G01 X55.7058 Y8.8284 
G01 X55.5753 Y8.8544 
G01 X51.3370 Y8.8544 
G01 X51.2065 Y8.8284 
G01 X51.0836 Y8.7775 
G01 X50.9729 Y8.7036 
G01 X50.8789 Y8.6095 
G01 X46.2228 Y3.9534 
G01 X41.9091 Y3.9534 
G01 X38.9878 Y6.8747 
G01 X38.9878 Y9.5222 
G01 X39.9749 Y10.5093 
G01 X39.9881 Y10.4911 
G01 X40.1122 Y10.3670 
G01 X40.2543 Y10.2638 
G01 X40.4107 Y10.1842 
G01 X40.5776 Y10.1299 
G01 X40.7510 Y10.1025 
G01 X42.8061 Y10.1025 
G01 X42.9795 Y10.1299 
G01 X43.1464 Y10.1842 
G01 X43.3028 Y10.2638 
G01 X43.4449 Y10.3670 
G01 X43.5690 Y10.4911 
G01 X43.6722 Y10.6332 
G01 X43.7518 Y10.7896 
G01 X43.8061 Y10.9565 
G01 X43.8335 Y11.1299 
G01 X43.8335 Y11.3054 
G01 X43.8061 Y11.4788 
G01 X43.7518 Y11.6457 
G01 X43.6722 Y11.8021 
G01 X43.5690 Y11.9442 
G01 X43.4449 Y12.0683 
G01 X43.3682 Y12.1240 
G01 X43.3682 Y12.8513 
G01 X43.4449 Y12.9070 
G01 X43.5690 Y13.0311 
G01 X43.6722 Y13.1732 
G01 X43.7518 Y13.3296 
G01 X43.8061 Y13.4965 
G01 X43.8335 Y13.6699 
G01 X43.8335 Y13.8454 
G01 X43.8061 Y14.0188 
G01 X43.7518 Y14.1857 
G01 X43.6722 Y14.3421 
G01 X43.5690 Y14.4842 
G01 X43.4449 Y14.6083 
G01 X43.3028 Y14.7115 
G01 X43.1464 Y14.7911 
G01 X42.9795 Y14.8454 
G01 X42.8061 Y14.8729 
G01 X40.7510 Y14.8729 
G01 X40.5776 Y14.8454 
G01 X40.4107 Y14.7911 
G01 X40.2543 Y14.7115 
G01 X40.1122 Y14.6083 
G01 X39.9881 Y14.4842 
G01 X39.8849 Y14.3421 
G01 X39.8053 Y14.1857 
G01 X39.7510 Y14.0188 
G01 X39.7235 Y13.8454 
G01 X39.7235 Y13.6699 
G01 X39.7510 Y13.4965 
G01 X39.8053 Y13.3296 
G01 X39.8849 Y13.1732 
G01 X39.9881 Y13.0311 
G01 X40.1122 Y12.9070 
G01 X40.2543 Y12.8038 
G01 X40.4107 Y12.7242 
G01 X40.5776 Y12.6699 
G01 X40.7510 Y12.6425 
G00 Z2.4000 
G00 X40.7510 Y17.7225 
G01 Z-0.1000 F50.00 
G01 X42.8061 Y17.7225 F100.00 
G01 X42.9795 Y17.7499 
G01 X43.1464 Y17.8042 
G01 X43.3028 Y17.8838 
G01 X43.4449 Y17.9870 
G01 X43.5690 Y18.1111 
G01 X43.6722 Y18.2532 
G01 X43.7518 Y18.4096 
G01 X43.8061 Y18.5765 
G01 X43.8335 Y18.7499 
G01 X43.8335 Y18.9254 
G01 X43.8061 Y19.0988 
G01 X43.7518 Y19.2657 
G01 X43.6722 Y19.4221 
G01 X43.5690 Y19.5642 
G01 X43.4449 Y19.6883 
G01 X43.3028 Y19.7915 
G01 X43.1464 Y19.8711 
G01 X42.9795 Y19.9254 
G01 X42.8061 Y19.9529 
G01 X40.7510 Y19.9529 
G01 X40.5776 Y19.9254 
G01 X40.4107 Y19.8711 
G01 X40.2543 Y19.7915 
G01 X40.1122 Y19.6883 
G01 X39.9881 Y19.5642 
G01 X39.8849 Y19.4221 
G01 X39.8053 Y19.2657 
G01 X39.7510 Y19.0988 
G01 X39.7235 Y18.9254 
G01 X39.7235 Y18.7499 
G01 X39.7510 Y18.5765 
G01 X39.8053 Y18.4096 
G01 X39.8849 Y18.2532 
G01 X39.9881 Y18.1111 
G01 X40.1122 Y17.9870 
G01 X40.2543 Y17.8838 
G01 X40.4107 Y17.8042 
G01 X40.5776 Y17.7499 
G01 X40.7510 Y17.7225 
G00 Z2.4000 
G00 X40.7510 Y20.2625 
G01 Z-0.1000 F50.00 
G01 X42.8061 Y20.2625 F100.00 
G01 X42.9795 Y20.2899 
G01 X43.1464 Y20.3442 
G01 X43.3028 Y20.4238 
G01 X43.4449 Y20.5270 
G01 X43.5690 Y20.6511 
G01 X43.6722 Y20.7932 
G01 X43.7518 Y20.9496 
G01 X43.8061 Y21.1165 
G01 X43.8335 Y21.2899 
G01 X43.8335 Y21.4654 
G01 X43.8061 Y21.6388 
G01 X43.7518 Y21.8057 
G01 X43.6722 Y21.9621 
G01 X43.5690 Y22.1042 
G01 X43.4449 Y22.2283 
G01 X43.3028 Y22.3315 
G01 X43.1464 Y22.4111 
G01 X42.9795 Y22.4654 
G01 X42.8061 Y22.4929 
G01 X40.7510 Y22.4929 
G01 X40.5776 Y22.4654 
G01 X40.4107 Y22.4111 
G01 X40.2543 Y22.3315 
G01 X40.1122 Y22.2283 
G01 X39.9881 Y22.1042 
G01 X39.8849 Y21.9621 
G01 X39.8053 Y21.8057 
G01 X39.7510 Y21.6388 
G01 X39.7235 Y21.4654 
G01 X39.7235 Y21.2899 
G01 X39.7510 Y21.1165 
G01 X39.8053 Y20.9496 
G01 X39.8849 Y20.7932 
G01 X39.9881 Y20.6511 
G01 X40.1122 Y20.5270 
G01 X40.2543 Y20.4238 
G01 X40.4107 Y20.3442 
G01 X40.5776 Y20.2899 
G01 X40.7510 Y20.2625 
G00 Z2.4000 
G00 X40.7510 Y27.8825 
G01 Z-0.1000 F50.00 
G01 X42.8061 Y27.8825 F100.00 
G01 X42.9795 Y27.9099 
G01 X43.1464 Y27.9642 
G01 X43.3028 Y28.0438 
G01 X43.4449 Y28.1470 
G01 X43.5690 Y28.2711 
G01 X43.6722 Y28.4132 
G01 X43.7518 Y28.5696 
G01 X43.8061 Y28.7365 
G01 X43.8335 Y28.9099 
G01 X43.8335 Y29.0854 
G01 X43.8061 Y29.2588 
G01 X43.7518 Y29.4257 
G01 X43.6722 Y29.5821 
G01 X43.5690 Y29.7242 
G01 X43.4449 Y29.8483 
G01 X43.3028 Y29.9515 
G01 X43.1464 Y30.0311 
G01 X42.9795 Y30.0854 
G01 X42.8061 Y30.1129 
G01 X40.7510 Y30.1129 
G01 X40.5776 Y30.0854 
G01 X40.4107 Y30.0311 
G01 X40.2543 Y29.9515 
G01 X40.1122 Y29.8483 
G01 X39.9881 Y29.7242 
G01 X39.8849 Y29.5821 
G01 X39.8053 Y29.4257 
G01 X39.7510 Y29.2588 
G01 X39.7235 Y29.0854 
G01 X39.7235 Y28.9099 
G01 X39.7510 Y28.7365 
G01 X39.8053 Y28.5696 
G01 X39.8849 Y28.4132 
G01 X39.9881 Y28.2711 
G01 X40.1122 Y28.1470 
G01 X40.2543 Y28.0438 
G01 X40.4107 Y27.9642 
G01 X40.5776 Y27.9099 
G01 X40.7510 Y27.8825 
G00 Z2.4000 
G00 X40.7510 Y30.4225 
G01 Z-0.1000 F50.00 
G01 X42.8061 Y30.4225 F100.00 
G01 X42.9795 Y30.4499 
G01 X43.1464 Y30.5042 
G01 X43.3028 Y30.5838 
G01 X43.4449 Y30.6870 
G01 X43.5690 Y30.8111 
G01 X43.6722 Y30.9532 
G01 X43.7518 Y31.1096 
G01 X43.8061 Y31.2765 
G01 X43.8335 Y31.4499 
G01 X43.8335 Y31.6254 
G01 X43.8061 Y31.7988 
G01 X43.7518 Y31.9657 
G01 X43.6722 Y32.1221 
G01 X43.5690 Y32.2642 
G01 X43.4449 Y32.3883 
G01 X43.3028 Y32.4915 
G01 X43.1464 Y32.5711 
G01 X42.9795 Y32.6254 
G01 X42.8061 Y32.6529 
G01 X40.7510 Y32.6529 
G01 X40.5776 Y32.6254 
G01 X40.4107 Y32.5711 
G01 X40.2543 Y32.4915 
G01 X40.1122 Y32.3883 
G01 X39.9881 Y32.2642 
G01 X39.8849 Y32.1221 
G01 X39.8053 Y31.9657 
G01 X39.7510 Y31.7988 
G01 X39.7235 Y31.6254 
G01 X39.7235 Y31.4499 
G01 X39.7510 Y31.2765 
G01 X39.8053 Y31.1096 
G01 X39.8849 Y30.9532 
G01 X39.9881 Y30.8111 
G01 X40.1122 Y30.6870 
G01 X40.2543 Y30.5838 
G01 X40.4107 Y30.5042 
G01 X40.5776 Y30.4499 
G01 X40.7510 Y30.4225 
G00 Z2.4000 
G00 X40.7510 Y35.5025 
G01 Z-0.1000 F50.00 
G01 X42.8061 Y35.5025 F100.00 
G01 X42.9795 Y35.5299 
G01 X43.1464 Y35.5842 
G01 X43.3028 Y35.6638 
G01 X43.4449 Y35.7670 
G01 X43.5690 Y35.8911 
G01 X43.6722 Y36.0332 
G01 X43.7518 Y36.1896 
G01 X43.8061 Y36.3565 
G01 X43.8335 Y36.5299 
G01 X43.8335 Y36.7054 
G01 X43.8061 Y36.8788 
G01 X43.7518 Y37.0457 
G01 X43.6722 Y37.2021 
G01 X43.5690 Y37.3442 
G01 X43.4449 Y37.4683 
G01 X43.3028 Y37.5715 
G01 X43.1464 Y37.6511 
G01 X42.9795 Y37.7054 
G01 X42.8061 Y37.7328 
G01 X40.7510 Y37.7328 
G01 X40.5776 Y37.7054 
G01 X40.4107 Y37.6511 
G01 X40.2543 Y37.5715 
G01 X40.1122 Y37.4683 
G01 X39.9881 Y37.3442 
G01 X39.8849 Y37.2021 
G01 X39.8053 Y37.0457 
G01 X39.7510 Y36.8788 
G01 X39.7235 Y36.7054 
G01 X39.7235 Y36.5299 
G01 X39.7510 Y36.3565 
G01 X39.8053 Y36.1896 
G01 X39.8849 Y36.0332 
G01 X39.9881 Y35.8911 
G01 X40.1122 Y35.7670 
G01 X40.2543 Y35.6638 
G01 X40.4107 Y35.5842 
G01 X40.5776 Y35.5299 
G01 X40.7510 Y35.5025 
G00 Z2.4000 
G00 X40.7510 Y38.0425 
G01 Z-0.1000 F50.00 
G01 X42.8061 Y38.0425 F100.00 
G01 X42.9795 Y38.0699 
G01 X43.1464 Y38.1242 
G01 X43.3028 Y38.2038 
G01 X43.4449 Y38.3070 
G01 X43.5690 Y38.4311 
G01 X43.6722 Y38.5732 
G01 X43.7518 Y38.7296 
G01 X43.8061 Y38.8965 
G01 X43.8335 Y39.0699 
G01 X43.8335 Y39.2454 
G01 X43.8061 Y39.4188 
G01 X43.7518 Y39.5857 
G01 X43.6722 Y39.7421 
G01 X43.5690 Y39.8842 
G01 X43.4449 Y40.0083 
G01 X43.3028 Y40.1115 
G01 X43.1464 Y40.1911 
G01 X42.9795 Y40.2454 
G01 X42.8061 Y40.2729 
G01 X40.7510 Y40.2729 
G01 X40.5776 Y40.2454 
G01 X40.4107 Y40.1911 
G01 X40.2543 Y40.1115 
G01 X40.1122 Y40.0083 
G01 X39.9881 Y39.8842 
G01 X39.8849 Y39.7421 
G01 X39.8706 Y39.7141 
G01 X39.0844 Y39.7141 
G01 X38.9429 Y39.6761 
G01 X38.8160 Y39.6029 
G01 X37.5548 Y38.3416 
G01 X37.4815 Y38.2148 
G01 X37.4436 Y38.0733 
G01 X37.4436 Y36.2305 
G01 X33.7695 Y32.5564 
G01 X27.2305 Y32.5564 
G01 X25.5564 Y34.2305 
G01 X25.5564 Y43.0733 
G01 X25.5185 Y43.2148 
G01 X25.4452 Y43.3416 
G01 X25.3416 Y43.4452 
G01 X24.5316 Y44.2552 
G01 X24.4048 Y44.3285 
G01 X24.2633 Y44.3664 
G01 X23.7301 Y44.3664 
G01 X23.7301 Y44.6583 
G01 X23.7034 Y44.7228 
G01 X23.6541 Y44.7721 
G01 X23.5896 Y44.7988 
G01 X19.7854 Y44.7988 
G01 X19.7209 Y44.7721 
G01 X19.6716 Y44.7228 
G01 X19.6449 Y44.6583 
G01 X19.6449 Y42.9617 
G01 X19.6716 Y42.8972 
G01 X19.7209 Y42.8479 
G01 X19.7854 Y42.8212 
G01 X23.5896 Y42.8212 
G01 X23.6541 Y42.8479 
G01 X23.7034 Y42.8972 
G01 X23.7301 Y42.9617 
G01 X23.7301 Y43.2536 
G01 X23.9595 Y43.2536 
G01 X24.4436 Y42.7695 
G01 X24.4436 Y33.9267 
G01 X24.4815 Y33.7852 
G01 X24.5548 Y33.6584 
G01 X24.6584 Y33.5548 
G01 X26.5548 Y31.6584 
G01 X26.6584 Y31.5548 
G01 X26.7852 Y31.4815 
G01 X26.9267 Y31.4436 
G01 X34.0733 Y31.4436 
G01 X34.2148 Y31.4815 
G01 X34.3416 Y31.5548 
G01 X38.4452 Y35.6584 
G01 X38.5185 Y35.7852 
G01 X38.5564 Y35.9267 
G01 X38.5564 Y37.7695 
G01 X39.3881 Y38.6013 
G01 X39.8706 Y38.6013 
G01 X39.8849 Y38.5732 
G01 X39.9881 Y38.4311 
G01 X40.1122 Y38.3070 
G01 X40.2543 Y38.2038 
G01 X40.4107 Y38.1242 
G01 X40.5776 Y38.0699 
G01 X40.7510 Y38.0425 
G00 Z2.4000 
G00 X40.7510 Y40.5825 
G01 Z-0.1000 F50.00 
G01 X42.8061 Y40.5825 F100.00 
G01 X42.9795 Y40.6099 
G01 X43.1464 Y40.6642 
G01 X43.3028 Y40.7438 
G01 X43.4449 Y40.8470 
G01 X43.5690 Y40.9711 
G01 X43.6722 Y41.1132 
G01 X43.7518 Y41.2696 
G01 X43.8061 Y41.4365 
G01 X43.8335 Y41.6099 
G01 X43.8335 Y41.7854 
G01 X43.8061 Y41.9588 
G01 X43.7518 Y42.1257 
G01 X43.6722 Y42.2821 
G01 X43.5690 Y42.4242 
G01 X43.4449 Y42.5483 
G01 X43.3028 Y42.6515 
G01 X43.1464 Y42.7311 
G01 X42.9795 Y42.7854 
G01 X42.8061 Y42.8129 
G01 X40.7510 Y42.8129 
G01 X40.5776 Y42.7854 
G01 X40.4107 Y42.7311 
G01 X40.2543 Y42.6515 
G01 X40.1122 Y42.5483 
G01 X39.9881 Y42.4242 
G01 X39.8849 Y42.2821 
G01 X39.8053 Y42.1257 
G01 X39.7510 Y41.9588 
G01 X39.7235 Y41.7854 
G01 X39.7235 Y41.6099 
G01 X39.7510 Y41.4365 
G01 X39.8053 Y41.2696 
G01 X39.8849 Y41.1132 
G01 X39.9881 Y40.9711 
G01 X40.1122 Y40.8470 
G01 X40.2543 Y40.7438 
G01 X40.4107 Y40.6642 
G01 X40.5776 Y40.6099 
G01 X40.7510 Y40.5825 
G00 Z2.4000 
G00 X47.2257 Y40.2729 
G01 Z-0.1000 F50.00 
G01 X45.1706 Y40.2729 F100.00 
G01 X44.9972 Y40.2454 
G01 X44.8303 Y40.1911 
G01 X44.6739 Y40.1115 
G01 X44.5318 Y40.0083 
G01 X44.4077 Y39.8842 
G01 X44.3045 Y39.7421 
G01 X44.2249 Y39.5857 
G01 X44.1706 Y39.4188 
G01 X44.1431 Y39.2454 
G01 X44.1431 Y39.0699 
G01 X44.1706 Y38.8965 
G01 X44.2249 Y38.7296 
G01 X44.3045 Y38.5732 
G01 X44.4077 Y38.4311 
G01 X44.5318 Y38.3070 
G01 X44.6739 Y38.2038 
G01 X44.8303 Y38.1242 
G01 X44.9972 Y38.0699 
G01 X45.1706 Y38.0425 
G01 X47.2257 Y38.0425 
G01 X47.3991 Y38.0699 
G01 X47.5660 Y38.1242 
G01 X47.7224 Y38.2038 
G01 X47.8645 Y38.3070 
G01 X47.9886 Y38.4311 
G01 X48.0918 Y38.5732 
G01 X48.1061 Y38.6013 
G01 X52.2309 Y38.6013 
G01 X52.3724 Y38.6392 
G01 X52.4993 Y38.7124 
G01 X52.6029 Y38.8160 
G01 X54.8515 Y41.0647 
G01 X54.9248 Y41.1915 
G01 X54.9627 Y41.3330 
G01 X54.9627 Y47.1515 
G01 X55.9446 Y48.1334 
G01 X56.0482 Y48.2370 
G01 X56.1215 Y48.3639 
G01 X56.1594 Y48.5054 
G01 X56.1594 Y58.1367 
G01 X56.1215 Y58.2783 
G01 X56.0482 Y58.4051 
G01 X55.9446 Y58.5087 
G01 X53.3277 Y61.1257 
G01 X53.3277 Y65.1823 
G01 X53.2898 Y65.3239 
G01 X53.2165 Y65.4507 
G01 X53.1129 Y65.5543 
G01 X45.6574 Y73.0099 
G01 X45.5305 Y73.0831 
G01 X45.3890 Y73.1210 
G01 X33.1334 Y73.1210 
G01 X32.9918 Y73.0831 
G01 X32.8650 Y73.0099 
G01 X32.7614 Y72.9063 
G01 X25.5392 Y65.6841 
G01 X25.4660 Y65.5573 
G01 X25.4281 Y65.4157 
G01 X25.4281 Y58.4756 
G01 X24.0554 Y57.1029 
G01 X23.9518 Y56.9993 
G01 X23.8785 Y56.8724 
G01 X23.8406 Y56.7309 
G01 X23.8406 Y53.5297 
G01 X23.8785 Y53.3882 
G01 X23.9518 Y53.2614 
G01 X24.0554 Y53.1578 
G01 X27.6584 Y49.5548 
G01 X27.7852 Y49.4815 
G01 X27.9267 Y49.4436 
G01 X29.7695 Y49.4436 
G01 X33.4436 Y45.7695 
G01 X33.4436 Y42.2305 
G01 X33.0395 Y41.8264 
G01 X32.3551 Y41.8264 
G01 X32.3551 Y42.1183 
G01 X32.3284 Y42.1828 
G01 X32.2791 Y42.2321 
G01 X32.2146 Y42.2588 
G01 X28.4104 Y42.2588 
G01 X28.3459 Y42.2321 
G01 X28.2966 Y42.1828 
G01 X28.2699 Y42.1183 
G01 X28.2699 Y40.4217 
G01 X28.2966 Y40.3572 
G01 X28.3459 Y40.3079 
G01 X28.4104 Y40.2812 
G01 X32.2146 Y40.2812 
G01 X32.2791 Y40.3079 
G01 X32.3284 Y40.3572 
G01 X32.3551 Y40.4217 
G01 X32.3551 Y40.7136 
G01 X33.3433 Y40.7136 
G01 X33.4848 Y40.7515 
G01 X33.6116 Y40.8248 
G01 X34.4452 Y41.6584 
G01 X34.5185 Y41.7852 
G01 X34.5564 Y41.9267 
G01 X34.5564 Y46.0733 
G01 X34.5185 Y46.2148 
G01 X34.4452 Y46.3416 
G01 X30.4452 Y50.3416 
G01 X30.3416 Y50.4452 
G01 X30.2148 Y50.5185 
G01 X30.0733 Y50.5564 
G01 X28.2305 Y50.5564 
G01 X24.9534 Y53.8335 
G01 X24.9534 Y56.4272 
G01 X26.4297 Y57.9034 
G01 X26.5029 Y58.0303 
G01 X26.5409 Y58.1718 
G01 X26.5409 Y65.1120 
G01 X33.4371 Y72.0082 
G01 X45.0853 Y72.0082 
G01 X52.2149 Y64.8786 
G01 X52.2149 Y60.8219 
G01 X52.2528 Y60.6804 
G01 X52.3261 Y60.5536 
G01 X52.4297 Y60.4500 
G01 X55.0466 Y57.8330 
G01 X55.0466 Y48.8091 
G01 X54.0647 Y47.8272 
G01 X53.9611 Y47.7236 
G01 X53.8878 Y47.5967 
G01 X53.8499 Y47.4552 
G01 X53.8499 Y41.6368 
G01 X51.9272 Y39.7141 
G01 X48.1061 Y39.7141 
G01 X48.0918 Y39.7421 
G01 X47.9886 Y39.8842 
G01 X47.8645 Y40.0083 
G01 X47.7224 Y40.1115 
G01 X47.5660 Y40.1911 
G01 X47.3991 Y40.2454 
G01 X47.2257 Y40.2729 
G00 Z2.4000 
G00 X47.2257 Y37.7328 
G01 Z-0.1000 F50.00 
G01 X45.1706 Y37.7328 F100.00 
G01 X44.9972 Y37.7054 
G01 X44.8303 Y37.6511 
G01 X44.6739 Y37.5715 
G01 X44.5318 Y37.4683 
G01 X44.4077 Y37.3442 
G01 X44.3045 Y37.2021 
G01 X44.2249 Y37.0457 
G01 X44.1706 Y36.8788 
G01 X44.1431 Y36.7054 
G01 X44.1431 Y36.5299 
G01 X44.1706 Y36.3565 
G01 X44.2249 Y36.1896 
G01 X44.3045 Y36.0332 
G01 X44.4077 Y35.8911 
G01 X44.5318 Y35.7670 
G01 X44.6739 Y35.6638 
G01 X44.8303 Y35.5842 
G01 X44.9972 Y35.5299 
G01 X45.1706 Y35.5025 
G01 X47.2257 Y35.5025 
G01 X47.3991 Y35.5299 
G01 X47.5660 Y35.5842 
G01 X47.7224 Y35.6638 
G01 X47.8645 Y35.7670 
G01 X47.9886 Y35.8911 
G01 X48.0918 Y36.0332 
G01 X48.1714 Y36.1896 
G01 X48.2257 Y36.3565 
G01 X48.2531 Y36.5299 
G01 X48.2531 Y36.7054 
G01 X48.2257 Y36.8788 
G01 X48.1714 Y37.0457 
G01 X48.0918 Y37.2021 
G01 X47.9886 Y37.3442 
G01 X47.8645 Y37.4683 
G01 X47.7224 Y37.5715 
G01 X47.5660 Y37.6511 
G01 X47.3991 Y37.7054 
G01 X47.2257 Y37.7328 
G00 Z2.4000 
G00 X47.2257 Y35.1928 
G01 Z-0.1000 F50.00 
G01 X45.1706 Y35.1928 F100.00 
G01 X44.9972 Y35.1654 
G01 X44.8303 Y35.1111 
G01 X44.6739 Y35.0315 
G01 X44.5318 Y34.9283 
G01 X44.4077 Y34.8042 
G01 X44.3045 Y34.6621 
G01 X44.2249 Y34.5057 
G01 X44.1706 Y34.3388 
G01 X44.1431 Y34.1654 
G01 X44.1431 Y33.9899 
G01 X44.1706 Y33.8165 
G01 X44.2249 Y33.6496 
G01 X44.3045 Y33.4932 
G01 X44.4077 Y33.3511 
G01 X44.5318 Y33.2270 
G01 X44.6739 Y33.1238 
G01 X44.8303 Y33.0442 
G01 X44.9972 Y32.9899 
G01 X45.1706 Y32.9625 
G01 X47.2257 Y32.9625 
G01 X47.3991 Y32.9899 
G01 X47.5660 Y33.0442 
G01 X47.7224 Y33.1238 
G01 X47.8645 Y33.2270 
G01 X47.9886 Y33.3511 
G01 X48.0918 Y33.4932 
G01 X48.1714 Y33.6496 
G01 X48.2257 Y33.8165 
G01 X48.2531 Y33.9899 
G01 X48.2531 Y34.1654 
G01 X48.2257 Y34.3388 
G01 X48.1714 Y34.5057 
G01 X48.0918 Y34.6621 
G01 X47.9886 Y34.8042 
G01 X47.8645 Y34.9283 
G01 X47.7224 Y35.0315 
G01 X47.5660 Y35.1111 
G01 X47.3991 Y35.1654 
G01 X47.2257 Y35.1928 
G00 Z2.4000 
G00 X47.2257 Y32.6529 
G01 Z-0.1000 F50.00 
G01 X45.1706 Y32.6529 F100.00 
G01 X44.9972 Y32.6254 
G01 X44.8303 Y32.5711 
G01 X44.6739 Y32.4915 
G01 X44.5318 Y32.3883 
G01 X44.4077 Y32.2642 
G01 X44.3045 Y32.1221 
G01 X44.2249 Y31.9657 
G01 X44.1706 Y31.7988 
G01 X44.1431 Y31.6254 
G01 X44.1431 Y31.4499 
G01 X44.1706 Y31.2765 
G01 X44.2249 Y31.1096 
G01 X44.3045 Y30.9532 
G01 X44.4077 Y30.8111 
G01 X44.5318 Y30.6870 
G01 X44.6739 Y30.5838 
G01 X44.8303 Y30.5042 
G01 X44.9972 Y30.4499 
G01 X45.1706 Y30.4225 
G01 X47.2257 Y30.4225 
G01 X47.3991 Y30.4499 
G01 X47.5660 Y30.5042 
G01 X47.7224 Y30.5838 
G01 X47.8645 Y30.6870 
G01 X47.9886 Y30.8111 
G01 X48.0918 Y30.9532 
G01 X48.1061 Y30.9813 
G01 X50.6109 Y30.9813 
G01 X50.7524 Y31.0192 
G01 X50.8793 Y31.0924 
G01 X56.4452 Y36.6584 
G01 X56.5185 Y36.7852 
G01 X56.5564 Y36.9267 
G01 X56.5564 Y44.2998 
G01 X56.5185 Y44.4414 
G01 X56.4452 Y44.5682 
G01 X56.3597 Y44.6538 
G01 X56.3597 Y46.5728 
G01 X57.3416 Y47.5548 
G01 X57.4452 Y47.6584 
G01 X57.5185 Y47.7852 
G01 X57.5564 Y47.9267 
G01 X57.5564 Y58.7154 
G01 X57.5185 Y58.8569 
G01 X57.4452 Y58.9838 
G01 X57.3416 Y59.0874 
G01 X54.7247 Y61.7043 
G01 X54.7247 Y65.7610 
G01 X54.6868 Y65.9025 
G01 X54.6135 Y66.0294 
G01 X54.5099 Y66.1330 
G01 X46.2360 Y74.4069 
G01 X46.1092 Y74.4801 
G01 X45.9677 Y74.5180 
G01 X32.5547 Y74.5180 
G01 X32.4132 Y74.4801 
G01 X32.2863 Y74.4069 
G01 X32.1827 Y74.3033 
G01 X24.2458 Y66.3664 
G01 X24.1422 Y66.2628 
G01 X24.0690 Y66.1359 
G01 X24.0311 Y65.9944 
G01 X24.0311 Y59.0542 
G01 X22.6584 Y57.6815 
G01 X22.5548 Y57.5779 
G01 X22.4815 Y57.4511 
G01 X22.4436 Y57.3095 
G01 X22.4436 Y47.9267 
G01 X22.4815 Y47.7852 
G01 X22.5548 Y47.6584 
G01 X26.8484 Y43.3648 
G01 X26.9752 Y43.2915 
G01 X27.1167 Y43.2536 
G01 X28.2699 Y43.2536 
G01 X28.2699 Y42.9617 
G01 X28.2966 Y42.8972 
G01 X28.3459 Y42.8479 
G01 X28.4104 Y42.8212 
G01 X32.2146 Y42.8212 
G01 X32.2791 Y42.8479 
G01 X32.3284 Y42.8972 
G01 X32.3551 Y42.9617 
G01 X32.3551 Y44.6583 
G01 X32.3284 Y44.7228 
G01 X32.2791 Y44.7721 
G01 X32.2146 Y44.7988 
G01 X28.4104 Y44.7988 
G01 X28.3459 Y44.7721 
G01 X28.2966 Y44.7228 
G01 X28.2699 Y44.6583 
G01 X28.2699 Y44.3664 
G01 X27.4205 Y44.3664 
G01 X23.5564 Y48.2305 
G01 X23.5564 Y57.0058 
G01 X24.9291 Y58.3785 
G01 X25.0327 Y58.4821 
G01 X25.1059 Y58.6090 
G01 X25.1439 Y58.7505 
G01 X25.1439 Y65.6907 
G01 X32.8584 Y73.4052 
G01 X45.6639 Y73.4052 
G01 X53.6119 Y65.4573 
G01 X53.6119 Y61.4006 
G01 X53.6498 Y61.2591 
G01 X53.7231 Y61.1322 
G01 X53.8267 Y61.0286 
G01 X56.4436 Y58.4117 
G01 X56.4436 Y48.2305 
G01 X55.4617 Y47.2485 
G01 X55.3581 Y47.1449 
G01 X55.2848 Y47.0181 
G01 X55.2469 Y46.8766 
G01 X55.2469 Y44.3500 
G01 X55.2848 Y44.2085 
G01 X55.3581 Y44.0817 
G01 X55.4436 Y43.9961 
G01 X55.4436 Y37.2305 
G01 X50.3072 Y32.0941 
G01 X48.1061 Y32.0941 
G01 X48.0918 Y32.1221 
G01 X47.9886 Y32.2642 
G01 X47.8645 Y32.3883 
G01 X47.7224 Y32.4915 
G01 X47.5660 Y32.5711 
G01 X47.3991 Y32.6254 
G01 X47.2257 Y32.6529 
G00 Z2.4000 
G00 X47.2257 Y30.1129 
G01 Z-0.1000 F50.00 
G01 X45.1706 Y30.1129 F100.00 
G01 X44.9972 Y30.0854 
G01 X44.8303 Y30.0311 
G01 X44.6739 Y29.9515 
G01 X44.5318 Y29.8483 
G01 X44.4077 Y29.7242 
G01 X44.3045 Y29.5821 
G01 X44.2249 Y29.4257 
G01 X44.1706 Y29.2588 
G01 X44.1431 Y29.0854 
G01 X44.1431 Y28.9099 
G01 X44.1706 Y28.7365 
G01 X44.2249 Y28.5696 
G01 X44.3045 Y28.4132 
G01 X44.4077 Y28.2711 
G01 X44.5318 Y28.1470 
G01 X44.6739 Y28.0438 
G01 X44.8303 Y27.9642 
G01 X44.9972 Y27.9099 
G01 X45.1706 Y27.8825 
G01 X47.2257 Y27.8825 
G01 X47.3991 Y27.9099 
G01 X47.5660 Y27.9642 
G01 X47.7224 Y28.0438 
G01 X47.8645 Y28.1470 
G01 X47.9886 Y28.2711 
G01 X48.0918 Y28.4132 
G01 X48.1714 Y28.5696 
G01 X48.2257 Y28.7365 
G01 X48.2531 Y28.9099 
G01 X48.2531 Y29.0854 
G01 X48.2257 Y29.2588 
G01 X48.1714 Y29.4257 
G01 X48.0918 Y29.5821 
G01 X47.9886 Y29.7242 
G01 X47.8645 Y29.8483 
G01 X47.7224 Y29.9515 
G01 X47.5660 Y30.0311 
G01 X47.3991 Y30.0854 
G01 X47.2257 Y30.1129 
G00 Z2.4000 
G00 X47.2257 Y27.5729 
G01 Z-0.1000 F50.00 
G01 X45.1706 Y27.5729 F100.00 
G01 X44.9972 Y27.5454 
G01 X44.8303 Y27.4911 
G01 X44.6739 Y27.4115 
G01 X44.5318 Y27.3083 
G01 X44.4077 Y27.1842 
G01 X44.3045 Y27.0421 
G01 X44.2249 Y26.8857 
G01 X44.1706 Y26.7188 
G01 X44.1431 Y26.5454 
G01 X44.1431 Y26.3699 
G01 X44.1706 Y26.1965 
G01 X44.2249 Y26.0296 
G01 X44.3045 Y25.8732 
G01 X44.4077 Y25.7311 
G01 X44.5318 Y25.6070 
G01 X44.6739 Y25.5038 
G01 X44.8303 Y25.4242 
G01 X44.9972 Y25.3699 
G01 X45.1706 Y25.3425 
G01 X47.2257 Y25.3425 
G01 X47.3991 Y25.3699 
G01 X47.5660 Y25.4242 
G01 X47.7224 Y25.5038 
G01 X47.8645 Y25.6070 
G01 X47.9886 Y25.7311 
G01 X48.0918 Y25.8732 
G01 X48.1714 Y26.0296 
G01 X48.2257 Y26.1965 
G01 X48.2531 Y26.3699 
G01 X48.2531 Y26.5454 
G01 X48.2257 Y26.7188 
G01 X48.1714 Y26.8857 
G01 X48.0918 Y27.0421 
G01 X47.9886 Y27.1842 
G01 X47.8645 Y27.3083 
G01 X47.7224 Y27.4115 
G01 X47.5660 Y27.4911 
G01 X47.3991 Y27.5454 
G01 X47.2257 Y27.5729 
G00 Z2.4000 
G00 X47.2257 Y25.0328 
G01 Z-0.1000 F50.00 
G01 X45.1706 Y25.0328 F100.00 
G01 X44.9972 Y25.0054 
G01 X44.8303 Y24.9511 
G01 X44.6739 Y24.8715 
G01 X44.5318 Y24.7683 
G01 X44.4077 Y24.6442 
G01 X44.3045 Y24.5021 
G01 X44.2249 Y24.3457 
G01 X44.1706 Y24.1788 
G01 X44.1431 Y24.0054 
G01 X44.1431 Y23.8299 
G01 X44.1706 Y23.6565 
G01 X44.2249 Y23.4896 
G01 X44.3045 Y23.3332 
G01 X44.4077 Y23.1911 
G01 X44.5318 Y23.0670 
G01 X44.6739 Y22.9638 
G01 X44.8303 Y22.8842 
G01 X44.9972 Y22.8299 
G01 X45.1706 Y22.8025 
G01 X47.2257 Y22.8025 
G01 X47.3991 Y22.8299 
G01 X47.5660 Y22.8842 
G01 X47.7224 Y22.9638 
G01 X47.8645 Y23.0670 
G01 X47.9886 Y23.1911 
G01 X48.0918 Y23.3332 
G01 X48.1714 Y23.4896 
G01 X48.2257 Y23.6565 
G01 X48.2531 Y23.8299 
G01 X48.2531 Y24.0054 
G01 X48.2257 Y24.1788 
G01 X48.1714 Y24.3457 
G01 X48.0918 Y24.5021 
G01 X47.9886 Y24.6442 
G01 X47.8645 Y24.7683 
G01 X47.7224 Y24.8715 
G01 X47.5660 Y24.9511 
G01 X47.3991 Y25.0054 
G01 X47.2257 Y25.0328 
G00 Z2.4000 
G00 X47.2257 Y22.4929 
G01 Z-0.1000 F50.00 
G01 X45.1706 Y22.4929 F100.00 
G01 X44.9972 Y22.4654 
G01 X44.8303 Y22.4111 
G01 X44.6739 Y22.3315 
G01 X44.5318 Y22.2283 
G01 X44.4077 Y22.1042 
G01 X44.3045 Y21.9621 
G01 X44.2249 Y21.8057 
G01 X44.1706 Y21.6388 
G01 X44.1431 Y21.4654 
G01 X44.1431 Y21.2899 
G01 X44.1706 Y21.1165 
G01 X44.2249 Y20.9496 
G01 X44.3045 Y20.7932 
G01 X44.4077 Y20.6511 
G01 X44.5318 Y20.5270 
G01 X44.6739 Y20.4238 
G01 X44.8303 Y20.3442 
G01 X44.9972 Y20.2899 
G01 X45.1706 Y20.2625 
G01 X47.2257 Y20.2625 
G01 X47.3991 Y20.2899 
G01 X47.5660 Y20.3442 
G01 X47.6024 Y20.3627 
G01 X47.6024 Y20.3479 
G01 X47.5977 Y20.3180 
G01 X47.6024 Y20.2983 
G01 X47.6024 Y20.2780 
G01 X47.6140 Y20.2501 
G01 X47.6210 Y20.2207 
G01 X47.6329 Y20.2043 
G01 X47.6407 Y20.1856 
G01 X47.6621 Y20.1642 
G01 X47.6799 Y20.1397 
G01 X47.6971 Y20.1291 
G01 X47.7115 Y20.1148 
G01 X47.7394 Y20.1032 
G01 X47.7652 Y20.0874 
G01 X47.7852 Y20.0842 
G01 X47.9306 Y20.0240 
G01 X48.3243 Y19.6303 
G01 X48.5373 Y19.1160 
G01 X48.5373 Y18.5593 
G01 X48.3243 Y18.0450 
G01 X47.9895 Y17.7102 
G01 X47.9512 Y17.6177 
G01 X47.9512 Y17.5176 
G01 X47.9895 Y17.4251 
G01 X48.0603 Y17.3544 
G01 X48.3243 Y17.0904 
G01 X48.3644 Y16.9936 
G01 X48.4027 Y16.9011 
G01 X48.4724 Y16.8315 
G01 X48.5659 Y16.7921 
G01 X52.6707 Y16.7921 
G01 X53.0234 Y16.6460 
G01 X53.2933 Y16.3760 
G01 X53.3641 Y16.3053 
G01 X57.7664 Y11.9029 
G01 X57.8589 Y11.8646 
G01 X72.3822 Y11.8646 
G01 X72.4747 Y11.9029 
G01 X72.5455 Y11.9737 
G01 X72.5643 Y11.9925 
G01 X72.8343 Y12.2625 
G01 X73.1870 Y12.4086 
G01 X78.4449 Y12.4086 
G01 X78.7975 Y12.2625 
G01 X79.0675 Y11.9925 
G01 X79.1383 Y11.9218 
G01 X79.1571 Y11.9029 
G01 X79.2496 Y11.8646 
G01 X79.8289 Y11.8646 
G01 X79.9213 Y11.9029 
G01 X79.9921 Y11.9737 
G01 X80.1019 Y12.0835 
G01 X80.4546 Y12.2296 
G01 X88.7270 Y12.2296 
G01 X88.8194 Y12.2679 
G01 X88.8902 Y12.3387 
G01 X89.6318 Y13.0803 
G01 X89.9017 Y13.3502 
G01 X90.2544 Y13.4963 
G01 X95.4606 Y13.4963 
G01 X95.5530 Y13.5346 
G01 X95.6238 Y13.6054 
G01 X98.6868 Y16.6683 
G01 X98.7251 Y16.7608 
G01 X98.7251 Y30.6838 
G01 X98.6868 Y30.7762 
G01 X98.6160 Y30.8470 
G01 X89.2492 Y40.2138 
G01 X89.1567 Y40.2521 
G01 X73.6014 Y40.2521 
G01 X73.5641 Y40.2367 
G01 X73.5089 Y40.2138 
G01 X73.4381 Y40.1430 
G01 X73.4161 Y40.0899 
G01 X73.3998 Y40.0506 
G01 X73.3998 Y39.9505 
G01 X73.4152 Y39.9132 
G01 X73.4381 Y39.8580 
G01 X73.5089 Y39.7872 
G01 X73.5894 Y39.7539 
G01 X73.6014 Y39.7489 
G01 X73.6552 Y39.7266 
G01 X73.7845 Y39.5973 
G01 X73.8545 Y39.4284 
G01 X73.8545 Y37.7375 
G01 X73.7845 Y37.5686 
G01 X73.6552 Y37.4393 
G01 X73.4863 Y37.3694 
G01 X71.7955 Y37.3694 
G01 X71.6266 Y37.4393 
G01 X71.4973 Y37.5686 
G01 X71.4571 Y37.6655 
G01 X71.4188 Y37.7580 
G01 X71.3491 Y37.8277 
G01 X71.2556 Y37.8671 
G01 X71.1555 Y37.8671 
G01 X71.0630 Y37.8288 
G01 X70.9933 Y37.7591 
G01 X70.7884 Y37.5541 
G01 X70.3423 Y37.3694 
G01 X69.8595 Y37.3694 
G01 X69.4134 Y37.5541 
G01 X69.0721 Y37.8955 
G01 X69.0622 Y37.9193 
G01 X69.0442 Y37.9628 
G01 X68.9734 Y38.0336 
G01 X68.9587 Y38.0397 
G01 X68.8810 Y38.0719 
G01 X68.7809 Y38.0719 
G01 X68.7275 Y38.0497 
G01 X68.6884 Y38.0336 
G01 X68.6176 Y37.9628 
G01 X68.6106 Y37.9459 
G01 X68.5897 Y37.8955 
G01 X68.2484 Y37.5541 
G01 X67.8023 Y37.3694 
G01 X67.3195 Y37.3694 
G01 X66.8735 Y37.5541 
G01 X66.5321 Y37.8955 
G01 X66.5222 Y37.9193 
G01 X66.5042 Y37.9628 
G01 X66.4334 Y38.0336 
G01 X66.4187 Y38.0397 
G01 X66.3410 Y38.0719 
G01 X66.2409 Y38.0719 
G01 X66.1875 Y38.0497 
G01 X66.1484 Y38.0336 
G01 X66.0776 Y37.9628 
G01 X66.0706 Y37.9459 
G01 X66.0497 Y37.8955 
G01 X65.7084 Y37.5541 
G01 X65.2623 Y37.3694 
G01 X64.7795 Y37.3694 
G01 X64.3335 Y37.5541 
G01 X63.9921 Y37.8955 
G01 X63.9822 Y37.9193 
G01 X63.9642 Y37.9628 
G01 X63.8934 Y38.0336 
G01 X63.8787 Y38.0397 
G01 X63.8010 Y38.0719 
G01 X63.7009 Y38.0719 
G01 X63.6475 Y38.0497 
G01 X63.6084 Y38.0336 
G01 X63.5376 Y37.9628 
G01 X63.5306 Y37.9459 
G01 X63.5097 Y37.8955 
G01 X63.1684 Y37.5541 
G01 X62.7223 Y37.3694 
G01 X62.2395 Y37.3694 
G01 X61.7935 Y37.5541 
G01 X61.4521 Y37.8955 
G01 X61.2673 Y38.3416 
G01 X61.2673 Y38.4185 
G01 X61.2720 Y38.4484 
G01 X61.2673 Y38.4681 
G01 X61.2673 Y38.4884 
G01 X61.2557 Y38.5163 
G01 X61.2487 Y38.5457 
G01 X61.2368 Y38.5621 
G01 X61.2290 Y38.5808 
G01 X61.2290 Y38.5851 
G01 X61.2368 Y38.6038 
G01 X61.2487 Y38.6202 
G01 X61.2557 Y38.6496 
G01 X61.2673 Y38.6776 
G01 X61.2673 Y38.6978 
G01 X61.2720 Y38.7175 
G01 X61.2673 Y38.7474 
G01 X61.2673 Y38.8244 
G01 X61.4521 Y39.2704 
G01 X61.4830 Y39.3013 
G01 X61.5213 Y39.3938 
G01 X61.5213 Y43.8333 
G01 X61.4830 Y43.9258 
G01 X61.4122 Y43.9966 
G01 X61.3198 Y44.0349 
G01 X61.2197 Y44.0349 
G01 X61.1272 Y43.9966 
G01 X60.6496 Y43.7988 
G01 X60.0690 Y43.7988 
G01 X59.5325 Y44.0210 
G01 X59.1219 Y44.4316 
G01 X59.0982 Y44.4887 
G01 X59.0951 Y44.5088 
G01 X59.0793 Y44.5345 
G01 X59.0677 Y44.5625 
G01 X59.0534 Y44.5768 
G01 X59.0428 Y44.5941 
G01 X59.0183 Y44.6119 
G01 X58.9969 Y44.6333 
G01 X58.9782 Y44.6410 
G01 X58.9618 Y44.6529 
G01 X58.9324 Y44.6600 
G01 X58.9044 Y44.6716 
G01 X58.8842 Y44.6716 
G01 X58.8645 Y44.6763 
G01 X58.8399 Y44.6724 
G01 X58.9086 Y44.8072 
G01 X58.9658 Y44.9831 
G01 X58.9947 Y45.1658 
G01 X58.9947 Y45.3509 
G01 X58.9658 Y45.5336 
G01 X58.9086 Y45.7096 
G01 X58.8399 Y45.8443 
G01 X58.8645 Y45.8404 
G01 X58.8842 Y45.8451 
G01 X58.9044 Y45.8451 
G01 X58.9324 Y45.8567 
G01 X58.9618 Y45.8638 
G01 X58.9782 Y45.8757 
G01 X58.9969 Y45.8835 
G01 X59.0183 Y45.9048 
G01 X59.0428 Y45.9226 
G01 X59.0534 Y45.9399 
G01 X59.0677 Y45.9542 
G01 X59.0793 Y45.9822 
G01 X59.0951 Y46.0079 
G01 X59.0982 Y46.0280 
G01 X59.1219 Y46.0851 
G01 X59.5325 Y46.4957 
G01 X60.0690 Y46.7180 
G01 X60.6496 Y46.7180 
G01 X61.1861 Y46.4957 
G01 X61.5967 Y46.0851 
G01 X61.8189 Y45.5487 
G01 X61.8189 Y45.3343 
G01 X61.8189 Y45.2848 
G01 X61.8189 Y45.2342 
G01 X61.8392 Y45.1852 
G01 X61.8572 Y45.1418 
G01 X61.8923 Y45.1066 
G01 X61.9280 Y45.0710 
G01 X61.9631 Y45.0564 
G01 X62.0205 Y45.0327 
G01 X62.0700 Y45.0327 
G01 X62.1206 Y45.0327 
G01 X62.1695 Y45.0530 
G01 X62.2130 Y45.0710 
G01 X62.2501 Y45.1081 
G01 X62.2838 Y45.1418 
G01 X62.3065 Y45.1645 
G01 X62.3214 Y45.2005 
G01 X62.3448 Y45.2569 
G01 X62.3448 Y45.3075 
G01 X62.3448 Y45.9962 
G01 X62.4909 Y46.3488 
G01 X62.8316 Y46.6896 
G01 X65.7608 Y49.6188 
G01 X66.1135 Y49.7649 
G01 X69.4953 Y49.7649 
G01 X69.8480 Y49.6188 
G01 X70.1887 Y49.2781 
G01 X71.8408 Y47.6259 
G01 X71.9869 Y47.2732 
G01 X71.9869 Y46.8906 
G01 X72.0252 Y46.7981 
G01 X72.0960 Y46.7274 
G01 X72.1885 Y46.6891 
G01 X72.2876 Y46.6480 
G01 X72.4169 Y46.5187 
G01 X72.4547 Y46.4275 
G01 X72.4907 Y46.3406 
G01 X72.4930 Y46.3350 
G01 X72.5638 Y46.2643 
G01 X72.6563 Y46.2260 
G01 X91.7692 Y46.2260 
G01 X92.1248 Y46.0786 
G01 X103.8501 Y34.3534 
G01 X103.9974 Y33.9977 
G01 X103.9974 Y33.6128 
G01 X103.9894 Y33.5935 
G01 X103.9894 Y33.5440 
G01 X103.9894 Y33.4934 
G01 X103.9894 Y14.8389 
G01 X103.8433 Y14.4862 
G01 X103.5734 Y14.2163 
G01 X103.5026 Y14.1455 
G01 X97.8103 Y8.4532 
G01 X97.4576 Y8.3071 
G01 X94.7566 Y8.3071 
G01 X94.6641 Y8.2688 
G01 X94.5933 Y8.1980 
G01 X94.5550 Y8.1055 
G01 X94.5550 Y8.0054 
G01 X94.5933 Y7.9130 
G01 X94.6641 Y7.8422 
G01 X94.8756 Y7.6307 
G01 X95.2129 Y6.8164 
G01 X95.2129 Y5.9350 
G01 X94.8756 Y5.1206 
G01 X94.2523 Y4.4974 
G01 X93.4380 Y4.1601 
G01 X92.5566 Y4.1601 
G01 X91.7422 Y4.4974 
G01 X91.1190 Y5.1206 
G01 X90.7817 Y5.9350 
G01 X90.7817 Y6.8388 
G01 X90.7434 Y6.9313 
G01 X90.6726 Y7.0021 
G01 X90.5801 Y7.0404 
G01 X82.4516 Y7.0404 
G01 X82.3592 Y7.0021 
G01 X82.2884 Y6.9313 
G01 X82.1786 Y6.8215 
G01 X81.8259 Y6.6754 
G01 X77.7821 Y6.6754 
G01 X77.6896 Y6.6371 
G01 X77.6189 Y6.5663 
G01 X77.5806 Y6.4738 
G01 X77.5806 Y6.3738 
G01 X77.6189 Y6.2813 
G01 X77.7565 Y5.9490 
G01 X77.7565 Y5.1769 
G01 X77.4611 Y4.4637 
G01 X76.9466 Y3.9493 
G01 X76.8860 Y3.8886 
G01 X76.8759 Y3.8785 
G01 X76.8376 Y3.7860 
G01 X76.8376 Y3.6859 
G01 X76.8748 Y3.5961 
G01 X76.8759 Y3.5935 
G01 X76.9466 Y3.5227 
G01 X77.0391 Y3.4844 
G01 X111.0731 Y3.4844 
G01 X111.1656 Y3.5227 
G01 X111.2364 Y3.5935 
G01 X112.2375 Y4.5946 
G01 X112.2758 Y4.6871 
G01 X112.2758 Y5.7585 
G01 X112.2375 Y5.8510 
G01 X112.1668 Y5.9218 
G01 X112.0743 Y5.9601 
G01 X111.8940 Y5.9601 
G01 X111.7251 Y6.0300 
G01 X111.5958 Y6.1593 
G01 X111.5258 Y6.3283 
G01 X111.5258 Y9.0111 
G01 X111.5958 Y9.1800 
G01 X111.7251 Y9.3093 
G01 X111.8940 Y9.3793 
G01 X114.5769 Y9.3793 
G01 X114.7458 Y9.3093 
G01 X114.8751 Y9.1800 
G01 X114.9450 Y9.0111 
G01 X114.9450 Y6.3283 
G01 X114.8751 Y6.1593 
G01 X114.7458 Y6.0300 
G01 X114.5769 Y5.9601 
G01 X114.3966 Y5.9601 
G01 X114.3041 Y5.9218 
G01 X114.2333 Y5.8510 
G01 X114.1950 Y5.7585 
G01 X114.1950 Y4.0446 
G01 X114.0489 Y3.6919 
G01 X112.0683 Y1.7113 
G01 X111.7156 Y1.5652 
G01 X74.2843 Y1.5652 
G01 X73.9317 Y1.7113 
G01 X73.6316 Y2.0113 
G01 X71.7794 Y3.8635 
G01 X71.7387 Y3.9042 
G01 X71.7086 Y3.9343 
G01 X71.6162 Y3.9726 
G01 X71.5161 Y3.9726 
G01 X71.4236 Y3.9343 
G01 X71.3528 Y3.8635 
G01 X71.3145 Y3.7711 
G01 X71.3145 Y2.1775 
G01 X71.2445 Y2.0086 
G01 X71.1152 Y1.8793 
G01 X70.9463 Y1.8094 
G01 X69.2555 Y1.8094 
G01 X69.0866 Y1.8793 
G01 X68.9573 Y2.0086 
G01 X68.9171 Y2.1055 
G01 X68.8788 Y2.1980 
G01 X68.8091 Y2.2677 
G01 X68.7156 Y2.3071 
G01 X68.6155 Y2.3071 
G01 X68.5230 Y2.2688 
G01 X68.4533 Y2.1991 
G01 X68.2484 Y1.9941 
G01 X67.8023 Y1.8094 
G01 X67.3195 Y1.8094 
G01 X66.8735 Y1.9941 
G01 X66.5321 Y2.3355 
G01 X66.5222 Y2.3593 
G01 X66.5042 Y2.4028 
G01 X66.4334 Y2.4735 
G01 X66.4187 Y2.4797 
G01 X66.3410 Y2.5119 
G01 X66.2409 Y2.5119 
G01 X66.1875 Y2.4897 
G01 X66.1484 Y2.4736 
G01 X66.0776 Y2.4028 
G01 X66.0706 Y2.3859 
G01 X66.0497 Y2.3355 
G01 X65.7084 Y1.9941 
G01 X65.2623 Y1.8094 
G01 X64.7795 Y1.8094 
G01 X64.3334 Y1.9941 
G01 X63.9921 Y2.3355 
G01 X63.9764 Y2.3733 
G01 X63.9642 Y2.4028 
G01 X63.9174 Y2.4496 
G01 X63.8934 Y2.4736 
G01 X63.8447 Y2.4938 
G01 X63.8010 Y2.5119 
G01 X63.7514 Y2.5119 
G01 X63.7009 Y2.5119 
G01 X63.6412 Y2.4871 
G01 X63.6084 Y2.4736 
G01 X63.5616 Y2.4267 
G01 X63.5376 Y2.4028 
G01 X63.5187 Y2.3571 
G01 X63.5097 Y2.3355 
G01 X63.1684 Y1.9941 
G01 X62.7223 Y1.8094 
G01 X62.2395 Y1.8094 
G01 X61.7935 Y1.9941 
G01 X61.4521 Y2.3355 
G01 X61.2673 Y2.7816 
G01 X61.2673 Y3.2644 
G01 X61.4521 Y3.7104 
G01 X61.7935 Y4.0518 
G01 X62.2395 Y4.2366 
G01 X62.7223 Y4.2366 
G01 X63.1684 Y4.0518 
G01 X63.5097 Y3.7104 
G01 X63.5181 Y3.6902 
G01 X63.5376 Y3.6431 
G01 X63.5608 Y3.6199 
G01 X63.6084 Y3.5724 
G01 X63.6390 Y3.5597 
G01 X63.7008 Y3.5341 
G01 X63.7503 Y3.5341 
G01 X63.8009 Y3.5341 
G01 X63.8431 Y3.5515 
G01 X63.8934 Y3.5724 
G01 X63.9166 Y3.5956 
G01 X63.9642 Y3.6431 
G01 X63.9756 Y3.6707 
G01 X63.9921 Y3.7104 
G01 X64.3335 Y4.0518 
G01 X64.7795 Y4.2366 
G01 X65.2623 Y4.2366 
G01 X65.7084 Y4.0518 
G01 X66.0497 Y3.7104 
G01 X66.0696 Y3.6626 
G01 X66.0776 Y3.6431 
G01 X66.1473 Y3.5734 
G01 X66.1859 Y3.5568 
G01 X66.2409 Y3.5341 
G01 X66.3410 Y3.5341 
G01 X66.4165 Y3.5653 
G01 X66.4334 Y3.5724 
G01 X66.5031 Y3.6421 
G01 X66.5215 Y3.6849 
G01 X66.5321 Y3.7104 
G01 X66.8735 Y4.0518 
G01 X67.3195 Y4.2366 
G01 X67.8023 Y4.2366 
G01 X68.2484 Y4.0518 
G01 X68.5230 Y3.7771 
G01 X68.6155 Y3.7388 
G01 X68.7156 Y3.7388 
G01 X68.8081 Y3.7771 
G01 X68.8788 Y3.8479 
G01 X68.9171 Y3.9404 
G01 X68.9573 Y4.0373 
G01 X69.0866 Y4.1666 
G01 X69.2555 Y4.2366 
G01 X70.8490 Y4.2366 
G01 X70.9415 Y4.2749 
G01 X71.0122 Y4.3456 
G01 X71.0505 Y4.4381 
G01 X71.0505 Y4.5382 
G01 X71.0122 Y4.6307 
G01 X70.9415 Y4.7015 
G01 X70.7116 Y4.9313 
G01 X70.6408 Y5.0021 
G01 X70.5483 Y5.0404 
G01 X58.4516 Y5.0404 
G01 X58.3592 Y5.0021 
G01 X58.3013 Y4.9442 
G01 X54.6713 Y1.3143 
G01 X54.6585 Y1.3014 
G01 X54.6006 Y1.2435 
G01 X54.5623 Y1.1510 
G01 X54.5623 Y1.0509 
G01 X54.6006 Y0.9584 
G01 X54.6713 Y0.8877 
G01 X54.7638 Y0.8494 
G01 X139.2883 Y0.8494 
G01 X139.3384 Y0.8494 
G01 X139.3883 Y0.8494 
G01 X139.4343 Y0.8684 
G01 X139.4807 Y0.8877 
G01 X139.5163 Y0.9232 
G01 X139.5515 Y0.9584 
G01 X139.5709 Y1.0052 
G01 X139.5898 Y1.0509 
G01 X139.5898 Y1.1021 
G01 X139.5898 Y1.1510 
G01 X139.5179 Y79.3897 
G01 X139.5179 Y79.4404 
G01 X139.4988 Y79.4866 
G01 X139.4796 Y79.5329 
G01 X139.4440 Y79.5685 
G01 X139.4088 Y79.6037 
G01 X139.3620 Y79.6231 
G01 X139.3163 Y79.6420 
G01 X139.2660 Y79.6420 
G01 X62.2505 Y79.6420 
G01 X62.1581 Y79.6037 
G01 X62.0873 Y79.5329 
G01 X62.0490 Y79.4404 
G01 X62.0490 Y79.3404 
G01 X62.0873 Y79.2479 
G01 X71.8457 Y69.4894 
G01 X71.9918 Y69.1368 
G01 X71.9918 Y65.4306 
G01 X72.0301 Y65.3381 
G01 X72.1009 Y65.2673 
G01 X72.1934 Y65.2290 
G01 X72.2876 Y65.1900 
G01 X72.4169 Y65.0607 
G01 X72.4527 Y64.9744 
G01 X72.4910 Y64.8820 
G01 X72.5607 Y64.8123 
G01 X72.6542 Y64.7729 
G01 X81.1925 Y64.7729 
G01 X81.5481 Y64.6256 
G01 X81.8203 Y64.3534 
G01 X81.8283 Y64.3341 
G01 X81.8633 Y64.2990 
G01 X81.8990 Y64.2633 
G01 X85.1645 Y60.9979 
G01 X85.2569 Y60.9596 
G01 X95.5483 Y60.9596 
G01 X95.6408 Y60.9979 
G01 X95.7116 Y61.0687 
G01 X104.1865 Y69.5436 
G01 X104.4564 Y69.8135 
G01 X104.8091 Y69.9596 
G01 X115.1909 Y69.9596 
G01 X115.5436 Y69.8135 
G01 X118.5436 Y66.8135 
G01 X118.8135 Y66.5436 
G01 X118.9596 Y66.1909 
G01 X118.9596 Y56.4516 
G01 X118.9979 Y56.3592 
G01 X119.0687 Y56.2884 
G01 X119.1479 Y56.2092 
G01 X119.2187 Y56.1384 
G01 X119.3111 Y56.1001 
G01 X123.7125 Y56.1001 
G01 X124.0652 Y55.9540 
G01 X125.2886 Y54.7306 
G01 X125.3811 Y54.6923 
G01 X126.9225 Y54.6923 
G01 X127.4929 Y54.4561 
G01 X127.9294 Y54.0195 
G01 X128.1656 Y53.4492 
G01 X128.1656 Y52.8318 
G01 X127.9294 Y52.2615 
G01 X127.4929 Y51.8249 
G01 X126.9225 Y51.5887 
G01 X124.1208 Y51.5887 
G01 X123.5504 Y51.8249 
G01 X123.1139 Y52.2615 
G01 X122.8776 Y52.8318 
G01 X122.8776 Y53.4492 
G01 X123.0175 Y53.7868 
G01 X123.0496 Y53.8644 
G01 X123.0558 Y53.8793 
G01 X123.0558 Y53.9794 
G01 X123.0186 Y54.0692 
G01 X123.0175 Y54.0718 
G01 X122.9467 Y54.1426 
G01 X122.8542 Y54.1809 
G01 X118.6686 Y54.1809 
G01 X118.3159 Y54.3270 
G01 X118.1425 Y54.5004 
G01 X118.0500 Y54.5387 
G01 X117.9499 Y54.5387 
G01 X117.8575 Y54.5004 
G01 X117.7867 Y54.4296 
G01 X116.8135 Y53.4564 
G01 X113.9979 Y50.6408 
G01 X113.9596 Y50.5483 
G01 X113.9596 Y49.2048 
G01 X113.9979 Y49.1124 
G01 X114.0687 Y49.0416 
G01 X114.1611 Y49.0033 
G01 X114.5769 Y49.0033 
G01 X114.7458 Y48.9333 
G01 X114.8751 Y48.8040 
G01 X114.9450 Y48.6351 
G01 X114.9450 Y45.9523 
G01 X114.8751 Y45.7833 
G01 X114.7458 Y45.6540 
G01 X114.5769 Y45.5841 
G01 X111.8940 Y45.5841 
G01 X111.7251 Y45.6540 
G01 X111.5958 Y45.7833 
G01 X111.5258 Y45.9523 
G01 X111.5258 Y48.6351 
G01 X111.5958 Y48.8040 
G01 X111.7251 Y48.9333 
G01 X111.8388 Y48.9804 
G01 X111.9313 Y49.0187 
G01 X112.0010 Y49.0884 
G01 X112.0396 Y49.1801 
G01 X112.0404 Y50.1260 
G01 X112.0021 Y50.2184 
G01 X111.9313 Y50.2892 
G01 X111.8388 Y50.3275 
G01 X111.7388 Y50.3275 
G01 X111.6463 Y50.2892 
G01 X111.5755 Y50.2184 
G01 X110.9979 Y49.6408 
G01 X110.9596 Y49.5484 
G01 X110.9596 Y40.4516 
G01 X110.9979 Y40.3592 
G01 X111.0687 Y40.2884 
G01 X113.3592 Y37.9979 
G01 X113.4516 Y37.9596 
G01 X119.6812 Y37.9596 
G01 X119.7350 Y37.9819 
G01 X119.7698 Y37.9963 
G01 X121.7131 Y37.9963 
G01 X121.7447 Y37.9832 
G01 X121.8017 Y37.9596 
G01 X126.5483 Y37.9596 
G01 X126.6408 Y37.9979 
G01 X126.7116 Y38.0687 
G01 X129.4388 Y40.7958 
G01 X129.5095 Y40.8666 
G01 X129.5478 Y40.9591 
G01 X129.5478 Y45.3825 
G01 X129.5095 Y45.4750 
G01 X129.4388 Y45.5458 
G01 X129.3463 Y45.5841 
G01 X129.1660 Y45.5841 
G01 X128.9971 Y45.6540 
G01 X128.8678 Y45.7833 
G01 X128.7978 Y45.9523 
G01 X128.7978 Y48.6351 
G01 X128.8678 Y48.8040 
G01 X128.9971 Y48.9333 
G01 X129.1660 Y49.0033 
G01 X131.8489 Y49.0033 
G01 X132.0178 Y48.9333 
G01 X132.1471 Y48.8040 
G01 X132.2170 Y48.6351 
G01 X132.2170 Y48.1611 
G01 X132.2553 Y48.0687 
G01 X132.3261 Y47.9979 
G01 X132.4186 Y47.9596 
G01 X133.5483 Y47.9596 
G01 X133.6408 Y47.9979 
G01 X133.7116 Y48.0687 
G01 X135.0021 Y49.3592 
G01 X135.0404 Y49.4516 
G01 X135.0404 Y57.5483 
G01 X135.0021 Y57.6408 
G01 X134.9313 Y57.7116 
G01 X133.6408 Y59.0021 
G01 X133.5483 Y59.0404 
G01 X131.3274 Y59.0404 
G01 X131.2779 Y59.0404 
G01 X131.2274 Y59.0404 
G01 X131.1349 Y59.0021 
G01 X131.0641 Y58.9313 
G01 X131.0355 Y58.8624 
G01 X131.0258 Y58.8388 
G01 X131.0258 Y58.7893 
G01 X131.0258 Y58.7388 
G01 X131.0641 Y58.6463 
G01 X131.1349 Y58.5755 
G01 X131.1984 Y58.5492 
G01 X131.6372 Y58.1117 
G01 X131.8734 Y57.5414 
G01 X131.8734 Y54.7396 
G01 X131.6372 Y54.1693 
G01 X131.2007 Y53.7327 
G01 X130.6303 Y53.4965 
G01 X130.0130 Y53.4965 
G01 X129.4426 Y53.7327 
G01 X129.0061 Y54.1693 
G01 X128.7698 Y54.7396 
G01 X128.7698 Y57.5414 
G01 X129.0061 Y58.1117 
G01 X129.4426 Y58.5483 
G01 X129.5084 Y58.5755 
G01 X129.5781 Y58.6452 
G01 X129.6175 Y58.7388 
G01 X129.6175 Y58.7882 
G01 X129.6175 Y58.8388 
G01 X129.6087 Y58.8602 
G01 X129.5792 Y58.9313 
G01 X129.5095 Y59.0010 
G01 X129.4159 Y59.0404 
G01 X129.3665 Y59.0404 
G01 X129.3159 Y59.0404 
G01 X128.3672 Y59.0404 
G01 X128.2747 Y59.0021 
G01 X128.2040 Y58.9313 
G01 X128.1656 Y58.8388 
G01 X128.1656 Y58.8318 
G01 X127.9294 Y58.2615 
G01 X127.4929 Y57.8249 
G01 X126.9225 Y57.5887 
G01 X124.1208 Y57.5887 
G01 X123.5504 Y57.8249 
G01 X123.1139 Y58.2615 
G01 X122.8776 Y58.8318 
G01 X122.8776 Y59.4492 
G01 X123.1139 Y60.0195 
G01 X123.5504 Y60.4561 
G01 X124.1208 Y60.6923 
G01 X125.6622 Y60.6923 
G01 X125.7547 Y60.7306 
G01 X125.8254 Y60.8014 
G01 X125.8376 Y60.8135 
G01 X126.1903 Y60.9596 
G01 X134.1909 Y60.9596 
G01 X134.5436 Y60.8135 
G01 X134.8843 Y60.4728 
G01 X136.8135 Y58.5436 
G01 X136.9596 Y58.1909 
G01 X136.9596 Y48.8091 
G01 X136.8135 Y48.4564 
G01 X136.5169 Y48.1598 
G01 X134.8843 Y46.5272 
G01 X134.8402 Y46.4831 
G01 X134.8135 Y46.4564 
G01 X134.5436 Y46.1865 
G01 X134.1909 Y46.0404 
G01 X132.3716 Y46.0404 
G01 X132.2791 Y46.0021 
G01 X132.2084 Y45.9313 
G01 X132.1701 Y45.8388 
G01 X132.1471 Y45.7833 
G01 X132.0178 Y45.6540 
G01 X131.8489 Y45.5841 
G01 X131.6686 Y45.5841 
G01 X131.5761 Y45.5458 
G01 X131.5053 Y45.4750 
G01 X131.4670 Y45.3825 
G01 X131.4670 Y40.3166 
G01 X131.3209 Y39.9639 
G01 X127.5436 Y36.1865 
G01 X127.1909 Y36.0404 
G01 X121.3680 Y36.0404 
G01 X121.3365 Y36.0535 
G01 X121.2795 Y36.0771 
G01 X120.2034 Y36.0771 
G01 X120.1496 Y36.0548 
G01 X120.1148 Y36.0404 
G01 X112.8091 Y36.0404 
G01 X112.4564 Y36.1865 
G01 X109.1865 Y39.4564 
G01 X109.0404 Y39.8091 
G01 X109.0404 Y50.1909 
G01 X109.1865 Y50.5436 
G01 X109.4564 Y50.8135 
G01 X109.5272 Y50.8843 
G01 X110.3671 Y51.7242 
G01 X110.3682 Y51.7268 
G01 X110.4054 Y51.8166 
G01 X110.4054 Y51.8681 
G01 X110.5515 Y52.2208 
G01 X115.0021 Y56.6714 
G01 X115.0404 Y56.7639 
G01 X115.0404 Y63.5484 
G01 X115.0021 Y63.6408 
G01 X114.9313 Y63.7116 
G01 X112.6408 Y66.0021 
G01 X112.5483 Y66.0404 
G01 X110.8740 Y66.0404 
G01 X110.7816 Y66.0021 
G01 X110.7108 Y65.9313 
G01 X110.6725 Y65.8388 
G01 X110.6725 Y65.7388 
G01 X110.7108 Y65.6463 
G01 X110.7816 Y65.5755 
G01 X112.2336 Y64.1234 
G01 X112.3797 Y63.7707 
G01 X112.3797 Y61.7971 
G01 X112.4180 Y61.7047 
G01 X112.4888 Y61.6339 
G01 X112.6363 Y61.4864 
G01 X112.8547 Y60.9591 
G01 X112.8547 Y58.4384 
G01 X112.6363 Y57.9111 
G01 X112.2328 Y57.5075 
G01 X111.7055 Y57.2891 
G01 X111.1348 Y57.2891 
G01 X110.6075 Y57.5075 
G01 X110.2039 Y57.9111 
G01 X109.9855 Y58.4384 
G01 X109.9855 Y60.9591 
G01 X110.2039 Y61.4864 
G01 X110.3514 Y61.6339 
G01 X110.4200 Y61.7024 
G01 X110.4605 Y61.7971 
G01 X110.4605 Y63.1282 
G01 X110.4222 Y63.2207 
G01 X110.3514 Y63.2915 
G01 X109.7116 Y63.9313 
G01 X109.6408 Y64.0021 
G01 X109.5483 Y64.0404 
G01 X106.4516 Y64.0404 
G01 X106.3592 Y64.0021 
G01 X106.2884 Y63.9313 
G01 X97.8135 Y55.4564 
G01 X97.5436 Y55.1865 
G01 X97.1909 Y55.0404 
G01 X82.9899 Y55.0404 
G01 X82.6372 Y55.1865 
G01 X80.8216 Y57.0021 
G01 X80.7291 Y57.0404 
G01 X59.5952 Y57.0404 
G01 X59.2425 Y57.1865 
G01 X58.9040 Y57.5251 
G01 X58.3055 Y58.1235 
G01 X58.2461 Y58.1829 
G01 X58.2347 Y58.1943 
G01 X58.1422 Y58.2326 
G01 X58.0421 Y58.2326 
G01 X57.9523 Y58.1954 
G01 X57.9497 Y58.1943 
G01 X57.8789 Y58.1235 
G01 X57.8406 Y58.0311 
G01 X57.8406 Y47.8328 
G01 X57.7126 Y47.5238 
G01 X57.4762 Y47.2874 
G01 X57.4054 Y47.2166 
G01 X56.6822 Y46.4934 
G01 X56.6811 Y46.4908 
G01 X56.6439 Y46.4009 
G01 X56.6439 Y46.1657 
G01 X56.6752 Y46.0902 
G01 X56.6822 Y46.0732 
G01 X56.7171 Y46.0384 
