(.../pcb-gcode-3.6.0.4/pcb-gcode.ulp)
(Copyright 2005 - 2012 by John Johnson)
(See readme.txt for licensing terms.)
(This file generated from the board:)
(.../Cart top solution/CTS Version 2.brd)
(Current profile is .../pcb-gcode-3.6.0.4/profiles/generic.pp  )
(This file generated 2019/12/10 10:11)
(Settings from pcb-machine.h)
(  Tool Size)
(0.3000 )
(Z Axis Settings)
(  High     Up        Down     Drill)
(12.7000 	2.4000 	-0.1000 	-1.7000 )
(spindle on time = 3.0000)
(milling depth = -0.2540)
(text depth = -0.1270)
(tool change at 0.0000 -12.0000 20.0000 )
(feed rate xy = F100.00 )
(feed rate z  = F50.00 )
(Settings from pcb-defaults.h)
(isolate min = 0.0254)
(isolate max = 0.3000)
(isolate step = 0.1500)
(Generated top outlines, top drill, bottom drill, )
(Unit of measure: mm)
( Tool|       Size       |  Min Sub |  Max Sub |   Count )
( T01  0.800mm 0.0315in 0.0000in 0.0000in )
( T02  0.813mm 0.0320in 0.0000in 0.0000in )
( T03  1.000mm 0.0394in 0.0000in 0.0000in )
( T04  1.016mm 0.0400in 0.0000in 0.0000in )
( T05  1.118mm 0.0440in 0.0000in 0.0000in )
( T06  1.200mm 0.0472in 0.0000in 0.0000in )
( T07  1.300mm 0.0512in 0.0000in 0.0000in )
( T08  1.500mm 0.0591in 0.0000in 0.0000in )
( T09  2.200mm 0.0866in 0.0000in 0.0000in )
( T10  2.750mm 0.1083in 0.0000in 0.0000in )
( T11  3.000mm 0.1181in 0.0000in 0.0000in )
(Metric Mode)
G21
(Absolute Coordinates)
G90
M05
G00 Z20.0000 
G00 X0.0000 Y-12.0000 
M06 T01  ; 0.8000 
G01 Z0.0000 F50.00 
M06 T01  ; 0.8000 
G00 Z2.4000 
M03
G04 P3.000000
G00 Z2.400000
G00 X125.5217 Y59.1405 
G01 Z-1.7000 F50.00 
G01 Z2.400000
(R2.4000  P1.000000)
(G00 Z2.400000)
G00 X130.3217 Y56.1405 
G01 Z-1.700000
G01 Z2.400000
M05
G00 Z20.0000 
M06 T02  ; 0.8128 
G01 Z0.0000 F50.00 
M06 T02  ; 0.8128 
G00 Z2.4000 
M03
G04 P3.000000
G00 Z2.400000
G00 X34.4603 Y16.3785 
G01 Z-1.7000 F50.00 
G01 Z2.400000
(R2.4000  P1.000000)
(G00 Z2.400000)
G00 X34.4603 Y23.9985 
G01 Z-1.700000
G01 Z2.400000
(G00 Z2.400000)
G00 X7.7077 Y4.4297 
G01 Z-1.700000
G01 Z2.400000
(G00 Z2.400000)
G00 X10.4833 Y30.5453 
G01 Z-1.700000
G01 Z2.400000
(G00 Z2.400000)
G00 X13.0233 Y30.5453 
G01 Z-1.700000
G01 Z2.400000
(G00 Z2.400000)
G00 X15.5633 Y30.5453 
G01 Z-1.700000
G01 Z2.400000
(G00 Z2.400000)
G00 X17.4603 Y16.3785 
G01 Z-1.700000
G01 Z2.400000
(G00 Z2.400000)
G00 X17.4603 Y23.9985 
G01 Z-1.700000
G01 Z2.400000
(G00 Z2.400000)
G00 X17.8677 Y4.4297 
G01 Z-1.700000
G01 Z2.400000
(G00 Z2.400000)
G00 X23.4603 Y16.3785 
G01 Z-1.700000
G01 Z2.400000
(G00 Z2.400000)
G00 X23.4603 Y23.9985 
G01 Z-1.700000
G01 Z2.400000
(G00 Z2.400000)
G00 X27.4603 Y16.3785 
G01 Z-1.700000
G01 Z2.400000
(G00 Z2.400000)
G00 X27.4603 Y23.9985 
G01 Z-1.700000
G01 Z2.400000
(G00 Z2.400000)
G00 X30.4603 Y16.3785 
G01 Z-1.700000
G01 Z2.400000
(G00 Z2.400000)
G00 X30.4603 Y23.9985 
G01 Z-1.700000
G01 Z2.400000
M05
G00 Z20.0000 
M06 T03  ; 1.0000 
G01 Z0.0000 F50.00 
M06 T03  ; 1.0000 
G00 Z2.4000 
M03
G04 P3.000000
G00 Z2.400000
G00 X59.9409 Y38.5830 
G01 Z-1.7000 F50.00 
G01 Z2.400000
(R2.4000  P1.000000)
(G00 Z2.400000)
G00 X62.4809 Y38.5830 
G01 Z-1.700000
G01 Z2.400000
(G00 Z2.400000)
G00 X62.4809 Y3.0230 
G01 Z-1.700000
G01 Z2.400000
(G00 Z2.400000)
G00 X65.0209 Y38.5830 
G01 Z-1.700000
G01 Z2.400000
(G00 Z2.400000)
G00 X65.0209 Y3.0230 
G01 Z-1.700000
G01 Z2.400000
(G00 Z2.400000)
G00 X67.5609 Y38.5830 
G01 Z-1.700000
G01 Z2.400000
(G00 Z2.400000)
G00 X67.5609 Y3.0230 
G01 Z-1.700000
G01 Z2.400000
(G00 Z2.400000)
G00 X70.1009 Y38.5830 
G01 Z-1.700000
G01 Z2.400000
(G00 Z2.400000)
G00 X70.1009 Y3.0230 
G01 Z-1.700000
G01 Z2.400000
(G00 Z2.400000)
G00 X72.6409 Y38.5830 
G01 Z-1.700000
G01 Z2.400000
(G00 Z2.400000)
G00 X7.3014 Y52.6817 
G01 Z-1.700000
G01 Z2.400000
(G00 Z2.400000)
G00 X7.3014 Y64.6817 
G01 Z-1.700000
G01 Z2.400000
(G00 Z2.400000)
G00 X83.0664 Y70.4377 
G01 Z-1.700000
G01 Z2.400000
(G00 Z2.400000)
G00 X119.7414 Y76.1517 
G01 Z-1.700000
G01 Z2.400000
(G00 Z2.400000)
G00 X120.7414 Y35.1517 
G01 Z-1.700000
G01 Z2.400000
(G00 Z2.400000)
G00 X125.5217 Y53.1405 
G01 Z-1.700000
G01 Z2.400000
(G00 Z2.400000)
G00 X13.3014 Y66.6817 
G01 Z-1.700000
G01 Z2.400000
(G00 Z2.400000)
G00 X19.3014 Y52.6817 
G01 Z-1.700000
G01 Z2.400000
(G00 Z2.400000)
G00 X19.3014 Y64.6817 
G01 Z-1.700000
G01 Z2.400000
(G00 Z2.400000)
G00 X2.0000 Y8.0000 
G01 Z-1.700000
G01 Z2.400000
(G00 Z2.400000)
G00 X31.0000 Y55.0000 
G01 Z-1.700000
G01 Z2.400000
M05
G00 Z20.0000 
M06 T04  ; 1.0160 
G01 Z0.0000 F50.00 
M06 T04  ; 1.0160 
G00 Z2.4000 
M03
G04 P3.000000
G00 Z2.400000
G00 X42.7183 Y31.5377 
G01 Z-1.7000 F50.00 
G01 Z2.400000
(R2.4000  P1.000000)
(G00 Z2.400000)
G00 X42.7183 Y34.0777 
G01 Z-1.700000
G01 Z2.400000
(G00 Z2.400000)
G00 X42.7183 Y36.6177 
G01 Z-1.700000
G01 Z2.400000
(G00 Z2.400000)
G00 X42.7183 Y39.1577 
G01 Z-1.700000
G01 Z2.400000
(G00 Z2.400000)
G00 X42.7183 Y41.6977 
G01 Z-1.700000
G01 Z2.400000
(G00 Z2.400000)
G00 X42.7183 Y44.2377 
G01 Z-1.700000
G01 Z2.400000
(G00 Z2.400000)
G00 X42.7183 Y46.7777 
G01 Z-1.700000
G01 Z2.400000
(G00 Z2.400000)
G00 X42.7183 Y49.3177 
G01 Z-1.700000
G01 Z2.400000
(G00 Z2.400000)
G00 X42.7183 Y51.8577 
G01 Z-1.700000
G01 Z2.400000
(G00 Z2.400000)
G00 X42.7183 Y54.3977 
G01 Z-1.700000
G01 Z2.400000
(G00 Z2.400000)
G00 X42.7183 Y56.9377 
G01 Z-1.700000
G01 Z2.400000
(G00 Z2.400000)
G00 X42.7183 Y59.4777 
G01 Z-1.700000
G01 Z2.400000
(G00 Z2.400000)
G00 X42.7183 Y11.2177 
G01 Z-1.700000
G01 Z2.400000
(G00 Z2.400000)
G00 X42.7183 Y13.7577 
G01 Z-1.700000
G01 Z2.400000
(G00 Z2.400000)
G00 X42.7183 Y16.2977 
G01 Z-1.700000
G01 Z2.400000
(G00 Z2.400000)
G00 X42.7183 Y18.8377 
G01 Z-1.700000
G01 Z2.400000
(G00 Z2.400000)
G00 X42.7183 Y21.3777 
G01 Z-1.700000
G01 Z2.400000
(G00 Z2.400000)
G00 X42.7183 Y23.9177 
G01 Z-1.700000
G01 Z2.400000
(G00 Z2.400000)
G00 X42.7183 Y26.4577 
G01 Z-1.700000
G01 Z2.400000
(G00 Z2.400000)
G00 X42.7183 Y28.9977 
G01 Z-1.700000
G01 Z2.400000
(G00 Z2.400000)
G00 X45.2583 Y31.5377 
G01 Z-1.700000
G01 Z2.400000
(G00 Z2.400000)
G00 X45.2583 Y34.0777 
G01 Z-1.700000
G01 Z2.400000
(G00 Z2.400000)
G00 X45.2583 Y36.6177 
G01 Z-1.700000
G01 Z2.400000
(G00 Z2.400000)
G00 X45.2583 Y39.1577 
G01 Z-1.700000
G01 Z2.400000
(G00 Z2.400000)
G00 X45.2583 Y41.6977 
G01 Z-1.700000
G01 Z2.400000
(G00 Z2.400000)
G00 X45.2583 Y44.2377 
G01 Z-1.700000
G01 Z2.400000
(G00 Z2.400000)
G00 X45.2583 Y46.7777 
G01 Z-1.700000
G01 Z2.400000
(G00 Z2.400000)
G00 X45.2583 Y49.3177 
G01 Z-1.700000
G01 Z2.400000
(G00 Z2.400000)
G00 X45.2583 Y51.8577 
G01 Z-1.700000
G01 Z2.400000
(G00 Z2.400000)
G00 X45.2583 Y54.3977 
G01 Z-1.700000
G01 Z2.400000
(G00 Z2.400000)
G00 X45.2583 Y56.9377 
G01 Z-1.700000
G01 Z2.400000
(G00 Z2.400000)
G00 X45.2583 Y59.4777 
G01 Z-1.700000
G01 Z2.400000
(G00 Z2.400000)
G00 X45.2583 Y11.2177 
G01 Z-1.700000
G01 Z2.400000
(G00 Z2.400000)
G00 X45.2583 Y13.7577 
G01 Z-1.700000
G01 Z2.400000
(G00 Z2.400000)
G00 X45.2583 Y16.2977 
G01 Z-1.700000
G01 Z2.400000
(G00 Z2.400000)
G00 X45.2583 Y18.8377 
G01 Z-1.700000
G01 Z2.400000
(G00 Z2.400000)
G00 X45.2583 Y21.3777 
G01 Z-1.700000
G01 Z2.400000
(G00 Z2.400000)
G00 X45.2583 Y23.9177 
G01 Z-1.700000
G01 Z2.400000
(G00 Z2.400000)
G00 X45.2583 Y26.4577 
G01 Z-1.700000
G01 Z2.400000
(G00 Z2.400000)
G00 X45.2583 Y28.9977 
G01 Z-1.700000
G01 Z2.400000
M05
G00 Z20.0000 
M06 T05  ; 1.1176 
G01 Z0.0000 F50.00 
M06 T05  ; 1.1176 
G00 Z2.4000 
M03
G04 P3.000000
G00 Z2.400000
G00 X7.1937 Y18.2204 
G01 Z-1.7000 F50.00 
G01 Z2.400000
(R2.4000  P1.000000)
(G00 Z2.400000)
G00 X7.1937 Y28.3804 
G01 Z-1.700000
G01 Z2.400000
M05
G00 Z20.0000 
M06 T06  ; 1.2000 
G01 Z0.0000 F50.00 
M06 T06  ; 1.2000 
G00 Z2.4000 
M03
G04 P3.000000
G00 Z2.400000
G00 X57.8193 Y45.2584 
G01 Z-1.7000 F50.00 
G01 Z2.400000
(R2.4000  P1.000000)
(G00 Z2.400000)
G00 X57.8193 Y63.8004 
G01 Z-1.700000
G01 Z2.400000
(G00 Z2.400000)
G00 X60.3593 Y45.2584 
G01 Z-1.700000
G01 Z2.400000
(G00 Z2.400000)
G00 X60.3593 Y63.8004 
G01 Z-1.700000
G01 Z2.400000
(G00 Z2.400000)
G00 X68.4873 Y45.2584 
G01 Z-1.700000
G01 Z2.400000
(G00 Z2.400000)
G00 X68.4873 Y63.8004 
G01 Z-1.700000
G01 Z2.400000
(G00 Z2.400000)
G00 X71.0273 Y45.2584 
G01 Z-1.700000
G01 Z2.400000
(G00 Z2.400000)
G00 X71.0273 Y63.8004 
G01 Z-1.700000
G01 Z2.400000
M05
G00 Z20.0000 
M06 T07  ; 1.3000 
G01 Z0.0000 F50.00 
M06 T07  ; 1.3000 
G00 Z2.4000 
M03
G04 P3.000000
G00 Z2.400000
G00 X106.4201 Y59.6987 
G01 Z-1.7000 F50.00 
G01 Z2.400000
(R2.4000  P1.000000)
(G00 Z2.400000)
G00 X111.4201 Y59.6987 
G01 Z-1.700000
G01 Z2.400000
(G00 Z2.400000)
G00 X23.5000 Y8.3500 
G01 Z-1.700000
G01 Z2.400000
(G00 Z2.400000)
G00 X28.5000 Y8.3500 
G01 Z-1.700000
G01 Z2.400000
M05
G00 Z20.0000 
M06 T08  ; 1.5000 
G01 Z0.0000 F50.00 
M06 T08  ; 1.5000 
G00 Z2.4000 
M03
G04 P3.000000
G00 Z2.400000
G00 X113.2354 Y47.2937 
G01 Z-1.7000 F50.00 
G01 Z2.400000
(R2.4000  P1.000000)
(G00 Z2.400000)
G00 X113.2354 Y7.6697 
G01 Z-1.700000
G01 Z2.400000
(G00 Z2.400000)
G00 X130.5074 Y47.2937 
G01 Z-1.700000
G01 Z2.400000
(G00 Z2.400000)
G00 X130.5074 Y7.6697 
G01 Z-1.700000
G01 Z2.400000
M05
G00 Z20.0000 
M06 T09  ; 2.2000 
G01 Z0.0000 F50.00 
M06 T09  ; 2.2000 
G00 Z2.4000 
M03
G04 P3.000000
G00 Z2.400000
G00 X56.7659 Y32.2330 
G01 Z-1.7000 F50.00 
G01 Z2.400000
(R2.4000  P1.000000)
(G00 Z2.400000)
G00 X75.8159 Y32.2330 
G01 Z-1.700000
G01 Z2.400000
(G00 Z2.400000)
G00 X75.8159 Y5.5630 
G01 Z-1.700000
G01 Z2.400000
M05
G00 Z20.0000 
M06 T10  ; 2.7500 
G01 Z0.0000 F50.00 
M06 T10  ; 2.7500 
G00 Z2.4000 
M03
G04 P3.000000
G00 Z2.400000
G00 X43.9973 Y6.3757 
G01 Z-1.7000 F50.00 
G01 Z2.400000
(R2.4000  P1.000000)
(G00 Z2.400000)
G00 X43.9973 Y64.3757 
G01 Z-1.700000
G01 Z2.400000
(G00 Z2.400000)
G00 X92.9973 Y6.3757 
G01 Z-1.700000
G01 Z2.400000
(G00 Z2.400000)
G00 X92.9973 Y64.3757 
G01 Z-1.700000
G01 Z2.400000
M05
G00 Z20.0000 
M06 T11  ; 3.0000 
G01 Z0.0000 F50.00 
M06 T11  ; 3.0000 
G00 Z2.4000 
M03
G04 P3.000000
G00 Z2.400000
G00 X114.2514 Y41.9597 
G01 Z-1.7000 F50.00 
G01 Z2.400000
(R2.4000  P1.000000)
(G00 Z2.400000)
G00 X129.4914 Y12.2417 
G01 Z-1.700000
G01 Z2.400000
T01 
G00 Z12.7000 
M05
M02
