(.../pcb-gcode-3.6.0.4/pcb-gcode.ulp)
(Copyright 2005 - 2012 by John Johnson)
(See readme.txt for licensing terms.)
(This file generated from the board:)
(.../projects/Cart top solution/MCP3002.brd)
(Current profile is .../pcb-gcode-3.6.0.4/profiles/generic.pp  )
(This file generated 2019/12/06 13:03)
(Settings from pcb-machine.h)
(  Tool Size)
(0.3000 )
(Z Axis Settings)
(  High     Up        Down     Drill)
(12.7000 	2.4000 	-0.1000 	-1.7000 )
(spindle on time = 3.0000)
(milling depth = -0.2540)
(text depth = -0.1270)
(tool change at 0.0000 -12.0000 20.0000 )
(feed rate xy = F100.00 )
(feed rate z  = F50.00 )
(Settings from pcb-defaults.h)
(isolate min = 0.0254)
(isolate max = 0.3000)
(isolate step = 0.1500)
(Generated top outlines, top drill, bottom drill, )
(Unit of measure: mm)
(Metric Mode)
G21
(Absolute Coordinates)
G90
G00 X0.0000 Y0.0000 
M03
G04 P3.000000
G00 Z2.4000 
G00 X33.4652 Y5.4216 
G01 Z-0.1000 F50.00 
G01 X30.9252 Y7.9616 F100.00 
G01 X30.8216 Y8.0652 
G01 X30.6948 Y8.1385 
G01 X30.5533 Y8.1764 
G01 X24.1351 Y8.1764 
G01 X24.1351 Y8.4683 
G01 X24.1084 Y8.5328 
G01 X24.0591 Y8.5821 
G01 X23.9946 Y8.6088 
G01 X20.1904 Y8.6088 
G01 X20.1259 Y8.5821 
G01 X20.0766 Y8.5328 
G01 X20.0498 Y8.4683 
G01 X20.0498 Y6.7717 
G01 X20.0766 Y6.7072 
G01 X20.1259 Y6.6579 
G01 X20.1904 Y6.6311 
G01 X23.9946 Y6.6311 
G01 X24.0591 Y6.6579 
G01 X24.1084 Y6.7072 
G01 X24.1351 Y6.7717 
G01 X24.1351 Y7.0636 
G01 X30.2495 Y7.0636 
G01 X32.6784 Y4.6348 
G01 X32.8052 Y4.5615 
G01 X32.9467 Y4.5236 
G01 X33.0933 Y4.5236 
G01 X33.2348 Y4.5615 
G01 X33.3616 Y4.6348 
G01 X33.4652 Y4.7384 
G01 X33.5385 Y4.8652 
G01 X33.5764 Y5.0067 
G01 X33.5764 Y5.1532 
G01 X33.5385 Y5.2948 
G01 X33.4652 Y5.4216 
G00 Z2.4000 
G00 X24.1351 Y14.3917 
G01 Z-0.1000 F50.00 
G01 X24.1351 Y14.5646 F100.00 
G01 X29.2765 Y14.5646 
G01 X29.4070 Y14.5906 
G01 X29.5299 Y14.6415 
G01 X29.6405 Y14.7154 
G01 X32.2746 Y17.3495 
G01 X32.3485 Y17.4601 
G01 X32.3994 Y17.5830 
G01 X32.4254 Y17.7135 
G01 X32.4254 Y17.8465 
G01 X32.3994 Y17.9770 
G01 X32.3485 Y18.0999 
G01 X32.2746 Y18.2105 
G01 X32.1805 Y18.3046 
G01 X32.0699 Y18.3785 
G01 X31.9470 Y18.4294 
G01 X31.8165 Y18.4554 
G01 X31.6835 Y18.4554 
G01 X31.5530 Y18.4294 
G01 X31.4301 Y18.3785 
G01 X31.3195 Y18.3046 
G01 X28.9302 Y15.9154 
G01 X24.1351 Y15.9154 
G01 X24.1351 Y16.0883 
G01 X24.1084 Y16.1528 
G01 X24.0591 Y16.2021 
G01 X23.9946 Y16.2288 
G01 X20.1904 Y16.2288 
G01 X20.1259 Y16.2021 
G01 X20.0766 Y16.1528 
G01 X20.0498 Y16.0883 
G01 X20.0498 Y14.3917 
G01 X20.0766 Y14.3272 
G01 X20.1259 Y14.2779 
G01 X20.1904 Y14.2512 
G01 X23.9946 Y14.2512 
G01 X24.0591 Y14.2779 
G01 X24.1084 Y14.3272 
G01 X24.1351 Y14.3917 
G00 Z2.4000 
G00 X24.1351 Y11.8517 
G01 Z-0.1000 F50.00 
G01 X24.1351 Y13.5483 F100.00 
G01 X24.1084 Y13.6128 
G01 X24.0591 Y13.6621 
G01 X23.9946 Y13.6888 
G01 X20.1904 Y13.6888 
G01 X20.1259 Y13.6621 
G01 X20.0766 Y13.6128 
G01 X20.0498 Y13.5483 
G01 X20.0498 Y11.8517 
G01 X20.0766 Y11.7872 
G01 X20.1259 Y11.7379 
G01 X20.1904 Y11.7111 
G01 X23.9946 Y11.7111 
G01 X24.0591 Y11.7379 
G01 X24.1084 Y11.7872 
G01 X24.1351 Y11.8517 
G00 Z2.4000 
G00 X24.1351 Y9.3117 
G01 Z-0.1000 F50.00 
G01 X24.1351 Y11.0083 F100.00 
G01 X24.1084 Y11.0728 
G01 X24.0591 Y11.1221 
G01 X23.9946 Y11.1488 
G01 X20.1904 Y11.1488 
G01 X20.1259 Y11.1221 
G01 X20.0766 Y11.0728 
G01 X20.0498 Y11.0083 
G01 X20.0498 Y9.3117 
G01 X20.0766 Y9.2472 
G01 X20.1259 Y9.1979 
G01 X20.1904 Y9.1712 
G01 X23.9946 Y9.1712 
G01 X24.0591 Y9.1979 
G01 X24.1084 Y9.2472 
G01 X24.1351 Y9.3117 
G00 Z2.4000 
G00 X15.5101 Y6.7717 
G01 Z-0.1000 F50.00 
G01 X15.5101 Y8.4683 F100.00 
G01 X15.4834 Y8.5328 
G01 X15.4341 Y8.5821 
G01 X15.3696 Y8.6088 
G01 X11.5654 Y8.6088 
G01 X11.5009 Y8.5821 
G01 X11.4516 Y8.5328 
G01 X11.4249 Y8.4683 
G01 X11.4249 Y8.2954 
G01 X8.8235 Y8.2954 
G01 X8.6930 Y8.2694 
G01 X8.5701 Y8.2185 
G01 X8.4595 Y8.1446 
G01 X3.2854 Y2.9705 
G01 X3.2115 Y2.8599 
G01 X3.1606 Y2.7370 
G01 X3.1346 Y2.6065 
G01 X3.1346 Y2.4735 
G01 X3.1606 Y2.3430 
G01 X3.2115 Y2.2201 
G01 X3.2854 Y2.1095 
G01 X3.3795 Y2.0154 
G01 X3.4901 Y1.9415 
G01 X3.6130 Y1.8906 
G01 X3.7435 Y1.8646 
G01 X3.8765 Y1.8646 
G01 X4.0070 Y1.8906 
G01 X4.1299 Y1.9415 
G01 X4.2405 Y2.0154 
G01 X9.1698 Y6.9446 
G01 X11.4249 Y6.9446 
G01 X11.4249 Y6.7717 
G01 X11.4516 Y6.7072 
G01 X11.5009 Y6.6579 
G01 X11.5654 Y6.6311 
G01 X15.3696 Y6.6311 
G01 X15.4341 Y6.6579 
G01 X15.4834 Y6.7072 
G01 X15.5101 Y6.7717 
G00 Z2.4000 
G00 X15.5101 Y9.3117 
G01 Z-0.1000 F50.00 
G01 X15.5101 Y11.0083 F100.00 
G01 X15.4834 Y11.0728 
G01 X15.4341 Y11.1221 
G01 X15.3696 Y11.1488 
G01 X11.5654 Y11.1488 
G01 X11.5009 Y11.1221 
G01 X11.4516 Y11.0728 
G01 X11.4249 Y11.0083 
G01 X11.4249 Y9.3117 
G01 X11.4516 Y9.2472 
G01 X11.5009 Y9.1979 
G01 X11.5654 Y9.1712 
G01 X15.3696 Y9.1712 
G01 X15.4341 Y9.1979 
G01 X15.4834 Y9.2472 
G01 X15.5101 Y9.3117 
G00 Z2.4000 
G00 X15.5101 Y11.8517 
G01 Z-0.1000 F50.00 
G01 X15.5101 Y13.5483 F100.00 
G01 X15.4834 Y13.6128 
G01 X15.4341 Y13.6621 
G01 X15.3696 Y13.6888 
G01 X11.5654 Y13.6888 
G01 X11.5009 Y13.6621 
G01 X11.4516 Y13.6128 
G01 X11.4249 Y13.5483 
G01 X11.4249 Y11.8517 
G01 X11.4516 Y11.7872 
G01 X11.5009 Y11.7379 
G01 X11.5654 Y11.7111 
G01 X15.3696 Y11.7111 
G01 X15.4341 Y11.7379 
G01 X15.4834 Y11.7872 
G01 X15.5101 Y11.8517 
G00 Z2.4000 
G00 X15.5101 Y14.3917 
G01 Z-0.1000 F50.00 
G01 X15.5101 Y16.0883 F100.00 
G01 X15.4834 Y16.1528 
G01 X15.4341 Y16.2021 
G01 X15.3696 Y16.2288 
G01 X11.5654 Y16.2288 
G01 X11.5009 Y16.2021 
G01 X11.4516 Y16.1528 
G01 X11.4249 Y16.0883 
G01 X11.4249 Y15.9154 
G01 X7.8998 Y15.9154 
G01 X4.2405 Y19.5746 
G01 X4.1299 Y19.6485 
G01 X4.0070 Y19.6994 
G01 X3.8765 Y19.7254 
G01 X3.7435 Y19.7254 
G01 X3.6130 Y19.6994 
G01 X3.4901 Y19.6485 
G01 X3.3795 Y19.5746 
G01 X3.2854 Y19.4805 
G01 X3.2115 Y19.3699 
G01 X3.1606 Y19.2470 
G01 X3.1346 Y19.1165 
G01 X3.1346 Y18.9835 
G01 X3.1606 Y18.8530 
G01 X3.2115 Y18.7301 
G01 X3.2854 Y18.6195 
G01 X7.1895 Y14.7154 
G01 X7.3001 Y14.6415 
G01 X7.4230 Y14.5906 
G01 X7.5535 Y14.5646 
G01 X11.4249 Y14.5646 
G01 X11.4249 Y14.3917 
G01 X11.4516 Y14.3272 
G01 X11.5009 Y14.2779 
G01 X11.5654 Y14.2512 
G01 X15.3696 Y14.2512 
G01 X15.4341 Y14.2779 
G01 X15.4834 Y14.3272 
G01 X15.5101 Y14.3917 
G00 Z2.4000 
G00 X33.5687 Y5.5303 
G01 Z-0.1000 F50.00 
G01 X31.0287 Y8.0703 F100.00 
G01 X30.9303 Y8.1687 
G01 X30.8146 Y8.2460 
G01 X30.6860 Y8.2993 
G01 X30.5496 Y8.3264 
G01 X24.2851 Y8.3264 
G01 X24.2851 Y8.4763 
G01 X24.2630 Y8.5591 
G01 X24.2201 Y8.6332 
G01 X24.1595 Y8.6938 
G01 X24.0854 Y8.7367 
G01 X24.0026 Y8.7588 
G01 X20.1824 Y8.7588 
G01 X20.0996 Y8.7367 
G01 X20.0254 Y8.6938 
G01 X19.9649 Y8.6332 
G01 X19.9220 Y8.5591 
G01 X19.8999 Y8.4763 
G01 X19.8999 Y6.7637 
G01 X19.9220 Y6.6809 
G01 X19.9649 Y6.6067 
G01 X20.0254 Y6.5462 
G01 X20.0996 Y6.5033 
G01 X20.1824 Y6.4812 
G01 X24.0026 Y6.4812 
G01 X24.0854 Y6.5033 
G01 X24.1595 Y6.5462 
G01 X24.2201 Y6.6067 
G01 X24.2630 Y6.6809 
G01 X24.2851 Y6.7637 
G01 X24.2851 Y6.9136 
G01 X30.1874 Y6.9136 
G01 X32.5697 Y4.5313 
G01 X32.6854 Y4.4540 
G01 X32.8139 Y4.4007 
G01 X32.9504 Y4.3736 
G01 X33.0896 Y4.3736 
G01 X33.2260 Y4.4007 
G01 X33.3546 Y4.4540 
G01 X33.4703 Y4.5313 
G01 X33.5687 Y4.6297 
G01 X33.6460 Y4.7454 
G01 X33.6992 Y4.8740 
G01 X33.7264 Y5.0104 
G01 X33.7264 Y5.1496 
G01 X33.6992 Y5.2860 
G01 X33.6460 Y5.4146 
G01 X33.5687 Y5.5303 
G00 Z2.4000 
G00 X24.2851 Y14.3837 
G01 Z-0.1000 F50.00 
G01 X24.2851 Y14.4146 F100.00 
G01 X29.2913 Y14.4146 
G01 X29.4508 Y14.4463 
G01 X29.6010 Y14.5085 
G01 X29.7362 Y14.5989 
G01 X32.3911 Y17.2538 
G01 X32.4815 Y17.3890 
G01 X32.5437 Y17.5392 
G01 X32.5754 Y17.6987 
G01 X32.5754 Y17.8613 
G01 X32.5437 Y18.0208 
G01 X32.4815 Y18.1710 
G01 X32.3911 Y18.3062 
G01 X32.2762 Y18.4211 
G01 X32.1410 Y18.5115 
G01 X31.9908 Y18.5737 
G01 X31.8313 Y18.6054 
G01 X31.6687 Y18.6054 
G01 X31.5092 Y18.5737 
G01 X31.3590 Y18.5115 
G01 X31.2238 Y18.4211 
G01 X28.8681 Y16.0654 
G01 X24.2851 Y16.0654 
G01 X24.2851 Y16.0963 
G01 X24.2630 Y16.1791 
G01 X24.2201 Y16.2532 
G01 X24.1595 Y16.3138 
G01 X24.0854 Y16.3567 
G01 X24.0026 Y16.3788 
G01 X20.1824 Y16.3788 
G01 X20.0996 Y16.3567 
G01 X20.0254 Y16.3138 
G01 X19.9649 Y16.2532 
G01 X19.9220 Y16.1791 
G01 X19.8999 Y16.0963 
G01 X19.8999 Y14.3837 
G01 X19.9220 Y14.3009 
G01 X19.9649 Y14.2268 
G01 X20.0254 Y14.1662 
G01 X20.0996 Y14.1233 
G01 X20.1824 Y14.1012 
G01 X24.0026 Y14.1012 
G01 X24.0854 Y14.1233 
G01 X24.1595 Y14.1662 
G01 X24.2201 Y14.2268 
G01 X24.2630 Y14.3009 
G01 X24.2851 Y14.3837 
G00 Z2.4000 
G00 X24.2851 Y11.8437 
G01 Z-0.1000 F50.00 
G01 X24.2851 Y13.5563 F100.00 
G01 X24.2630 Y13.6391 
G01 X24.2201 Y13.7132 
G01 X24.1595 Y13.7738 
G01 X24.0854 Y13.8167 
G01 X24.0026 Y13.8388 
G01 X20.1824 Y13.8388 
G01 X20.0996 Y13.8167 
G01 X20.0254 Y13.7738 
G01 X19.9649 Y13.7132 
G01 X19.9220 Y13.6391 
G01 X19.8999 Y13.5563 
G01 X19.8999 Y11.8437 
G01 X19.9220 Y11.7609 
G01 X19.9649 Y11.6867 
G01 X20.0254 Y11.6262 
G01 X20.0996 Y11.5833 
G01 X20.1824 Y11.5612 
G01 X24.0026 Y11.5612 
G01 X24.0854 Y11.5833 
G01 X24.1595 Y11.6262 
G01 X24.2201 Y11.6867 
G01 X24.2630 Y11.7609 
G01 X24.2851 Y11.8437 
G00 Z2.4000 
G00 X24.2851 Y9.3037 
G01 Z-0.1000 F50.00 
G01 X24.2851 Y11.0163 F100.00 
G01 X24.2630 Y11.0991 
G01 X24.2201 Y11.1732 
G01 X24.1595 Y11.2338 
G01 X24.0854 Y11.2767 
G01 X24.0026 Y11.2988 
G01 X20.1824 Y11.2988 
G01 X20.0996 Y11.2767 
G01 X20.0254 Y11.2338 
G01 X19.9649 Y11.1732 
G01 X19.9220 Y11.0991 
G01 X19.8999 Y11.0163 
G01 X19.8999 Y9.3037 
G01 X19.9220 Y9.2209 
G01 X19.9649 Y9.1468 
G01 X20.0254 Y9.0862 
G01 X20.0996 Y9.0433 
G01 X20.1824 Y9.0212 
G01 X24.0026 Y9.0212 
G01 X24.0854 Y9.0433 
G01 X24.1595 Y9.0862 
G01 X24.2201 Y9.1468 
G01 X24.2630 Y9.2209 
G01 X24.2851 Y9.3037 
G00 Z2.4000 
G00 X15.6601 Y6.7637 
G01 Z-0.1000 F50.00 
G01 X15.6601 Y8.4763 F100.00 
G01 X15.6380 Y8.5591 
G01 X15.5951 Y8.6332 
G01 X15.5345 Y8.6938 
G01 X15.4604 Y8.7367 
G01 X15.3776 Y8.7588 
G01 X11.5574 Y8.7588 
G01 X11.4746 Y8.7367 
G01 X11.4005 Y8.6938 
G01 X11.3399 Y8.6332 
G01 X11.2970 Y8.5591 
G01 X11.2749 Y8.4763 
G01 X11.2749 Y8.4454 
G01 X8.8087 Y8.4454 
G01 X8.6492 Y8.4137 
G01 X8.4990 Y8.3515 
G01 X8.3638 Y8.2611 
G01 X3.1689 Y3.0662 
G01 X3.0785 Y2.9310 
G01 X3.0163 Y2.7808 
G01 X2.9846 Y2.6213 
G01 X2.9846 Y2.4587 
G01 X3.0163 Y2.2992 
G01 X3.0785 Y2.1490 
G01 X3.1689 Y2.0138 
G01 X3.2838 Y1.8989 
G01 X3.4190 Y1.8085 
G01 X3.5692 Y1.7463 
G01 X3.7287 Y1.7146 
G01 X3.8913 Y1.7146 
G01 X4.0508 Y1.7463 
G01 X4.2010 Y1.8085 
G01 X4.3362 Y1.8989 
G01 X9.2319 Y6.7946 
G01 X11.2749 Y6.7946 
G01 X11.2749 Y6.7637 
G01 X11.2970 Y6.6809 
G01 X11.3399 Y6.6067 
G01 X11.4005 Y6.5462 
G01 X11.4746 Y6.5033 
G01 X11.5574 Y6.4812 
G01 X15.3776 Y6.4812 
G01 X15.4604 Y6.5033 
G01 X15.5345 Y6.5462 
G01 X15.5951 Y6.6067 
G01 X15.6380 Y6.6809 
G01 X15.6601 Y6.7637 
G00 Z2.4000 
G00 X15.6601 Y9.3037 
G01 Z-0.1000 F50.00 
G01 X15.6601 Y11.0163 F100.00 
G01 X15.6380 Y11.0991 
G01 X15.5951 Y11.1732 
G01 X15.5345 Y11.2338 
G01 X15.4604 Y11.2767 
G01 X15.3776 Y11.2988 
G01 X11.5574 Y11.2988 
G01 X11.4746 Y11.2767 
G01 X11.4005 Y11.2338 
G01 X11.3399 Y11.1732 
G01 X11.2970 Y11.0991 
G01 X11.2749 Y11.0163 
G01 X11.2749 Y9.3037 
G01 X11.2970 Y9.2209 
G01 X11.3399 Y9.1468 
G01 X11.4005 Y9.0862 
G01 X11.4746 Y9.0433 
G01 X11.5574 Y9.0212 
G01 X15.3776 Y9.0212 
G01 X15.4604 Y9.0433 
G01 X15.5345 Y9.0862 
G01 X15.5951 Y9.1468 
G01 X15.6380 Y9.2209 
G01 X15.6601 Y9.3037 
G00 Z2.4000 
G00 X15.6601 Y11.8437 
G01 Z-0.1000 F50.00 
G01 X15.6601 Y13.5563 F100.00 
G01 X15.6380 Y13.6391 
G01 X15.5951 Y13.7132 
G01 X15.5345 Y13.7738 
G01 X15.4604 Y13.8167 
G01 X15.3776 Y13.8388 
G01 X11.5574 Y13.8388 
G01 X11.4746 Y13.8167 
G01 X11.4005 Y13.7738 
G01 X11.3399 Y13.7132 
G01 X11.2970 Y13.6391 
G01 X11.2749 Y13.5563 
G01 X11.2749 Y11.8437 
G01 X11.2970 Y11.7609 
G01 X11.3399 Y11.6867 
G01 X11.4005 Y11.6262 
G01 X11.4746 Y11.5833 
G01 X11.5574 Y11.5612 
G01 X15.3776 Y11.5612 
G01 X15.4604 Y11.5833 
G01 X15.5345 Y11.6262 
G01 X15.5951 Y11.6867 
G01 X15.6380 Y11.7609 
G01 X15.6601 Y11.8437 
G00 Z2.4000 
G00 X15.6601 Y14.3837 
G01 Z-0.1000 F50.00 
G01 X15.6601 Y16.0963 F100.00 
G01 X15.6380 Y16.1791 
G01 X15.5951 Y16.2532 
G01 X15.5345 Y16.3138 
G01 X15.4604 Y16.3567 
G01 X15.3776 Y16.3788 
G01 X11.5574 Y16.3788 
G01 X11.4746 Y16.3567 
G01 X11.4005 Y16.3138 
G01 X11.3399 Y16.2532 
G01 X11.2970 Y16.1791 
G01 X11.2749 Y16.0963 
G01 X11.2749 Y16.0654 
G01 X7.9619 Y16.0654 
G01 X4.3362 Y19.6911 
G01 X4.2010 Y19.7815 
G01 X4.0508 Y19.8437 
G01 X3.8913 Y19.8754 
G01 X3.7287 Y19.8754 
G01 X3.5692 Y19.8437 
G01 X3.4190 Y19.7815 
G01 X3.2838 Y19.6911 
G01 X3.1689 Y19.5762 
G01 X3.0785 Y19.4410 
G01 X3.0163 Y19.2908 
G01 X2.9846 Y19.1313 
G01 X2.9846 Y18.9687 
G01 X3.0163 Y18.8092 
G01 X3.0785 Y18.6590 
G01 X3.1689 Y18.5238 
G01 X7.0938 Y14.5989 
G01 X7.2290 Y14.5085 
G01 X7.3792 Y14.4463 
G01 X7.5387 Y14.4146 
G01 X11.2749 Y14.4146 
G01 X11.2749 Y14.3837 
G01 X11.2970 Y14.3009 
G01 X11.3399 Y14.2268 
G01 X11.4005 Y14.1662 
G01 X11.4746 Y14.1233 
G01 X11.5574 Y14.1012 
G01 X15.3776 Y14.1012 
G01 X15.4604 Y14.1233 
G01 X15.5345 Y14.1662 
G01 X15.5951 Y14.2268 
G01 X15.6380 Y14.3009 
G01 X15.6601 Y14.3837 
G00 Z2.4000 
G00 X33.6852 Y5.6259 
G01 Z-0.1000 F50.00 
G01 X31.1452 Y8.1659 F100.00 
G01 X31.0259 Y8.2852 
G01 X30.8857 Y8.3789 
G01 X30.7298 Y8.4435 
G01 X30.5643 Y8.4764 
G01 X24.4351 Y8.4764 
G01 X24.4351 Y8.4960 
G01 X24.4028 Y8.6169 
G01 X24.3402 Y8.7254 
G01 X24.2517 Y8.8139 
G01 X24.1432 Y8.8765 
G01 X24.0927 Y8.8900 
G01 X24.1432 Y8.9035 
G01 X24.2517 Y8.9661 
G01 X24.3402 Y9.0546 
G01 X24.4028 Y9.1631 
G01 X24.4351 Y9.2840 
G01 X24.4351 Y11.0360 
G01 X24.4028 Y11.1569 
G01 X24.3402 Y11.2653 
G01 X24.2517 Y11.3539 
G01 X24.1432 Y11.4165 
G01 X24.0927 Y11.4300 
G01 X24.1432 Y11.4435 
G01 X24.2517 Y11.5061 
G01 X24.3402 Y11.5946 
G01 X24.4028 Y11.7031 
G01 X24.4351 Y11.8240 
G01 X24.4351 Y13.5760 
G01 X24.4028 Y13.6969 
G01 X24.3402 Y13.8054 
G01 X24.2517 Y13.8939 
G01 X24.1432 Y13.9565 
G01 X24.0927 Y13.9700 
G01 X24.1432 Y13.9835 
G01 X24.2517 Y14.0461 
G01 X24.3402 Y14.1346 
G01 X24.4028 Y14.2431 
G01 X24.4085 Y14.2646 
G01 X29.3061 Y14.2646 
G01 X29.4945 Y14.3021 
G01 X29.6720 Y14.3756 
G01 X29.8318 Y14.4824 
G01 X32.5076 Y17.1582 
G01 X32.6144 Y17.3180 
G01 X32.6879 Y17.4955 
G01 X32.7254 Y17.6839 
G01 X32.7254 Y17.8761 
G01 X32.6879 Y18.0645 
G01 X32.6144 Y18.2420 
G01 X32.5076 Y18.4018 
G01 X32.3718 Y18.5376 
G01 X32.2120 Y18.6444 
G01 X32.0345 Y18.7179 
G01 X31.8461 Y18.7554 
G01 X31.6539 Y18.7554 
G01 X31.4655 Y18.7179 
G01 X31.2880 Y18.6444 
G01 X31.1282 Y18.5376 
G01 X28.8060 Y16.2154 
G01 X24.4085 Y16.2154 
G01 X24.4028 Y16.2369 
G01 X24.3402 Y16.3453 
G01 X24.2517 Y16.4339 
G01 X24.1432 Y16.4964 
G01 X24.0223 Y16.5288 
G01 X20.1627 Y16.5288 
G01 X20.0418 Y16.4964 
G01 X19.9333 Y16.4339 
G01 X19.8448 Y16.3453 
G01 X19.7822 Y16.2369 
G01 X19.7499 Y16.1160 
G01 X19.7499 Y14.3640 
G01 X19.7822 Y14.2431 
G01 X19.8448 Y14.1346 
G01 X19.9333 Y14.0461 
G01 X20.0418 Y13.9835 
G01 X20.0923 Y13.9700 
G01 X20.0418 Y13.9565 
G01 X19.9333 Y13.8939 
G01 X19.8448 Y13.8054 
G01 X19.7822 Y13.6969 
G01 X19.7499 Y13.5760 
G01 X19.7499 Y11.8240 
G01 X19.7822 Y11.7031 
G01 X19.8448 Y11.5946 
G01 X19.9333 Y11.5061 
G01 X20.0418 Y11.4435 
G01 X20.0923 Y11.4300 
G01 X20.0418 Y11.4165 
G01 X19.9333 Y11.3539 
G01 X19.8448 Y11.2653 
G01 X19.7822 Y11.1569 
G01 X19.7499 Y11.0360 
G01 X19.7499 Y9.2840 
G01 X19.7822 Y9.1631 
G01 X19.8448 Y9.0546 
G01 X19.9333 Y8.9661 
G01 X20.0418 Y8.9035 
G01 X20.0923 Y8.8900 
G01 X20.0418 Y8.8765 
G01 X19.9333 Y8.8139 
G01 X19.8448 Y8.7254 
G01 X19.7822 Y8.6169 
G01 X19.7499 Y8.4960 
G01 X19.7499 Y6.7440 
G01 X19.7822 Y6.6231 
G01 X19.8448 Y6.5146 
G01 X19.9333 Y6.4261 
G01 X20.0418 Y6.3635 
G01 X20.1627 Y6.3312 
G01 X24.0223 Y6.3312 
G01 X24.1432 Y6.3635 
G01 X24.2517 Y6.4261 
G01 X24.3402 Y6.5146 
G01 X24.4028 Y6.6231 
G01 X24.4351 Y6.7440 
G01 X24.4351 Y6.7636 
G01 X30.1253 Y6.7636 
G01 X32.4741 Y4.4148 
G01 X32.6143 Y4.3211 
G01 X32.7702 Y4.2565 
G01 X32.9357 Y4.2236 
G01 X33.1043 Y4.2236 
G01 X33.2698 Y4.2565 
G01 X33.4257 Y4.3211 
G01 X33.5659 Y4.4148 
G01 X33.6852 Y4.5341 
G01 X33.7789 Y4.6743 
G01 X33.8435 Y4.8302 
G01 X33.8764 Y4.9957 
G01 X33.8764 Y5.1643 
G01 X33.8435 Y5.3298 
G01 X33.7789 Y5.4857 
G01 X33.6852 Y5.6259 
G00 Z2.4000 
G00 X15.8101 Y14.3640 
G01 Z-0.1000 F50.00 
G01 X15.8101 Y16.1160 F100.00 
G01 X15.7778 Y16.2369 
G01 X15.7152 Y16.3453 
G01 X15.6267 Y16.4339 
G01 X15.5182 Y16.4964 
G01 X15.3973 Y16.5288 
G01 X11.5377 Y16.5288 
G01 X11.4168 Y16.4964 
G01 X11.3083 Y16.4339 
G01 X11.2198 Y16.3453 
G01 X11.1572 Y16.2369 
G01 X11.1515 Y16.2154 
G01 X8.0240 Y16.2154 
G01 X4.4318 Y19.8076 
G01 X4.2720 Y19.9144 
G01 X4.0945 Y19.9879 
G01 X3.9061 Y20.0254 
G01 X3.7139 Y20.0254 
G01 X3.5255 Y19.9879 
G01 X3.3480 Y19.9144 
G01 X3.1882 Y19.8076 
G01 X3.0524 Y19.6718 
G01 X2.9456 Y19.5120 
G01 X2.8721 Y19.3345 
G01 X2.8346 Y19.1461 
G01 X2.8346 Y18.9539 
G01 X2.8721 Y18.7655 
G01 X2.9456 Y18.5880 
G01 X3.0524 Y18.4282 
G01 X6.9982 Y14.4824 
G01 X7.1580 Y14.3756 
G01 X7.3355 Y14.3021 
G01 X7.5239 Y14.2646 
G01 X11.1515 Y14.2646 
G01 X11.1572 Y14.2431 
G01 X11.2198 Y14.1346 
G01 X11.3083 Y14.0461 
G01 X11.4168 Y13.9835 
G01 X11.4673 Y13.9700 
G01 X11.4168 Y13.9565 
G01 X11.3083 Y13.8939 
G01 X11.2198 Y13.8054 
G01 X11.1572 Y13.6969 
G01 X11.1249 Y13.5760 
G01 X11.1249 Y11.8240 
G01 X11.1572 Y11.7031 
G01 X11.2198 Y11.5946 
G01 X11.3083 Y11.5061 
G01 X11.4168 Y11.4435 
G01 X11.4673 Y11.4300 
G01 X11.4168 Y11.4165 
G01 X11.3083 Y11.3539 
G01 X11.2198 Y11.2653 
G01 X11.1572 Y11.1569 
G01 X11.1249 Y11.0360 
G01 X11.1249 Y9.2840 
G01 X11.1572 Y9.1631 
G01 X11.2198 Y9.0546 
G01 X11.3083 Y8.9661 
G01 X11.4168 Y8.9035 
G01 X11.4673 Y8.8900 
G01 X11.4168 Y8.8765 
G01 X11.3083 Y8.8139 
G01 X11.2198 Y8.7254 
G01 X11.1572 Y8.6169 
G01 X11.1515 Y8.5954 
G01 X8.7939 Y8.5954 
G01 X8.6055 Y8.5579 
G01 X8.4280 Y8.4844 
G01 X8.2682 Y8.3776 
G01 X3.0524 Y3.1618 
G01 X2.9456 Y3.0020 
G01 X2.8721 Y2.8245 
G01 X2.8346 Y2.6361 
G01 X2.8346 Y2.4439 
G01 X2.8721 Y2.2555 
G01 X2.9456 Y2.0780 
G01 X3.0524 Y1.9182 
G01 X3.1882 Y1.7824 
G01 X3.3480 Y1.6756 
G01 X3.5255 Y1.6021 
G01 X3.7139 Y1.5646 
G01 X3.9061 Y1.5646 
G01 X4.0945 Y1.6021 
G01 X4.2720 Y1.6756 
G01 X4.4318 Y1.7824 
G01 X9.2940 Y6.6446 
G01 X11.1515 Y6.6446 
G01 X11.1572 Y6.6231 
G01 X11.2198 Y6.5146 
G01 X11.3083 Y6.4261 
G01 X11.4168 Y6.3635 
G01 X11.5377 Y6.3312 
G01 X15.3973 Y6.3312 
G01 X15.5182 Y6.3635 
G01 X15.6267 Y6.4261 
G01 X15.7152 Y6.5146 
G01 X15.7778 Y6.6231 
G01 X15.8101 Y6.7440 
G01 X15.8101 Y8.4960 
G01 X15.7778 Y8.6169 
G01 X15.7152 Y8.7254 
G01 X15.6267 Y8.8139 
G01 X15.5182 Y8.8765 
G01 X15.4677 Y8.8900 
G01 X15.5182 Y8.9035 
G01 X15.6267 Y8.9661 
G01 X15.7152 Y9.0546 
G01 X15.7778 Y9.1631 
G01 X15.8101 Y9.2840 
G01 X15.8101 Y11.0360 
G01 X15.7778 Y11.1569 
G01 X15.7152 Y11.2653 
G01 X15.6267 Y11.3539 
G01 X15.5182 Y11.4165 
G01 X15.4677 Y11.4300 
G01 X15.5182 Y11.4435 
G01 X15.6267 Y11.5061 
G01 X15.7152 Y11.5946 
G01 X15.7778 Y11.7031 
G01 X15.8101 Y11.8240 
G01 X15.8101 Y13.5760 
G01 X15.7778 Y13.6969 
G01 X15.7152 Y13.8054 
G01 X15.6267 Y13.8939 
G01 X15.5182 Y13.9565 
G01 X15.4677 Y13.9700 
G01 X15.5182 Y13.9835 
G01 X15.6267 Y14.0461 
G01 X15.7152 Y14.1346 
G01 X15.7778 Y14.2431 
G01 X15.8101 Y14.3640 
G00 Z2.4000 
G00 Z12.7000 
M05
M02
