(.../pcb-gcode-3.6.0.4/pcb-gcode.ulp)
(Copyright 2005 - 2012 by John Johnson)
(See readme.txt for licensing terms.)
(This file generated from the board:)
(.../projects/Cart top solution/Raspi.brd)
(Current profile is .../pcb-gcode-3.6.0.4/profiles/generic.pp  )
(This file generated 11-Jul-19 11:02)
(Settings from pcb-machine.h)
(  Tool Size)
(0.3000 )
(Z Axis Settings)
(  High     Up        Down     Drill)
(12.7000 	2.4000 	-0.1000 	-1.7000 )
(spindle on time = 3.0000)
(milling depth = -0.2540)
(text depth = -0.1270)
(tool change at 0.0000 -12.0000 20.0000 )
(feed rate xy = F100.00 )
(feed rate z  = F50.00 )
(Settings from pcb-defaults.h)
(isolate min = 0.0254)
(isolate max = 0.3000)
(isolate step = 0.1000)
(Generated top outlines, top drill, )
(Unit of measure: mm)
(Metric Mode)
G21
(Absolute Coordinates)
G90
G00 X0.0000 Y0.0000 
M03
G04 P3.000000
G00 Z2.4000 
G00 X65.6035 Y57.3608 
G01 Z-0.1000 F50.00 
G01 X64.7892 Y57.0235 F100.00 
G01 X63.9077 Y57.0235 
G01 X63.0934 Y57.3608 
G01 X62.4702 Y57.9841 
G01 X62.1329 Y58.7984 
G01 X62.1329 Y59.6798 
G01 X62.4702 Y60.4942 
G01 X63.0934 Y61.1174 
G01 X63.9077 Y61.4547 
G01 X64.7892 Y61.4547 
G01 X65.6035 Y61.1174 
G01 X66.2268 Y60.4942 
G01 X66.5641 Y59.6798 
G01 X66.5641 Y58.7984 
G01 X66.2268 Y57.9841 
G01 X65.6035 Y57.3608 
G00 Z2.4000 
G00 X87.5074 Y32.8406 
G01 Z-0.1000 F50.00 
G01 X87.9578 Y32.8406 F100.00 
G01 X88.0503 Y32.8789 
G01 X88.1211 Y32.9497 
G01 X88.1594 Y33.0421 
G01 X88.1594 Y40.9578 
G01 X88.1211 Y41.0503 
G01 X88.0503 Y41.1211 
G01 X87.9578 Y41.1594 
G01 X78.4726 Y41.1594 
G01 X78.1636 Y41.2874 
G01 X77.9272 Y41.5238 
G01 X77.7992 Y41.8328 
G01 X77.7992 Y53.3693 
G01 X77.7609 Y53.4618 
G01 X77.6901 Y53.5326 
G01 X77.4236 Y53.7991 
G01 X77.2052 Y54.3264 
G01 X77.2052 Y56.8471 
G01 X77.4236 Y57.3744 
G01 X77.8272 Y57.7779 
G01 X78.3544 Y57.9963 
G01 X78.9251 Y57.9963 
G01 X79.4524 Y57.7779 
G01 X79.8560 Y57.3744 
G01 X80.0744 Y56.8471 
G01 X80.0744 Y54.3264 
G01 X79.8560 Y53.7991 
G01 X79.5187 Y53.4618 
G01 X79.4804 Y53.3693 
G01 X79.4804 Y43.0421 
G01 X79.5187 Y42.9497 
G01 X79.5895 Y42.8789 
G01 X79.6819 Y42.8406 
G01 X89.1672 Y42.8406 
G01 X89.4762 Y42.7126 
G01 X89.7126 Y42.4762 
G01 X89.8406 Y42.1672 
G01 X89.8406 Y31.8328 
G01 X89.7126 Y31.5238 
G01 X89.4762 Y31.2874 
G01 X89.1672 Y31.1594 
G01 X87.0677 Y31.1594 
G01 X87.0305 Y31.1440 
G01 X86.9753 Y31.1211 
G01 X86.9045 Y31.0503 
G01 X86.8768 Y31.0226 
G01 X86.3403 Y30.8004 
G01 X85.7597 Y30.8004 
G01 X85.2232 Y31.0226 
G01 X84.8126 Y31.4332 
G01 X84.5904 Y31.9697 
G01 X84.5904 Y32.5503 
G01 X84.8126 Y33.0868 
G01 X85.2232 Y33.4974 
G01 X85.7597 Y33.7196 
G01 X86.3403 Y33.7196 
G01 X86.8768 Y33.4974 
G01 X87.2874 Y33.0868 
G01 X87.3442 Y32.9497 
G01 X87.4150 Y32.8789 
G01 X87.4176 Y32.8778 
G01 X87.5074 Y32.8406 
G00 Z2.4000 
G00 X79.7902 Y54.5212 
G01 Z-0.1000 F50.00 
G01 X79.7902 Y56.6523 F100.00 
G01 X79.7619 Y56.8311 
G01 X79.7059 Y57.0033 
G01 X79.6237 Y57.1647 
G01 X79.5173 Y57.3112 
G01 X79.3892 Y57.4392 
G01 X79.2427 Y57.5456 
G01 X79.0814 Y57.6278 
G01 X78.9092 Y57.6838 
G01 X78.7303 Y57.7121 
G01 X78.5493 Y57.7121 
G01 X78.3704 Y57.6838 
G01 X78.1982 Y57.6278 
G01 X78.0368 Y57.5456 
G01 X77.8904 Y57.4392 
G01 X77.7623 Y57.3112 
G01 X77.6559 Y57.1647 
G01 X77.5737 Y57.0033 
G01 X77.5177 Y56.8311 
G01 X77.4894 Y56.6523 
G01 X77.4894 Y54.5212 
G01 X77.5177 Y54.3423 
G01 X77.5737 Y54.1701 
G01 X77.6559 Y54.0088 
G01 X77.7623 Y53.8623 
G01 X77.8904 Y53.7343 
G01 X78.0368 Y53.6278 
G01 X78.0834 Y53.6041 
G01 X78.0834 Y41.9267 
G01 X78.1213 Y41.7852 
G01 X78.1946 Y41.6584 
G01 X78.2982 Y41.5548 
G01 X78.4250 Y41.4815 
G01 X78.5665 Y41.4436 
G01 X88.4436 Y41.4436 
G01 X88.4436 Y32.5564 
G01 X87.1896 Y32.5564 
G01 X87.1393 Y32.7112 
G01 X87.0553 Y32.8760 
G01 X86.9465 Y33.0257 
G01 X86.8157 Y33.1565 
G01 X86.6660 Y33.2653 
G01 X86.5012 Y33.3493 
G01 X86.3252 Y33.4065 
G01 X86.1425 Y33.4354 
G01 X85.9575 Y33.4354 
G01 X85.7748 Y33.4065 
G01 X85.5988 Y33.3493 
G01 X85.4340 Y33.2653 
G01 X85.2843 Y33.1565 
G01 X85.1535 Y33.0257 
G01 X85.0447 Y32.8760 
G01 X84.9607 Y32.7112 
G01 X84.9035 Y32.5352 
G01 X84.8746 Y32.3525 
G01 X84.8746 Y32.1675 
G01 X84.9035 Y31.9848 
G01 X84.9607 Y31.8088 
G01 X85.0447 Y31.6440 
G01 X85.1535 Y31.4943 
G01 X85.2843 Y31.3635 
G01 X85.4340 Y31.2547 
G01 X85.5988 Y31.1707 
G01 X85.7748 Y31.1135 
G01 X85.9575 Y31.0846 
G01 X86.1425 Y31.0846 
G01 X86.3252 Y31.1135 
G01 X86.5012 Y31.1707 
G01 X86.6660 Y31.2547 
G01 X86.8157 Y31.3635 
G01 X86.8959 Y31.4436 
G01 X89.0733 Y31.4436 
G01 X89.2148 Y31.4815 
G01 X89.3416 Y31.5548 
G01 X89.4452 Y31.6584 
G01 X89.5185 Y31.7852 
G01 X89.5564 Y31.9267 
G01 X89.5564 Y42.0733 
G01 X89.5185 Y42.2148 
G01 X89.4452 Y42.3416 
G01 X89.3416 Y42.4452 
G01 X89.2148 Y42.5185 
G01 X89.0733 Y42.5564 
G01 X79.1962 Y42.5564 
G01 X79.1962 Y53.6041 
G01 X79.2427 Y53.6278 
G01 X79.3892 Y53.7343 
G01 X79.5173 Y53.8623 
G01 X79.6237 Y54.0088 
G01 X79.7059 Y54.1701 
G01 X79.7619 Y54.3423 
G01 X79.7902 Y54.5212 
G00 Z2.4000 
G00 X96.3829 Y37.3708 
G01 Z-0.1000 F50.00 
G01 X95.9472 Y36.9350 F100.00 
G01 X95.4134 Y36.6269 
G01 X94.8181 Y36.4674 
G01 X94.2019 Y36.4674 
G01 X93.6065 Y36.6269 
G01 X93.0728 Y36.9350 
G01 X92.6370 Y37.3708 
G01 X92.3289 Y37.9045 
G01 X92.1694 Y38.4999 
G01 X92.1694 Y39.1161 
G01 X92.3289 Y39.7114 
G01 X92.6370 Y40.2452 
G01 X93.0728 Y40.6809 
G01 X93.6065 Y40.9891 
G01 X94.2019 Y41.1486 
G01 X94.8181 Y41.1486 
G01 X95.4134 Y40.9891 
G01 X95.9472 Y40.6809 
G01 X96.3829 Y40.2452 
G01 X96.6911 Y39.7114 
G01 X96.8506 Y39.1161 
G01 X96.8506 Y38.4999 
G01 X96.6911 Y37.9045 
G01 X96.3829 Y37.3708 
G00 Z2.4000 
G00 X111.6229 Y7.6528 
G01 Z-0.1000 F50.00 
G01 X111.1872 Y7.2170 F100.00 
G01 X110.6534 Y6.9089 
G01 X110.0581 Y6.7494 
G01 X109.4419 Y6.7494 
G01 X108.8465 Y6.9089 
G01 X108.3128 Y7.2170 
G01 X107.8770 Y7.6528 
G01 X107.5689 Y8.1865 
G01 X107.4094 Y8.7819 
G01 X107.4094 Y9.3981 
G01 X107.5689 Y9.9934 
G01 X107.8770 Y10.5272 
G01 X108.3128 Y10.9629 
G01 X108.8465 Y11.2711 
G01 X109.4419 Y11.4306 
G01 X110.0581 Y11.4306 
G01 X110.6534 Y11.2711 
G01 X111.1872 Y10.9629 
G01 X111.6229 Y10.5272 
G01 X111.9311 Y9.9934 
G01 X112.0906 Y9.3981 
G01 X112.0906 Y8.7819 
G01 X111.9311 Y8.1865 
G01 X111.6229 Y7.6528 
G00 Z2.4000 
G00 X91.8406 Y46.1489 
G01 Z-0.1000 F50.00 
G01 X91.8406 Y46.1489 F100.00 
G01 X91.8406 Y46.0989 
G01 X91.8406 Y46.0489 
G01 X91.8591 Y46.0043 
G01 X91.8789 Y45.9564 
G01 X91.9143 Y45.9210 
G01 X91.9497 Y45.8856 
G01 X91.9956 Y45.8666 
G01 X92.0421 Y45.8473 
G01 X92.0922 Y45.8473 
G01 X92.1422 Y45.8473 
G01 X92.1526 Y45.8516 
G01 X94.8354 Y45.8516 
G01 X95.0043 Y45.7816 
G01 X95.1336 Y45.6523 
G01 X95.2036 Y45.4834 
G01 X95.2036 Y42.8006 
G01 X95.1336 Y42.6317 
G01 X95.0043 Y42.5024 
G01 X94.8354 Y42.4324 
G01 X92.1526 Y42.4324 
G01 X91.9837 Y42.5024 
G01 X91.8544 Y42.6317 
G01 X91.7844 Y42.8006 
G01 X91.7844 Y42.9578 
G01 X91.7461 Y43.0503 
G01 X91.6753 Y43.1211 
G01 X91.5828 Y43.1594 
G01 X90.8328 Y43.1594 
G01 X90.5238 Y43.2874 
G01 X90.2874 Y43.5238 
G01 X90.1594 Y43.8328 
G01 X90.1594 Y46.6352 
G01 X90.1211 Y46.7277 
G01 X90.0503 Y46.7985 
G01 X89.9578 Y46.8368 
G01 X89.5527 Y47.0046 
G01 X89.1162 Y47.4411 
G01 X88.8800 Y48.0115 
G01 X88.8800 Y48.6288 
G01 X89.1162 Y49.1992 
G01 X89.5527 Y49.6357 
G01 X90.1231 Y49.8719 
G01 X92.9248 Y49.8719 
G01 X93.4952 Y49.6357 
G01 X93.9317 Y49.1992 
G01 X94.1680 Y48.6288 
G01 X94.1680 Y48.0115 
G01 X93.9317 Y47.4411 
G01 X93.4952 Y47.0046 
G01 X92.9248 Y46.7683 
G01 X92.0421 Y46.7683 
G01 X91.9497 Y46.7300 
G01 X91.8789 Y46.6593 
G01 X91.8406 Y46.5668 
G01 X91.8406 Y46.4667 
G01 X91.8406 Y46.1489 
G00 Z2.4000 
G00 X92.2091 Y42.7166 
G01 Z-0.1000 F50.00 
G01 X94.7789 Y42.7166 F100.00 
G01 X94.8434 Y42.7433 
G01 X94.8927 Y42.7926 
G01 X94.9194 Y42.8571 
G01 X94.9194 Y45.4269 
G01 X94.8927 Y45.4914 
G01 X94.8434 Y45.5407 
G01 X94.7789 Y45.5674 
G01 X92.2091 Y45.5674 
G01 X92.1446 Y45.5407 
G01 X92.0953 Y45.4914 
G01 X92.0686 Y45.4269 
G01 X92.0686 Y44.5564 
G01 X91.5564 Y44.5564 
G01 X91.5564 Y47.0525 
G01 X92.7159 Y47.0525 
G01 X92.9130 Y47.0838 
G01 X93.1027 Y47.1454 
G01 X93.2805 Y47.2360 
G01 X93.4419 Y47.3533 
G01 X93.5830 Y47.4944 
G01 X93.7003 Y47.6558 
G01 X93.7909 Y47.8336 
G01 X93.8525 Y48.0233 
G01 X93.8838 Y48.2204 
G01 X93.8838 Y48.4199 
G01 X93.8525 Y48.6170 
G01 X93.7909 Y48.8067 
G01 X93.7003 Y48.9845 
G01 X93.5830 Y49.1459 
G01 X93.4419 Y49.2870 
G01 X93.2805 Y49.4043 
G01 X93.1027 Y49.4949 
G01 X92.9130 Y49.5565 
G01 X92.7159 Y49.5877 
G01 X90.3320 Y49.5877 
G01 X90.1349 Y49.5565 
G01 X89.9452 Y49.4949 
G01 X89.7674 Y49.4043 
G01 X89.6060 Y49.2870 
G01 X89.4649 Y49.1459 
G01 X89.3476 Y48.9845 
G01 X89.2570 Y48.8067 
G01 X89.1954 Y48.6170 
G01 X89.1642 Y48.4199 
G01 X89.1642 Y48.2204 
G01 X89.1954 Y48.0233 
G01 X89.2570 Y47.8336 
G01 X89.3476 Y47.6558 
G01 X89.4649 Y47.4944 
G01 X89.6060 Y47.3533 
G01 X89.7674 Y47.2360 
G01 X89.9452 Y47.1454 
G01 X90.1349 Y47.0838 
G01 X90.3320 Y47.0525 
G01 X90.4436 Y47.0525 
G01 X90.4436 Y43.9267 
G01 X90.4815 Y43.7852 
G01 X90.5548 Y43.6584 
G01 X90.6584 Y43.5548 
G01 X90.7852 Y43.4815 
G01 X90.9267 Y43.4436 
G01 X92.0686 Y43.4436 
G01 X92.0686 Y42.8571 
G01 X92.0953 Y42.7926 
G01 X92.1446 Y42.7433 
G01 X92.2091 Y42.7166 
G00 Z2.4000 
G00 X64.7892 Y8.0235 
G01 Z-0.1000 F50.00 
G01 X63.9077 Y8.0235 F100.00 
G01 X63.0934 Y8.3608 
G01 X62.4702 Y8.9841 
G01 X62.1329 Y9.7984 
G01 X62.1329 Y10.6798 
G01 X62.4702 Y11.4942 
G01 X63.0934 Y12.1174 
G01 X63.9077 Y12.4547 
G01 X64.7892 Y12.4547 
G01 X65.6035 Y12.1174 
G01 X66.2268 Y11.4942 
G01 X66.5641 Y10.6798 
G01 X66.5641 Y9.7984 
G01 X66.2268 Y8.9841 
G01 X65.6035 Y8.3608 
G01 X64.7892 Y8.0235 
G00 Z2.4000 
G00 X7.6035 Y57.3608 
G01 Z-0.1000 F50.00 
G01 X6.7892 Y57.0235 F100.00 
G01 X5.9077 Y57.0235 
G01 X5.0934 Y57.3608 
G01 X4.4702 Y57.9841 
G01 X4.1329 Y58.7984 
G01 X4.1329 Y59.6798 
G01 X4.4702 Y60.4942 
G01 X5.0934 Y61.1174 
G01 X5.9077 Y61.4547 
G01 X6.7892 Y61.4547 
G01 X7.6035 Y61.1174 
G01 X8.2268 Y60.4942 
G01 X8.5641 Y59.6798 
G01 X8.5641 Y58.7984 
G01 X8.2268 Y57.9841 
G01 X7.6035 Y57.3608 
G00 Z2.4000 
G00 X7.6035 Y8.3608 
G01 Z-0.1000 F50.00 
G01 X6.7892 Y8.0235 F100.00 
G01 X5.9077 Y8.0235 
G01 X5.0934 Y8.3608 
G01 X4.4702 Y8.9841 
G01 X4.1329 Y9.7984 
G01 X4.1329 Y10.6798 
G01 X4.4702 Y11.4942 
G01 X5.0934 Y12.1174 
G01 X5.9077 Y12.4547 
G01 X6.7892 Y12.4547 
G01 X7.6035 Y12.1174 
G01 X8.2268 Y11.4942 
G01 X8.5641 Y10.6798 
G01 X8.5641 Y9.7984 
G01 X8.2268 Y8.9841 
G01 X7.6035 Y8.3608 
G00 Z2.4000 
G00 X35.9186 Y33.9526 
G01 Z-0.1000 F50.00 
G01 X35.8486 Y33.7837 F100.00 
G01 X35.7193 Y33.6544 
G01 X35.5504 Y33.5844 
G01 X33.3676 Y33.5844 
G01 X33.1987 Y33.6544 
G01 X33.0694 Y33.7837 
G01 X32.9994 Y33.9526 
G01 X32.9994 Y36.1354 
G01 X33.0143 Y36.1715 
G01 X33.0498 Y36.2572 
G01 X33.0526 Y36.2639 
G01 X33.0526 Y36.3640 
G01 X32.9994 Y36.4926 
G01 X32.9994 Y38.6754 
G01 X33.0694 Y38.8443 
G01 X33.1987 Y38.9736 
G01 X33.3676 Y39.0436 
G01 X33.4168 Y39.0436 
G01 X33.5093 Y39.0819 
G01 X33.5801 Y39.1527 
G01 X33.6184 Y39.2451 
G01 X33.6184 Y42.6262 
G01 X33.7464 Y42.9352 
G01 X34.5057 Y43.6945 
G01 X34.5626 Y43.7514 
G01 X34.5765 Y43.7653 
G01 X34.6148 Y43.8578 
G01 X34.6148 Y43.9578 
G01 X34.5776 Y44.0477 
G01 X34.5765 Y44.0503 
G01 X34.5057 Y44.1211 
G01 X34.4132 Y44.1594 
G01 X30.0421 Y44.1594 
G01 X29.9497 Y44.1211 
G01 X29.8789 Y44.0503 
G01 X29.8406 Y43.9578 
G01 X29.8406 Y25.4181 
G01 X29.8789 Y25.3257 
G01 X29.9497 Y25.2549 
G01 X30.0421 Y25.2166 
G01 X33.1812 Y25.2166 
G01 X33.2737 Y25.2549 
G01 X33.3445 Y25.3257 
G01 X33.5223 Y25.5035 
G01 X33.5606 Y25.5960 
G01 X33.5606 Y25.6960 
G01 X33.5223 Y25.7885 
G01 X33.4515 Y25.8593 
G01 X33.2216 Y26.0892 
G01 X32.9994 Y26.6257 
G01 X32.9994 Y27.2063 
G01 X33.2216 Y27.7428 
G01 X33.6322 Y28.1534 
G01 X34.1687 Y28.3756 
G01 X34.7493 Y28.3756 
G01 X35.2858 Y28.1534 
G01 X35.6964 Y27.7428 
G01 X35.9186 Y27.2063 
G01 X35.9186 Y26.6257 
G01 X35.6964 Y26.0892 
G01 X35.4665 Y25.8593 
G01 X35.3986 Y25.7914 
G01 X35.3957 Y25.7885 
G01 X35.3574 Y25.6960 
G01 X35.3574 Y25.5960 
G01 X35.3957 Y25.5035 
G01 X35.4654 Y25.4338 
G01 X35.6964 Y25.2028 
G01 X35.9186 Y24.6663 
G01 X35.9186 Y24.0857 
G01 X35.6964 Y23.5492 
G01 X35.2858 Y23.1386 
G01 X34.7493 Y22.9164 
G01 X34.1687 Y22.9164 
G01 X33.6322 Y23.1386 
G01 X33.2737 Y23.4971 
G01 X33.1812 Y23.5354 
G01 X28.8328 Y23.5354 
G01 X28.5238 Y23.6634 
G01 X28.2874 Y23.8998 
G01 X28.1594 Y24.2088 
G01 X28.1594 Y45.1672 
G01 X28.2874 Y45.4762 
G01 X28.5238 Y45.7126 
G01 X28.8328 Y45.8406 
G01 X68.9578 Y45.8406 
G01 X69.0503 Y45.8789 
G01 X69.1211 Y45.9497 
G01 X69.1594 Y46.0421 
G01 X69.1594 Y60.1672 
G01 X69.2874 Y60.4762 
G01 X69.5238 Y60.7126 
G01 X69.8328 Y60.8406 
G01 X82.1672 Y60.8406 
G01 X82.4762 Y60.7126 
G01 X82.7126 Y60.4762 
G01 X82.8406 Y60.1672 
G01 X82.8406 Y58.0421 
G01 X82.8789 Y57.9497 
G01 X82.9497 Y57.8789 
G01 X83.0421 Y57.8406 
G01 X109.1672 Y57.8406 
G01 X109.4762 Y57.7126 
G01 X109.7126 Y57.4762 
G01 X109.8406 Y57.1672 
G01 X109.8406 Y53.0421 
G01 X109.8789 Y52.9497 
G01 X109.9497 Y52.8789 
G01 X110.0421 Y52.8406 
G01 X114.1672 Y52.8406 
G01 X114.4762 Y52.7126 
G01 X114.7126 Y52.4762 
G01 X114.8406 Y52.1672 
G01 X114.8406 Y4.3508 
G01 X114.7126 Y4.0418 
G01 X114.4762 Y3.8054 
G01 X114.1672 Y3.6774 
G01 X112.6771 Y3.6774 
G01 X112.5847 Y3.6391 
G01 X112.5139 Y3.5683 
G01 X112.4756 Y3.4758 
G01 X112.4756 Y3.1766 
G01 X112.4056 Y3.0077 
G01 X112.2763 Y2.8784 
G01 X112.1074 Y2.8084 
G01 X109.4246 Y2.8084 
G01 X109.2557 Y2.8784 
G01 X109.1264 Y3.0076 
G01 X109.1175 Y3.0291 
G01 X109.1087 Y3.0503 
G01 X109.0619 Y3.0971 
G01 X109.0379 Y3.1211 
G01 X108.9892 Y3.1413 
G01 X108.9455 Y3.1594 
G01 X108.8960 Y3.1594 
G01 X108.8454 Y3.1594 
G01 X102.8328 Y3.1594 
G01 X102.5238 Y3.2874 
G01 X102.2874 Y3.5238 
G01 X102.1594 Y3.8328 
G01 X102.1594 Y5.7418 
G01 X102.1211 Y5.8343 
G01 X102.0503 Y5.9051 
G01 X101.9578 Y5.9434 
G01 X95.4051 Y5.9434 
G01 X95.3127 Y5.9051 
G01 X95.2419 Y5.8343 
G01 X95.2036 Y5.7418 
G01 X95.2036 Y3.1766 
G01 X95.1336 Y3.0077 
G01 X95.0043 Y2.8784 
G01 X94.8354 Y2.8084 
G01 X92.1526 Y2.8084 
G01 X91.9837 Y2.8784 
G01 X91.8544 Y3.0077 
G01 X91.7844 Y3.1766 
G01 X91.7844 Y5.0345 
G01 X91.7626 Y5.0872 
G01 X91.6534 Y5.3508 
G01 X91.6534 Y15.3548 
G01 X91.6151 Y15.4473 
G01 X91.5443 Y15.5181 
G01 X91.4518 Y15.5564 
G01 X76.8328 Y15.5564 
G01 X76.5238 Y15.6844 
G01 X76.3055 Y15.9027 
G01 X76.2375 Y15.9707 
G01 X76.2347 Y15.9735 
G01 X76.1422 Y16.0118 
G01 X76.0421 Y16.0118 
G01 X75.9497 Y15.9735 
G01 X75.8800 Y15.9038 
G01 X75.8406 Y15.8102 
G01 X75.8406 Y11.0421 
G01 X75.8789 Y10.9497 
G01 X75.9497 Y10.8789 
G01 X76.0421 Y10.8406 
G01 X81.3372 Y10.8406 
G01 X81.6462 Y10.7126 
G01 X81.6945 Y10.6643 
G01 X81.7623 Y10.5964 
G01 X81.7653 Y10.5935 
G01 X81.8184 Y10.5715 
G01 X81.8577 Y10.5552 
G01 X81.9578 Y10.5552 
G01 X81.9951 Y10.5706 
G01 X82.0503 Y10.5935 
G01 X82.1211 Y10.6643 
G01 X82.1431 Y10.7173 
G01 X82.1594 Y10.7567 
G01 X82.1594 Y13.0472 
G01 X82.2874 Y13.3562 
G01 X82.5238 Y13.5926 
G01 X82.8328 Y13.7206 
G01 X83.8511 Y13.7206 
G01 X83.9435 Y13.7589 
G01 X84.0143 Y13.8297 
G01 X84.3624 Y14.1778 
G01 X85.4376 Y14.1778 
G01 X86.1978 Y13.4176 
G01 X86.1978 Y12.3424 
G01 X85.4376 Y11.5822 
G01 X84.3624 Y11.5822 
G01 X84.3055 Y11.6391 
G01 X84.2365 Y11.7081 
G01 X84.1422 Y11.7482 
G01 X84.0421 Y11.7482 
G01 X83.9497 Y11.7099 
G01 X83.8800 Y11.6402 
G01 X83.8406 Y11.5467 
G01 X83.8406 Y4.0533 
G01 X83.8789 Y3.9609 
G01 X83.9497 Y3.8901 
G01 X84.0421 Y3.8518 
G01 X84.1422 Y3.8518 
G01 X84.2347 Y3.8901 
G01 X84.3055 Y3.9609 
G01 X84.3624 Y4.0178 
G01 X85.4376 Y4.0178 
G01 X86.1978 Y3.2576 
G01 X86.1978 Y2.1824 
G01 X85.7789 Y1.7635 
G01 X85.7406 Y1.6711 
G01 X85.7406 Y1.2809 
G01 X85.7173 Y1.2247 
G01 X85.7024 Y1.1886 
G01 X85.6790 Y1.1322 
G01 X85.6790 Y1.0321 
G01 X85.7012 Y0.9788 
G01 X85.7173 Y0.9397 
G01 X85.7881 Y0.8689 
G01 X85.8412 Y0.8469 
G01 X85.8806 Y0.8306 
G01 X115.2459 Y0.8306 
G01 X115.2962 Y0.8306 
G01 X115.3458 Y0.8306 
G01 X115.3920 Y0.8498 
G01 X115.4383 Y0.8689 
G01 X115.4731 Y0.9038 
G01 X115.5090 Y0.9397 
G01 X115.5280 Y0.9855 
G01 X115.5473 Y1.0321 
G01 X115.5473 Y1.0821 
G01 X115.5473 Y1.1322 
G01 X115.4321 Y61.9475 
G01 X115.4321 Y61.9965 
G01 X115.4129 Y62.0428 
G01 X115.3937 Y62.0890 
G01 X115.3588 Y62.1239 
G01 X115.3230 Y62.1598 
G01 X115.2771 Y62.1788 
G01 X115.2305 Y62.1981 
G01 X115.1800 Y62.1981 
G01 X1.0646 Y62.1981 
G01 X1.0144 Y62.1981 
G01 X0.9648 Y62.1981 
G01 X0.9186 Y62.1789 
G01 X0.8723 Y62.1598 
G01 X0.8374 Y62.1249 
G01 X0.8016 Y62.0890 
G01 X0.7826 Y62.0432 
G01 X0.7632 Y61.9965 
G01 X0.7632 Y61.9466 
G01 X0.7632 Y61.8964 
G01 X0.8785 Y1.0812 
G01 X0.8785 Y1.0321 
G01 X0.8977 Y0.9859 
G01 X0.9168 Y0.9397 
G01 X0.9517 Y0.9048 
G01 X0.9876 Y0.8689 
G01 X1.0334 Y0.8499 
G01 X1.0801 Y0.8306 
G01 X1.1306 Y0.8306 
G01 X1.4064 Y0.8306 
G01 X1.4436 Y0.8460 
G01 X1.4989 Y0.8689 
G01 X1.5697 Y0.9397 
G01 X1.5852 Y0.9772 
G01 X1.6080 Y1.0321 
G01 X1.6080 Y1.1322 
G01 X1.5859 Y1.1855 
G01 X1.5697 Y1.2247 
G01 X1.5464 Y1.2809 
G01 X1.5464 Y17.7702 
G01 X1.6744 Y18.0792 
G01 X1.9108 Y18.3156 
G01 X2.2198 Y18.4436 
G01 X46.1172 Y18.4436 
G01 X46.4262 Y18.3156 
G01 X46.6626 Y18.0792 
G01 X46.7906 Y17.7702 
G01 X46.7906 Y14.7924 
G01 X46.8289 Y14.6999 
G01 X46.8997 Y14.6291 
G01 X47.2571 Y14.2717 
G01 X47.4935 Y14.0353 
G01 X47.6215 Y13.7263 
G01 X47.6215 Y12.7257 
G01 X47.6598 Y12.6332 
G01 X47.7306 Y12.5624 
G01 X47.8376 Y12.4554 
G01 X47.9084 Y12.3846 
G01 X48.0009 Y12.3463 
G01 X48.1010 Y12.3463 
G01 X48.1934 Y12.3846 
G01 X48.4420 Y12.6332 
G01 X48.4803 Y12.7257 
G01 X48.4803 Y19.1672 
G01 X48.6083 Y19.4762 
G01 X48.8447 Y19.7126 
G01 X49.1537 Y19.8406 
G01 X51.9588 Y19.8406 
G01 X52.0513 Y19.8789 
G01 X52.1221 Y19.9497 
G01 X52.1604 Y20.0421 
G01 X52.1604 Y23.0982 
G01 X52.1221 Y23.1907 
G01 X52.0513 Y23.2615 
G01 X51.7636 Y23.5492 
G01 X51.5414 Y24.0857 
G01 X51.5414 Y24.6663 
G01 X51.7636 Y25.2028 
G01 X51.9935 Y25.4327 
G01 X52.0614 Y25.5006 
G01 X52.0643 Y25.5035 
G01 X52.1026 Y25.5959 
G01 X52.1026 Y25.6960 
G01 X52.0643 Y25.7885 
G01 X51.9946 Y25.8582 
G01 X51.7636 Y26.0892 
G01 X51.5414 Y26.6257 
G01 X51.5414 Y27.2063 
G01 X51.7636 Y27.7428 
G01 X52.1742 Y28.1534 
G01 X52.7107 Y28.3756 
G01 X53.2913 Y28.3756 
G01 X53.8278 Y28.1534 
G01 X54.2384 Y27.7428 
G01 X54.4606 Y27.2063 
G01 X54.4606 Y26.6257 
G01 X54.2384 Y26.0892 
G01 X53.9377 Y25.7885 
G01 X53.8994 Y25.6960 
G01 X53.8994 Y25.5959 
G01 X53.9377 Y25.5035 
G01 X54.0085 Y25.4327 
G01 X54.2384 Y25.2028 
G01 X54.4606 Y24.6663 
G01 X54.4606 Y24.0857 
G01 X54.2384 Y23.5492 
G01 X53.9507 Y23.2615 
G01 X53.8865 Y23.1973 
G01 X53.8799 Y23.1907 
G01 X53.8416 Y23.0982 
G01 X53.8416 Y18.8328 
G01 X53.7136 Y18.5238 
G01 X53.4772 Y18.2874 
G01 X53.1682 Y18.1594 
G01 X50.3631 Y18.1594 
G01 X50.2706 Y18.1211 
G01 X50.1998 Y18.0503 
G01 X50.1615 Y17.9578 
G01 X50.1615 Y12.7257 
G01 X50.1998 Y12.6332 
G01 X50.2706 Y12.5624 
G01 X50.3776 Y12.4554 
G01 X50.4459 Y12.3872 
G01 X50.5409 Y12.3463 
G01 X50.6410 Y12.3463 
G01 X50.7334 Y12.3846 
G01 X51.0682 Y12.7194 
G01 X51.5826 Y12.9325 
G01 X52.1393 Y12.9325 
G01 X52.6536 Y12.7194 
G01 X52.9884 Y12.3846 
G01 X53.0809 Y12.3463 
G01 X53.1810 Y12.3463 
G01 X53.2734 Y12.3846 
G01 X53.3442 Y12.4554 
G01 X53.6082 Y12.7194 
G01 X54.1226 Y12.9325 
G01 X54.6793 Y12.9325 
G01 X55.1936 Y12.7194 
G01 X55.5284 Y12.3846 
G01 X55.6209 Y12.3463 
G01 X55.7210 Y12.3463 
G01 X55.8134 Y12.3846 
G01 X55.8842 Y12.4554 
G01 X56.1482 Y12.7194 
G01 X56.6626 Y12.9325 
G01 X57.2193 Y12.9325 
G01 X57.7336 Y12.7194 
G01 X58.0684 Y12.3846 
G01 X58.1609 Y12.3463 
G01 X58.2610 Y12.3463 
G01 X58.3534 Y12.3846 
G01 X58.4242 Y12.4554 
G01 X58.6882 Y12.7194 
G01 X59.2026 Y12.9325 
G01 X59.7593 Y12.9325 
G01 X60.2736 Y12.7194 
G01 X60.6673 Y12.3258 
G01 X60.8803 Y11.8114 
G01 X60.8803 Y11.2547 
G01 X60.6673 Y10.7404 
G01 X60.4033 Y10.4764 
G01 X60.3356 Y10.4087 
G01 X60.3325 Y10.4056 
G01 X60.2942 Y10.3131 
G01 X60.2942 Y10.2130 
G01 X60.3325 Y10.1205 
G01 X60.4022 Y10.0509 
G01 X60.6673 Y9.7858 
G01 X60.8803 Y9.2714 
G01 X60.8803 Y8.7147 
G01 X60.6673 Y8.2004 
G01 X60.4300 Y7.9631 
G01 X60.3622 Y7.8953 
G01 X60.3593 Y7.8924 
G01 X60.3210 Y7.7999 
G01 X60.3210 Y6.8598 
G01 X60.3593 Y6.7674 
G01 X60.4300 Y6.6966 
G01 X60.5225 Y6.6583 
G01 X66.9578 Y6.6583 
G01 X67.0503 Y6.6966 
G01 X67.1211 Y6.7674 
G01 X67.1594 Y6.8598 
G01 X67.1594 Y15.9578 
G01 X67.1211 Y16.0503 
G01 X67.0503 Y16.1211 
G01 X66.9578 Y16.1594 
G01 X56.8328 Y16.1594 
G01 X56.5238 Y16.2874 
G01 X56.2874 Y16.5238 
G01 X56.1594 Y16.8328 
G01 X56.1594 Y36.9578 
G01 X56.1211 Y37.0503 
G01 X56.0503 Y37.1211 
G01 X55.9578 Y37.1594 
G01 X54.6621 Y37.1594 
G01 X54.5697 Y37.1211 
G01 X54.4989 Y37.0503 
G01 X54.4606 Y36.9578 
G01 X54.4606 Y36.4926 
G01 X54.4457 Y36.4565 
G01 X54.4101 Y36.3708 
G01 X54.4074 Y36.3640 
G01 X54.4074 Y36.2640 
G01 X54.4606 Y36.1354 
G01 X54.4606 Y33.9526 
G01 X54.3906 Y33.7837 
G01 X54.2613 Y33.6544 
G01 X54.0924 Y33.5844 
G01 X51.9096 Y33.5844 
G01 X51.7407 Y33.6544 
G01 X51.6114 Y33.7837 
G01 X51.5414 Y33.9526 
G01 X51.5414 Y36.1354 
G01 X51.5946 Y36.2640 
G01 X51.5946 Y36.3640 
G01 X51.5563 Y36.4565 
G01 X51.5414 Y36.4926 
G01 X51.5414 Y38.6754 
G01 X51.6114 Y38.8443 
G01 X51.7407 Y38.9736 
G01 X51.9096 Y39.0436 
G01 X54.0924 Y39.0436 
G01 X54.2613 Y38.9736 
G01 X54.3561 Y38.8789 
G01 X54.4485 Y38.8406 
G01 X57.1672 Y38.8406 
G01 X57.4762 Y38.7126 
G01 X57.7126 Y38.4762 
G01 X57.8406 Y38.1672 
G01 X57.8406 Y18.0421 
G01 X57.8789 Y17.9497 
G01 X57.9497 Y17.8789 
G01 X58.0421 Y17.8406 
G01 X68.1672 Y17.8406 
G01 X68.4762 Y17.7126 
G01 X68.6945 Y17.4943 
G01 X68.7625 Y17.4263 
G01 X68.7653 Y17.4235 
G01 X68.8578 Y17.3852 
G01 X68.9578 Y17.3852 
G01 X69.0503 Y17.4235 
G01 X69.1200 Y17.4932 
G01 X69.1594 Y17.5867 
G01 X69.1594 Y32.1672 
G01 X69.2874 Y32.4762 
G01 X69.5946 Y32.7834 
G01 X69.7838 Y32.9726 
G01 X70.0928 Y33.1006 
G01 X72.7722 Y33.1006 
G01 X72.8647 Y33.1389 
G01 X72.9355 Y33.2097 
G01 X73.2232 Y33.4974 
G01 X73.6066 Y33.6562 
G01 X73.6921 Y33.6916 
G01 X73.6991 Y33.6945 
G01 X73.7699 Y33.7653 
G01 X73.8082 Y33.8578 
G01 X73.8082 Y33.9578 
G01 X73.7710 Y34.0477 
G01 X73.7699 Y34.0503 
G01 X73.6991 Y34.1211 
G01 X73.6066 Y34.1594 
G01 X59.8328 Y34.1594 
G01 X59.5238 Y34.2874 
G01 X59.2874 Y34.5238 
G01 X59.1594 Y34.8328 
G01 X59.1594 Y41.9578 
G01 X59.1211 Y42.0503 
G01 X59.0503 Y42.1211 
G01 X58.9578 Y42.1594 
G01 X35.5011 Y42.1594 
G01 X35.4087 Y42.1211 
G01 X35.3379 Y42.0503 
G01 X35.2996 Y41.9578 
G01 X35.2996 Y39.2451 
G01 X35.3379 Y39.1527 
G01 X35.4087 Y39.0819 
G01 X35.5011 Y39.0436 
G01 X35.5504 Y39.0436 
G01 X35.7193 Y38.9736 
G01 X35.8486 Y38.8443 
G01 X35.9186 Y38.6754 
G01 X35.9186 Y36.4926 
G01 X35.8654 Y36.3640 
G01 X35.8654 Y36.2639 
G01 X35.9037 Y36.1715 
G01 X35.9186 Y36.1354 
G01 X35.9186 Y33.9526 
G00 Z2.4000 
G00 X60.5961 Y11.4453 
G01 Z-0.1000 F50.00 
G01 X60.5961 Y11.6208 F100.00 
G01 X60.5686 Y11.7942 
G01 X60.5144 Y11.9611 
G01 X60.4347 Y12.1175 
G01 X60.3315 Y12.2596 
G01 X60.2074 Y12.3837 
G01 X60.0654 Y12.4869 
G01 X59.9090 Y12.5666 
G01 X59.7421 Y12.6208 
G01 X59.5687 Y12.6483 
G01 X59.3931 Y12.6483 
G01 X59.2198 Y12.6208 
G01 X59.0528 Y12.5666 
G01 X58.8964 Y12.4869 
G01 X58.7544 Y12.3837 
G01 X58.6303 Y12.2596 
G01 X58.5271 Y12.1175 
G01 X58.4474 Y11.9611 
G01 X58.3932 Y11.7942 
G01 X58.3657 Y11.6208 
G01 X58.3657 Y11.4453 
G01 X58.3932 Y11.2719 
G01 X58.4474 Y11.1050 
G01 X58.5271 Y10.9486 
G01 X58.6303 Y10.8065 
G01 X58.7544 Y10.6824 
G01 X58.8964 Y10.5793 
G01 X59.0528 Y10.4996 
G01 X59.2198 Y10.4453 
G01 X59.3931 Y10.4179 
G01 X59.5687 Y10.4179 
G01 X59.7421 Y10.4453 
G01 X59.9090 Y10.4996 
G01 X60.0654 Y10.5793 
G01 X60.2074 Y10.6824 
G01 X60.3315 Y10.8065 
G01 X60.4347 Y10.9486 
G01 X60.5144 Y11.1050 
G01 X60.5686 Y11.2719 
G01 X60.5961 Y11.4453 
G00 Z2.4000 
G00 X58.0561 Y11.4453 
G01 Z-0.1000 F50.00 
G01 X58.0561 Y11.6208 F100.00 
G01 X58.0286 Y11.7942 
G01 X57.9744 Y11.9611 
G01 X57.8947 Y12.1175 
G01 X57.7915 Y12.2596 
G01 X57.6674 Y12.3837 
G01 X57.5254 Y12.4869 
G01 X57.3690 Y12.5666 
G01 X57.2021 Y12.6208 
G01 X57.0287 Y12.6483 
G01 X56.8531 Y12.6483 
G01 X56.6798 Y12.6208 
G01 X56.5128 Y12.5666 
G01 X56.3564 Y12.4869 
G01 X56.2144 Y12.3837 
G01 X56.0903 Y12.2596 
G01 X55.9871 Y12.1175 
G01 X55.9074 Y11.9611 
G01 X55.8532 Y11.7942 
G01 X55.8257 Y11.6208 
G01 X55.8257 Y11.4453 
G01 X55.8532 Y11.2719 
G01 X55.9074 Y11.1050 
G01 X55.9871 Y10.9486 
G01 X56.0903 Y10.8065 
G01 X56.2144 Y10.6824 
G01 X56.3564 Y10.5793 
G01 X56.5128 Y10.4996 
G01 X56.6798 Y10.4453 
G01 X56.8531 Y10.4179 
G01 X57.0287 Y10.4179 
G01 X57.2021 Y10.4453 
G01 X57.3690 Y10.4996 
G01 X57.5254 Y10.5793 
G01 X57.6674 Y10.6824 
G01 X57.7915 Y10.8065 
G01 X57.8947 Y10.9486 
G01 X57.9744 Y11.1050 
G01 X58.0286 Y11.2719 
G01 X58.0561 Y11.4453 
G00 Z2.4000 
G00 X55.5161 Y11.4453 
G01 Z-0.1000 F50.00 
G01 X55.5161 Y11.6208 F100.00 
G01 X55.4886 Y11.7942 
G01 X55.4344 Y11.9611 
G01 X55.3547 Y12.1175 
G01 X55.2515 Y12.2596 
G01 X55.1274 Y12.3837 
G01 X54.9854 Y12.4869 
G01 X54.8290 Y12.5666 
G01 X54.6621 Y12.6208 
G01 X54.4887 Y12.6483 
G01 X54.3131 Y12.6483 
G01 X54.1398 Y12.6208 
G01 X53.9728 Y12.5666 
G01 X53.8164 Y12.4869 
G01 X53.6744 Y12.3837 
G01 X53.5503 Y12.2596 
G01 X53.4471 Y12.1175 
G01 X53.3674 Y11.9611 
G01 X53.3132 Y11.7942 
G01 X53.2857 Y11.6208 
G01 X53.2857 Y11.4453 
G01 X53.3132 Y11.2719 
G01 X53.3674 Y11.1050 
G01 X53.4471 Y10.9486 
G01 X53.5503 Y10.8065 
G01 X53.6744 Y10.6824 
G01 X53.8164 Y10.5793 
G01 X53.9728 Y10.4996 
G01 X54.1398 Y10.4453 
G01 X54.3131 Y10.4179 
G01 X54.4887 Y10.4179 
G01 X54.6621 Y10.4453 
G01 X54.8290 Y10.4996 
G01 X54.9854 Y10.5793 
G01 X55.1274 Y10.6824 
G01 X55.2515 Y10.8065 
G01 X55.3547 Y10.9486 
G01 X55.4344 Y11.1050 
G01 X55.4886 Y11.2719 
G01 X55.5161 Y11.4453 
G00 Z2.4000 
G00 X52.9761 Y11.4453 
G01 Z-0.1000 F50.00 
G01 X52.9761 Y11.6208 F100.00 
G01 X52.9486 Y11.7942 
G01 X52.8944 Y11.9611 
G01 X52.8147 Y12.1175 
G01 X52.7115 Y12.2596 
G01 X52.5874 Y12.3837 
G01 X52.4454 Y12.4869 
G01 X52.2890 Y12.5666 
G01 X52.1221 Y12.6208 
G01 X51.9487 Y12.6483 
G01 X51.7731 Y12.6483 
G01 X51.5998 Y12.6208 
G01 X51.4328 Y12.5666 
G01 X51.2764 Y12.4869 
G01 X51.1344 Y12.3837 
G01 X51.0103 Y12.2596 
G01 X50.9071 Y12.1175 
G01 X50.8274 Y11.9611 
G01 X50.7732 Y11.7942 
G01 X50.7457 Y11.6208 
G01 X50.7457 Y11.4453 
G01 X50.7732 Y11.2719 
G01 X50.8274 Y11.1050 
G01 X50.9071 Y10.9486 
G01 X51.0103 Y10.8065 
G01 X51.1344 Y10.6824 
G01 X51.2764 Y10.5793 
G01 X51.4328 Y10.4996 
G01 X51.5998 Y10.4453 
G01 X51.7731 Y10.4179 
G01 X51.9487 Y10.4179 
G01 X52.1221 Y10.4453 
G01 X52.2890 Y10.4996 
G01 X52.4454 Y10.5793 
G01 X52.5874 Y10.6824 
G01 X52.7115 Y10.8065 
G01 X52.8147 Y10.9486 
G01 X52.8944 Y11.1050 
G01 X52.9486 Y11.2719 
G01 X52.9761 Y11.4453 
G00 Z2.4000 
G00 X50.4361 Y11.4453 
G01 Z-0.1000 F50.00 
G01 X50.4361 Y11.6208 F100.00 
G01 X50.4086 Y11.7942 
G01 X50.3544 Y11.9611 
G01 X50.2747 Y12.1175 
G01 X50.1715 Y12.2596 
G01 X50.0474 Y12.3837 
G01 X49.9054 Y12.4869 
G01 X49.8773 Y12.5012 
G01 X49.8773 Y18.4436 
G01 X53.0742 Y18.4436 
G01 X53.2158 Y18.4815 
G01 X53.3426 Y18.5548 
G01 X53.4462 Y18.6584 
G01 X53.5195 Y18.7852 
G01 X53.5574 Y18.9267 
G01 X53.5574 Y23.3403 
G01 X53.6170 Y23.3707 
G01 X53.7667 Y23.4795 
G01 X53.8975 Y23.6103 
G01 X54.0063 Y23.7600 
G01 X54.0903 Y23.9248 
G01 X54.1475 Y24.1008 
G01 X54.1764 Y24.2835 
G01 X54.1764 Y24.4685 
G01 X54.1475 Y24.6512 
G01 X54.0903 Y24.8272 
G01 X54.0063 Y24.9920 
G01 X53.8975 Y25.1417 
G01 X53.7667 Y25.2725 
G01 X53.6170 Y25.3813 
G01 X53.4522 Y25.4653 
G01 X53.2762 Y25.5225 
G01 X53.0935 Y25.5514 
G01 X52.9085 Y25.5514 
G01 X52.7258 Y25.5225 
G01 X52.5498 Y25.4653 
G01 X52.3850 Y25.3813 
G01 X52.2353 Y25.2725 
G01 X52.1045 Y25.1417 
G01 X51.9957 Y24.9920 
G01 X51.9117 Y24.8272 
G01 X51.8545 Y24.6512 
G01 X51.8256 Y24.4685 
G01 X51.8256 Y24.2835 
G01 X51.8545 Y24.1008 
G01 X51.9117 Y23.9248 
G01 X51.9957 Y23.7600 
G01 X52.1045 Y23.6103 
G01 X52.2353 Y23.4795 
G01 X52.3850 Y23.3707 
G01 X52.4446 Y23.3403 
G01 X52.4446 Y19.5564 
G01 X49.2477 Y19.5564 
G01 X49.1061 Y19.5185 
G01 X48.9793 Y19.4452 
G01 X48.8757 Y19.3416 
G01 X48.8024 Y19.2148 
G01 X48.7645 Y19.0733 
G01 X48.7645 Y12.5012 
G01 X48.7364 Y12.4869 
G01 X48.5944 Y12.3837 
G01 X48.4703 Y12.2596 
G01 X48.3671 Y12.1175 
G01 X48.2874 Y11.9611 
G01 X48.2332 Y11.7942 
G01 X48.2057 Y11.6208 
G01 X48.2057 Y11.4453 
G01 X48.2332 Y11.2719 
G01 X48.2874 Y11.1050 
G01 X48.3671 Y10.9486 
G01 X48.4703 Y10.8065 
G01 X48.5944 Y10.6824 
G01 X48.7364 Y10.5793 
G01 X48.8928 Y10.4996 
G01 X49.0598 Y10.4453 
G01 X49.2331 Y10.4179 
G01 X49.4087 Y10.4179 
G01 X49.5821 Y10.4453 
G01 X49.7490 Y10.4996 
G01 X49.9054 Y10.5793 
G01 X50.0474 Y10.6824 
G01 X50.1715 Y10.8065 
G01 X50.2747 Y10.9486 
G01 X50.3544 Y11.1050 
G01 X50.4086 Y11.2719 
G01 X50.4361 Y11.4453 
G00 Z2.4000 
G00 X47.8961 Y11.4453 
G01 Z-0.1000 F50.00 
G01 X47.8961 Y11.6208 F100.00 
G01 X47.8686 Y11.7942 
G01 X47.8144 Y11.9611 
G01 X47.7347 Y12.1175 
G01 X47.6315 Y12.2596 
G01 X47.5074 Y12.3837 
G01 X47.3654 Y12.4869 
G01 X47.3373 Y12.5012 
G01 X47.3373 Y13.6323 
G01 X47.2994 Y13.7739 
G01 X47.2261 Y13.9007 
G01 X47.1225 Y14.0043 
G01 X46.5064 Y14.6205 
G01 X46.5064 Y17.6762 
G01 X46.4685 Y17.8178 
G01 X46.3952 Y17.9446 
G01 X46.2916 Y18.0482 
G01 X46.1648 Y18.1215 
G01 X46.0233 Y18.1594 
G01 X2.3137 Y18.1594 
G01 X2.1722 Y18.1215 
G01 X2.0454 Y18.0482 
G01 X1.9418 Y17.9446 
G01 X1.8685 Y17.8178 
G01 X1.8306 Y17.6762 
G01 X1.8306 Y1.3748 
G01 X1.8685 Y1.2333 
G01 X1.9418 Y1.1064 
G01 X2.0454 Y1.0028 
G01 X2.1722 Y0.9296 
G01 X2.3137 Y0.8917 
G01 X84.9733 Y0.8917 
G01 X85.1148 Y0.9296 
G01 X85.2416 Y1.0028 
G01 X85.3452 Y1.1064 
G01 X85.4185 Y1.2333 
G01 X85.4564 Y1.3748 
G01 X85.4564 Y1.8430 
G01 X85.9136 Y2.3002 
G01 X85.9136 Y3.1398 
G01 X85.3198 Y3.7336 
G01 X84.4802 Y3.7336 
G01 X83.8864 Y3.1398 
G01 X83.8864 Y2.3002 
G01 X84.1821 Y2.0045 
G01 X2.9434 Y2.0045 
G01 X2.9434 Y17.0466 
G01 X45.3936 Y17.0466 
G01 X45.3936 Y14.3168 
G01 X45.4315 Y14.1752 
G01 X45.5048 Y14.0484 
G01 X45.6084 Y13.9448 
G01 X46.2245 Y13.3286 
G01 X46.2245 Y12.5012 
G01 X46.1964 Y12.4869 
G01 X46.0544 Y12.3837 
G01 X45.9303 Y12.2596 
G01 X45.8271 Y12.1175 
G01 X45.7474 Y11.9611 
G01 X45.6932 Y11.7942 
G01 X45.6657 Y11.6208 
G01 X45.6657 Y11.4453 
G01 X45.6932 Y11.2719 
G01 X45.7474 Y11.1050 
G01 X45.8271 Y10.9486 
G01 X45.9303 Y10.8065 
G01 X46.0544 Y10.6824 
G01 X46.1964 Y10.5793 
G01 X46.3528 Y10.4996 
G01 X46.5198 Y10.4453 
G01 X46.6931 Y10.4179 
G01 X46.8687 Y10.4179 
G01 X47.0421 Y10.4453 
G01 X47.2090 Y10.4996 
G01 X47.3654 Y10.5793 
G01 X47.5074 Y10.6824 
G01 X47.6315 Y10.8065 
G01 X47.7347 Y10.9486 
G01 X47.8144 Y11.1050 
G01 X47.8686 Y11.2719 
G01 X47.8961 Y11.4453 
G00 Z2.4000 
G00 X45.3561 Y11.4453 
G01 Z-0.1000 F50.00 
G01 X45.3561 Y11.6208 F100.00 
G01 X45.3286 Y11.7942 
G01 X45.2744 Y11.9611 
G01 X45.1947 Y12.1175 
G01 X45.0915 Y12.2596 
G01 X44.9674 Y12.3837 
G01 X44.8254 Y12.4869 
G01 X44.6690 Y12.5666 
G01 X44.5021 Y12.6208 
G01 X44.3287 Y12.6483 
G01 X44.1531 Y12.6483 
G01 X43.9798 Y12.6208 
G01 X43.8128 Y12.5666 
G01 X43.6564 Y12.4869 
G01 X43.5144 Y12.3837 
G01 X43.3903 Y12.2596 
G01 X43.2871 Y12.1175 
G01 X43.2074 Y11.9611 
G01 X43.1532 Y11.7942 
G01 X43.1257 Y11.6208 
G01 X43.1257 Y11.4453 
G01 X43.1532 Y11.2719 
G01 X43.2074 Y11.1050 
G01 X43.2871 Y10.9486 
G01 X43.3903 Y10.8065 
G01 X43.5144 Y10.6824 
G01 X43.6564 Y10.5793 
G01 X43.8128 Y10.4996 
G01 X43.9798 Y10.4453 
G01 X44.1531 Y10.4179 
G01 X44.3287 Y10.4179 
G01 X44.5021 Y10.4453 
G01 X44.6690 Y10.4996 
G01 X44.8254 Y10.5793 
G01 X44.9674 Y10.6824 
G01 X45.0915 Y10.8065 
G01 X45.1947 Y10.9486 
G01 X45.2744 Y11.1050 
G01 X45.3286 Y11.2719 
G01 X45.3561 Y11.4453 
G00 Z2.4000 
G00 X42.8161 Y11.4453 
G01 Z-0.1000 F50.00 
G01 X42.8161 Y11.6208 F100.00 
G01 X42.7886 Y11.7942 
G01 X42.7344 Y11.9611 
G01 X42.6547 Y12.1175 
G01 X42.5515 Y12.2596 
G01 X42.4274 Y12.3837 
G01 X42.2854 Y12.4869 
G01 X42.1290 Y12.5666 
G01 X41.9621 Y12.6208 
G01 X41.7887 Y12.6483 
G01 X41.6131 Y12.6483 
G01 X41.4398 Y12.6208 
G01 X41.2728 Y12.5666 
G01 X41.1164 Y12.4869 
G01 X40.9744 Y12.3837 
G01 X40.8503 Y12.2596 
G01 X40.7471 Y12.1175 
G01 X40.6674 Y11.9611 
G01 X40.6132 Y11.7942 
G01 X40.5857 Y11.6208 
G01 X40.5857 Y11.4453 
G01 X40.6132 Y11.2719 
G01 X40.6674 Y11.1050 
G01 X40.7471 Y10.9486 
G01 X40.8503 Y10.8065 
G01 X40.9744 Y10.6824 
G01 X41.1164 Y10.5793 
G01 X41.2728 Y10.4996 
G01 X41.4398 Y10.4453 
G01 X41.6131 Y10.4179 
G01 X41.7887 Y10.4179 
G01 X41.9621 Y10.4453 
G01 X42.1290 Y10.4996 
G01 X42.2854 Y10.5793 
G01 X42.4274 Y10.6824 
G01 X42.5515 Y10.8065 
G01 X42.6547 Y10.9486 
G01 X42.7344 Y11.1050 
G01 X42.7886 Y11.2719 
G01 X42.8161 Y11.4453 
G00 Z2.4000 
G00 X40.2761 Y11.4453 
G01 Z-0.1000 F50.00 
G01 X40.2761 Y11.6208 F100.00 
G01 X40.2486 Y11.7942 
G01 X40.1944 Y11.9611 
G01 X40.1147 Y12.1175 
G01 X40.0115 Y12.2596 
G01 X39.8874 Y12.3837 
G01 X39.7454 Y12.4869 
G01 X39.5890 Y12.5666 
G01 X39.4221 Y12.6208 
G01 X39.2487 Y12.6483 
G01 X39.0731 Y12.6483 
G01 X38.8998 Y12.6208 
G01 X38.7328 Y12.5666 
G01 X38.5764 Y12.4869 
G01 X38.4344 Y12.3837 
G01 X38.3103 Y12.2596 
G01 X38.2071 Y12.1175 
G01 X38.1274 Y11.9611 
G01 X38.0732 Y11.7942 
G01 X38.0457 Y11.6208 
G01 X38.0457 Y11.4453 
G01 X38.0732 Y11.2719 
G01 X38.1274 Y11.1050 
G01 X38.2071 Y10.9486 
G01 X38.3103 Y10.8065 
G01 X38.4344 Y10.6824 
G01 X38.5764 Y10.5793 
G01 X38.7328 Y10.4996 
G01 X38.8998 Y10.4453 
G01 X39.0731 Y10.4179 
G01 X39.2487 Y10.4179 
G01 X39.4221 Y10.4453 
G01 X39.5890 Y10.4996 
G01 X39.7454 Y10.5793 
G01 X39.8874 Y10.6824 
G01 X40.0115 Y10.8065 
G01 X40.1147 Y10.9486 
G01 X40.1944 Y11.1050 
G01 X40.2486 Y11.2719 
G01 X40.2761 Y11.4453 
G00 Z2.4000 
G00 X37.7361 Y11.4453 
G01 Z-0.1000 F50.00 
G01 X37.7361 Y11.6208 F100.00 
G01 X37.7086 Y11.7942 
G01 X37.6544 Y11.9611 
G01 X37.5747 Y12.1175 
G01 X37.4715 Y12.2596 
G01 X37.3474 Y12.3837 
G01 X37.2054 Y12.4869 
G01 X37.0490 Y12.5666 
G01 X36.8821 Y12.6208 
G01 X36.7087 Y12.6483 
G01 X36.5331 Y12.6483 
G01 X36.3598 Y12.6208 
G01 X36.1928 Y12.5666 
G01 X36.0364 Y12.4869 
G01 X35.8944 Y12.3837 
G01 X35.7703 Y12.2596 
G01 X35.6671 Y12.1175 
G01 X35.5874 Y11.9611 
G01 X35.5332 Y11.7942 
G01 X35.5057 Y11.6208 
G01 X35.5057 Y11.4453 
G01 X35.5332 Y11.2719 
G01 X35.5874 Y11.1050 
G01 X35.6671 Y10.9486 
G01 X35.7703 Y10.8065 
G01 X35.8944 Y10.6824 
G01 X36.0364 Y10.5793 
G01 X36.1928 Y10.4996 
G01 X36.3598 Y10.4453 
G01 X36.5331 Y10.4179 
G01 X36.7087 Y10.4179 
G01 X36.8821 Y10.4453 
G01 X37.0490 Y10.4996 
G01 X37.2054 Y10.5793 
G01 X37.3474 Y10.6824 
G01 X37.4715 Y10.8065 
G01 X37.5747 Y10.9486 
G01 X37.6544 Y11.1050 
G01 X37.7086 Y11.2719 
G01 X37.7361 Y11.4453 
G00 Z2.4000 
G00 X35.1961 Y11.4453 
G01 Z-0.1000 F50.00 
G01 X35.1961 Y11.6208 F100.00 
G01 X35.1686 Y11.7942 
G01 X35.1144 Y11.9611 
G01 X35.0347 Y12.1175 
G01 X34.9315 Y12.2596 
G01 X34.8074 Y12.3837 
G01 X34.6654 Y12.4869 
G01 X34.5090 Y12.5666 
G01 X34.3421 Y12.6208 
G01 X34.1687 Y12.6483 
G01 X33.9931 Y12.6483 
G01 X33.8198 Y12.6208 
G01 X33.6528 Y12.5666 
G01 X33.4964 Y12.4869 
G01 X33.3544 Y12.3837 
G01 X33.2303 Y12.2596 
G01 X33.1271 Y12.1175 
G01 X33.0474 Y11.9611 
G01 X32.9932 Y11.7942 
G01 X32.9657 Y11.6208 
G01 X32.9657 Y11.4453 
G01 X32.9932 Y11.2719 
G01 X33.0474 Y11.1050 
G01 X33.1271 Y10.9486 
G01 X33.2303 Y10.8065 
G01 X33.3544 Y10.6824 
G01 X33.4964 Y10.5793 
G01 X33.6528 Y10.4996 
G01 X33.8198 Y10.4453 
G01 X33.9931 Y10.4179 
G01 X34.1687 Y10.4179 
G01 X34.3421 Y10.4453 
G01 X34.5090 Y10.4996 
G01 X34.6654 Y10.5793 
G01 X34.8074 Y10.6824 
G01 X34.9315 Y10.8065 
G01 X35.0347 Y10.9486 
G01 X35.1144 Y11.1050 
G01 X35.1686 Y11.2719 
G01 X35.1961 Y11.4453 
G00 Z2.4000 
G00 X32.6561 Y11.4453 
G01 Z-0.1000 F50.00 
G01 X32.6561 Y11.6208 F100.00 
G01 X32.6286 Y11.7942 
G01 X32.5744 Y11.9611 
G01 X32.4947 Y12.1175 
G01 X32.3915 Y12.2596 
G01 X32.2674 Y12.3837 
G01 X32.1254 Y12.4869 
G01 X31.9690 Y12.5666 
G01 X31.8021 Y12.6208 
G01 X31.6287 Y12.6483 
G01 X31.4531 Y12.6483 
G01 X31.2798 Y12.6208 
G01 X31.1128 Y12.5666 
G01 X30.9564 Y12.4869 
G01 X30.8144 Y12.3837 
G01 X30.6903 Y12.2596 
G01 X30.5871 Y12.1175 
G01 X30.5074 Y11.9611 
G01 X30.4532 Y11.7942 
G01 X30.4257 Y11.6208 
G01 X30.4257 Y11.4453 
G01 X30.4532 Y11.2719 
G01 X30.5074 Y11.1050 
G01 X30.5871 Y10.9486 
G01 X30.6903 Y10.8065 
G01 X30.8144 Y10.6824 
G01 X30.9564 Y10.5793 
G01 X31.1128 Y10.4996 
G01 X31.2798 Y10.4453 
G01 X31.4531 Y10.4179 
G01 X31.6287 Y10.4179 
G01 X31.8021 Y10.4453 
G01 X31.9690 Y10.4996 
G01 X32.1254 Y10.5793 
G01 X32.2674 Y10.6824 
G01 X32.3915 Y10.8065 
G01 X32.4947 Y10.9486 
G01 X32.5744 Y11.1050 
G01 X32.6286 Y11.2719 
G01 X32.6561 Y11.4453 
G00 Z2.4000 
G00 X30.1161 Y8.9053 
G01 Z-0.1000 F50.00 
G01 X30.1161 Y9.0808 F100.00 
G01 X30.0886 Y9.2542 
G01 X30.0344 Y9.4211 
G01 X29.9547 Y9.5775 
G01 X29.8515 Y9.7196 
G01 X29.7274 Y9.8437 
G01 X29.5854 Y9.9469 
G01 X29.4290 Y10.0266 
G01 X29.2621 Y10.0808 
G01 X29.0887 Y10.1083 
G01 X28.9131 Y10.1083 
G01 X28.7398 Y10.0808 
G01 X28.5728 Y10.0266 
G01 X28.4164 Y9.9469 
G01 X28.2744 Y9.8437 
G01 X28.1503 Y9.7196 
G01 X28.0471 Y9.5775 
G01 X27.9674 Y9.4211 
G01 X27.9132 Y9.2542 
G01 X27.8857 Y9.0808 
G01 X27.8857 Y8.9053 
G01 X27.9132 Y8.7319 
G01 X27.9674 Y8.5650 
G01 X28.0471 Y8.4086 
G01 X28.1503 Y8.2666 
G01 X28.2744 Y8.1424 
G01 X28.4164 Y8.0393 
G01 X28.5728 Y7.9596 
G01 X28.7398 Y7.9053 
G01 X28.9131 Y7.8779 
G01 X29.0887 Y7.8779 
G01 X29.2621 Y7.9053 
G01 X29.4290 Y7.9596 
G01 X29.5854 Y8.0393 
G01 X29.7274 Y8.1424 
G01 X29.8515 Y8.2666 
G01 X29.9547 Y8.4086 
G01 X30.0344 Y8.5650 
G01 X30.0886 Y8.7319 
G01 X30.1161 Y8.9053 
G00 Z2.4000 
G00 X32.6561 Y8.9053 
G01 Z-0.1000 F50.00 
G01 X32.6561 Y9.0808 F100.00 
G01 X32.6286 Y9.2542 
G01 X32.5744 Y9.4211 
G01 X32.4947 Y9.5775 
G01 X32.3915 Y9.7196 
G01 X32.2674 Y9.8437 
G01 X32.1254 Y9.9469 
G01 X31.9690 Y10.0266 
G01 X31.8021 Y10.0808 
G01 X31.6287 Y10.1083 
G01 X31.4531 Y10.1083 
G01 X31.2798 Y10.0808 
G01 X31.1128 Y10.0266 
G01 X30.9564 Y9.9469 
G01 X30.8144 Y9.8437 
G01 X30.6903 Y9.7196 
G01 X30.5871 Y9.5775 
G01 X30.5074 Y9.4211 
G01 X30.4532 Y9.2542 
G01 X30.4257 Y9.0808 
G01 X30.4257 Y8.9053 
G01 X30.4532 Y8.7319 
G01 X30.5074 Y8.5650 
G01 X30.5871 Y8.4086 
G01 X30.6903 Y8.2666 
G01 X30.8144 Y8.1424 
G01 X30.9564 Y8.0393 
G01 X31.1128 Y7.9596 
G01 X31.2798 Y7.9053 
G01 X31.4531 Y7.8779 
G01 X31.6287 Y7.8779 
G01 X31.8021 Y7.9053 
G01 X31.9690 Y7.9596 
G01 X32.1254 Y8.0393 
G01 X32.2674 Y8.1424 
G01 X32.3915 Y8.2666 
G01 X32.4947 Y8.4086 
G01 X32.5744 Y8.5650 
G01 X32.6286 Y8.7319 
G01 X32.6561 Y8.9053 
G00 Z2.4000 
G00 X35.1961 Y8.9053 
G01 Z-0.1000 F50.00 
G01 X35.1961 Y9.0808 F100.00 
G01 X35.1686 Y9.2542 
G01 X35.1144 Y9.4211 
G01 X35.0347 Y9.5775 
G01 X34.9315 Y9.7196 
G01 X34.8074 Y9.8437 
G01 X34.6654 Y9.9469 
G01 X34.5090 Y10.0266 
G01 X34.3421 Y10.0808 
G01 X34.1687 Y10.1083 
G01 X33.9931 Y10.1083 
G01 X33.8198 Y10.0808 
G01 X33.6528 Y10.0266 
G01 X33.4964 Y9.9469 
G01 X33.3544 Y9.8437 
G01 X33.2303 Y9.7196 
G01 X33.1271 Y9.5775 
G01 X33.0474 Y9.4211 
G01 X32.9932 Y9.2542 
G01 X32.9657 Y9.0808 
G01 X32.9657 Y8.9053 
G01 X32.9932 Y8.7319 
G01 X33.0474 Y8.5650 
G01 X33.1271 Y8.4086 
G01 X33.2303 Y8.2666 
G01 X33.3544 Y8.1424 
G01 X33.4964 Y8.0393 
G01 X33.6528 Y7.9596 
G01 X33.8198 Y7.9053 
G01 X33.9931 Y7.8779 
G01 X34.1687 Y7.8779 
G01 X34.3421 Y7.9053 
G01 X34.5090 Y7.9596 
G01 X34.6654 Y8.0393 
G01 X34.8074 Y8.1424 
G01 X34.9315 Y8.2666 
G01 X35.0347 Y8.4086 
G01 X35.1144 Y8.5650 
G01 X35.1686 Y8.7319 
G01 X35.1961 Y8.9053 
G00 Z2.4000 
G00 X40.2761 Y8.9053 
G01 Z-0.1000 F50.00 
G01 X40.2761 Y9.0808 F100.00 
G01 X40.2486 Y9.2542 
G01 X40.1944 Y9.4211 
G01 X40.1147 Y9.5775 
G01 X40.0115 Y9.7196 
G01 X39.8874 Y9.8437 
G01 X39.7454 Y9.9469 
G01 X39.5890 Y10.0266 
G01 X39.4221 Y10.0808 
G01 X39.2487 Y10.1083 
G01 X39.0731 Y10.1083 
G01 X38.8998 Y10.0808 
G01 X38.7328 Y10.0266 
G01 X38.5764 Y9.9469 
G01 X38.4344 Y9.8437 
G01 X38.3103 Y9.7196 
G01 X38.2071 Y9.5775 
G01 X38.1274 Y9.4211 
G01 X38.0732 Y9.2542 
G01 X38.0457 Y9.0808 
G01 X38.0457 Y8.9053 
G01 X38.0732 Y8.7319 
G01 X38.1274 Y8.5650 
G01 X38.2071 Y8.4086 
G01 X38.3103 Y8.2666 
G01 X38.4344 Y8.1424 
G01 X38.5764 Y8.0393 
G01 X38.7328 Y7.9596 
G01 X38.8998 Y7.9053 
G01 X39.0731 Y7.8779 
G01 X39.2487 Y7.8779 
G01 X39.4221 Y7.9053 
G01 X39.5890 Y7.9596 
G01 X39.7454 Y8.0393 
G01 X39.8874 Y8.1424 
G01 X40.0115 Y8.2666 
G01 X40.1147 Y8.4086 
G01 X40.1944 Y8.5650 
G01 X40.2486 Y8.7319 
G01 X40.2761 Y8.9053 
G00 Z2.4000 
G00 X42.8161 Y8.9053 
G01 Z-0.1000 F50.00 
G01 X42.8161 Y9.0808 F100.00 
G01 X42.7886 Y9.2542 
G01 X42.7344 Y9.4211 
G01 X42.6547 Y9.5775 
G01 X42.5515 Y9.7196 
G01 X42.4274 Y9.8437 
G01 X42.2854 Y9.9469 
G01 X42.1290 Y10.0266 
G01 X41.9621 Y10.0808 
G01 X41.7887 Y10.1083 
G01 X41.6131 Y10.1083 
G01 X41.4398 Y10.0808 
G01 X41.2728 Y10.0266 
G01 X41.1164 Y9.9469 
G01 X40.9744 Y9.8437 
G01 X40.8503 Y9.7196 
G01 X40.7471 Y9.5775 
G01 X40.6674 Y9.4211 
G01 X40.6132 Y9.2542 
G01 X40.5857 Y9.0808 
G01 X40.5857 Y8.9053 
G01 X40.6132 Y8.7319 
G01 X40.6674 Y8.5650 
G01 X40.7471 Y8.4086 
G01 X40.8503 Y8.2666 
G01 X40.9744 Y8.1424 
G01 X41.1164 Y8.0393 
G01 X41.2728 Y7.9596 
G01 X41.4398 Y7.9053 
G01 X41.6131 Y7.8779 
G01 X41.7887 Y7.8779 
G01 X41.9621 Y7.9053 
G01 X42.1290 Y7.9596 
G01 X42.2854 Y8.0393 
G01 X42.4274 Y8.1424 
G01 X42.5515 Y8.2666 
G01 X42.6547 Y8.4086 
G01 X42.7344 Y8.5650 
G01 X42.7886 Y8.7319 
G01 X42.8161 Y8.9053 
G00 Z2.4000 
G00 X47.8961 Y8.9053 
G01 Z-0.1000 F50.00 
G01 X47.8961 Y9.0808 F100.00 
G01 X47.8686 Y9.2542 
G01 X47.8144 Y9.4211 
G01 X47.7347 Y9.5775 
G01 X47.6315 Y9.7196 
G01 X47.5074 Y9.8437 
G01 X47.3654 Y9.9469 
G01 X47.2090 Y10.0266 
G01 X47.0421 Y10.0808 
G01 X46.8687 Y10.1083 
G01 X46.6931 Y10.1083 
G01 X46.5198 Y10.0808 
G01 X46.3528 Y10.0266 
G01 X46.1964 Y9.9469 
G01 X46.0544 Y9.8437 
G01 X45.9303 Y9.7196 
G01 X45.8271 Y9.5775 
G01 X45.7474 Y9.4211 
G01 X45.6932 Y9.2542 
G01 X45.6657 Y9.0808 
G01 X45.6657 Y8.9053 
G01 X45.6932 Y8.7319 
G01 X45.7474 Y8.5650 
G01 X45.8271 Y8.4086 
G01 X45.9303 Y8.2666 
G01 X46.0544 Y8.1424 
G01 X46.1964 Y8.0393 
G01 X46.3528 Y7.9596 
G01 X46.5198 Y7.9053 
G01 X46.6931 Y7.8779 
G01 X46.8687 Y7.8779 
G01 X47.0421 Y7.9053 
G01 X47.2090 Y7.9596 
G01 X47.3654 Y8.0393 
G01 X47.5074 Y8.1424 
G01 X47.6315 Y8.2666 
G01 X47.7347 Y8.4086 
G01 X47.8144 Y8.5650 
G01 X47.8686 Y8.7319 
G01 X47.8961 Y8.9053 
G00 Z2.4000 
G00 X50.4361 Y8.9053 
G01 Z-0.1000 F50.00 
G01 X50.4361 Y9.0808 F100.00 
G01 X50.4086 Y9.2542 
G01 X50.3544 Y9.4211 
G01 X50.2747 Y9.5775 
G01 X50.1715 Y9.7196 
G01 X50.0474 Y9.8437 
G01 X49.9054 Y9.9469 
G01 X49.7490 Y10.0266 
G01 X49.5821 Y10.0808 
G01 X49.4087 Y10.1083 
G01 X49.2331 Y10.1083 
G01 X49.0598 Y10.0808 
G01 X48.8928 Y10.0266 
G01 X48.7364 Y9.9469 
G01 X48.5944 Y9.8437 
G01 X48.4703 Y9.7196 
G01 X48.3671 Y9.5775 
G01 X48.2874 Y9.4211 
G01 X48.2332 Y9.2542 
G01 X48.2057 Y9.0808 
G01 X48.2057 Y8.9053 
G01 X48.2332 Y8.7319 
G01 X48.2874 Y8.5650 
G01 X48.3671 Y8.4086 
G01 X48.4703 Y8.2666 
G01 X48.5944 Y8.1424 
G01 X48.7364 Y8.0393 
G01 X48.8928 Y7.9596 
G01 X49.0598 Y7.9053 
G01 X49.2331 Y7.8779 
G01 X49.4087 Y7.8779 
G01 X49.5821 Y7.9053 
G01 X49.7490 Y7.9596 
G01 X49.9054 Y8.0393 
G01 X50.0474 Y8.1424 
G01 X50.1715 Y8.2666 
G01 X50.2747 Y8.4086 
G01 X50.3544 Y8.5650 
G01 X50.4086 Y8.7319 
G01 X50.4361 Y8.9053 
G00 Z2.4000 
G00 X52.9761 Y8.9053 
G01 Z-0.1000 F50.00 
G01 X52.9761 Y9.0808 F100.00 
G01 X52.9486 Y9.2542 
G01 X52.8944 Y9.4211 
G01 X52.8147 Y9.5775 
G01 X52.7115 Y9.7196 
G01 X52.5874 Y9.8437 
G01 X52.4454 Y9.9469 
G01 X52.2890 Y10.0266 
G01 X52.1221 Y10.0808 
G01 X51.9487 Y10.1083 
G01 X51.7731 Y10.1083 
G01 X51.5998 Y10.0808 
G01 X51.4328 Y10.0266 
G01 X51.2764 Y9.9469 
G01 X51.1344 Y9.8437 
G01 X51.0103 Y9.7196 
G01 X50.9071 Y9.5775 
G01 X50.8274 Y9.4211 
G01 X50.7732 Y9.2542 
G01 X50.7457 Y9.0808 
G01 X50.7457 Y8.9053 
G01 X50.7732 Y8.7319 
G01 X50.8274 Y8.5650 
G01 X50.9071 Y8.4086 
G01 X51.0103 Y8.2666 
G01 X51.1344 Y8.1424 
G01 X51.2764 Y8.0393 
G01 X51.4328 Y7.9596 
G01 X51.5998 Y7.9053 
G01 X51.7731 Y7.8779 
G01 X51.9487 Y7.8779 
G01 X52.1221 Y7.9053 
G01 X52.2890 Y7.9596 
G01 X52.4454 Y8.0393 
G01 X52.5874 Y8.1424 
G01 X52.7115 Y8.2666 
G01 X52.8147 Y8.4086 
G01 X52.8944 Y8.5650 
G01 X52.9486 Y8.7319 
G01 X52.9761 Y8.9053 
G00 Z2.4000 
G00 X58.0561 Y8.9053 
G01 Z-0.1000 F50.00 
G01 X58.0561 Y9.0808 F100.00 
G01 X58.0286 Y9.2542 
G01 X57.9744 Y9.4211 
G01 X57.8947 Y9.5775 
G01 X57.7915 Y9.7196 
G01 X57.6674 Y9.8437 
G01 X57.5254 Y9.9469 
G01 X57.3690 Y10.0266 
G01 X57.2021 Y10.0808 
G01 X57.0287 Y10.1083 
G01 X56.8531 Y10.1083 
G01 X56.6798 Y10.0808 
G01 X56.5128 Y10.0266 
G01 X56.3564 Y9.9469 
G01 X56.2144 Y9.8437 
G01 X56.0903 Y9.7196 
G01 X55.9871 Y9.5775 
G01 X55.9074 Y9.4211 
G01 X55.8532 Y9.2542 
G01 X55.8257 Y9.0808 
G01 X55.8257 Y8.9053 
G01 X55.8532 Y8.7319 
G01 X55.9074 Y8.5650 
G01 X55.9871 Y8.4086 
G01 X56.0903 Y8.2666 
G01 X56.2144 Y8.1424 
G01 X56.3564 Y8.0393 
G01 X56.4119 Y8.0110 
G01 X56.4119 Y4.2190 
G01 X56.4498 Y4.0775 
G01 X56.5230 Y3.9506 
G01 X56.6266 Y3.8470 
G01 X56.7535 Y3.7738 
G01 X56.8950 Y3.7359 
G01 X70.0733 Y3.7359 
G01 X70.2148 Y3.7738 
G01 X70.3416 Y3.8470 
G01 X70.4452 Y3.9506 
G01 X70.5185 Y4.0775 
G01 X70.5564 Y4.2190 
G01 X70.5564 Y15.4436 
G01 X71.4530 Y15.4436 
G01 X71.5739 Y15.3227 
G01 X71.7399 Y15.2118 
G01 X71.9243 Y15.1354 
G01 X72.1202 Y15.0964 
G01 X72.3198 Y15.0964 
G01 X72.5157 Y15.1354 
G01 X72.7001 Y15.2118 
G01 X72.8661 Y15.3227 
G01 X73.0073 Y15.4639 
G01 X73.1182 Y15.6299 
G01 X73.1946 Y15.8143 
G01 X73.2336 Y16.0102 
G01 X73.2336 Y16.2098 
G01 X73.1946 Y16.4057 
G01 X73.1182 Y16.5901 
G01 X73.0073 Y16.7561 
G01 X72.8661 Y16.8973 
G01 X72.7001 Y17.0082 
G01 X72.5157 Y17.0846 
G01 X72.3198 Y17.1236 
G01 X72.1202 Y17.1236 
G01 X71.9243 Y17.0846 
G01 X71.7399 Y17.0082 
G01 X71.5739 Y16.8973 
G01 X71.4327 Y16.7561 
G01 X71.3218 Y16.5901 
G01 X71.3078 Y16.5564 
G01 X70.5564 Y16.5564 
G01 X70.5564 Y31.7036 
G01 X73.0143 Y31.7036 
G01 X73.0447 Y31.6440 
G01 X73.1535 Y31.4943 
G01 X73.2843 Y31.3635 
G01 X73.4340 Y31.2547 
G01 X73.5988 Y31.1707 
G01 X73.7748 Y31.1135 
G01 X73.9575 Y31.0846 
G01 X74.1425 Y31.0846 
G01 X74.3252 Y31.1135 
G01 X74.5012 Y31.1707 
G01 X74.6660 Y31.2547 
G01 X74.8157 Y31.3635 
G01 X74.9465 Y31.4943 
G01 X75.0553 Y31.6440 
G01 X75.1393 Y31.8088 
G01 X75.1965 Y31.9848 
G01 X75.2254 Y32.1675 
G01 X75.2254 Y32.3525 
G01 X75.1965 Y32.5352 
G01 X75.1393 Y32.7112 
G01 X75.0553 Y32.8760 
G01 X74.9465 Y33.0257 
G01 X74.8157 Y33.1565 
G01 X74.6660 Y33.2653 
G01 X74.5012 Y33.3493 
G01 X74.3252 Y33.4065 
G01 X74.1425 Y33.4354 
G01 X73.9575 Y33.4354 
G01 X73.7748 Y33.4065 
G01 X73.5988 Y33.3493 
G01 X73.4340 Y33.2653 
G01 X73.2843 Y33.1565 
G01 X73.1535 Y33.0257 
G01 X73.0447 Y32.8760 
G01 X73.0143 Y32.8164 
G01 X70.1867 Y32.8164 
G01 X70.0452 Y32.7785 
G01 X69.9184 Y32.7052 
G01 X69.8148 Y32.6016 
G01 X69.6584 Y32.4452 
G01 X69.5548 Y32.3416 
G01 X69.4815 Y32.2148 
G01 X69.4436 Y32.0733 
G01 X69.4436 Y4.8487 
G01 X57.5247 Y4.8487 
G01 X57.5247 Y8.0389 
G01 X57.6674 Y8.1424 
G01 X57.7915 Y8.2666 
G01 X57.8947 Y8.4086 
G01 X57.9744 Y8.5650 
G01 X58.0286 Y8.7319 
G01 X58.0561 Y8.9053 
G00 Z2.4000 
G00 X60.5961 Y8.9053 
G01 Z-0.1000 F50.00 
G01 X60.5961 Y9.0808 F100.00 
G01 X60.5686 Y9.2542 
G01 X60.5144 Y9.4211 
G01 X60.4347 Y9.5775 
G01 X60.3315 Y9.7196 
G01 X60.2074 Y9.8437 
G01 X60.0654 Y9.9469 
G01 X59.9090 Y10.0266 
G01 X59.7421 Y10.0808 
G01 X59.5687 Y10.1083 
G01 X59.3931 Y10.1083 
G01 X59.2198 Y10.0808 
G01 X59.0528 Y10.0266 
G01 X58.8964 Y9.9469 
G01 X58.7544 Y9.8437 
G01 X58.6303 Y9.7196 
G01 X58.5271 Y9.5775 
G01 X58.4474 Y9.4211 
G01 X58.3932 Y9.2542 
G01 X58.3657 Y9.0808 
G01 X58.3657 Y8.9053 
G01 X58.3932 Y8.7319 
G01 X58.4474 Y8.5650 
G01 X58.5271 Y8.4086 
G01 X58.6303 Y8.2666 
G01 X58.7544 Y8.1424 
G01 X58.8964 Y8.0393 
G01 X58.9240 Y8.0252 
G01 X58.9240 Y5.7444 
G01 X58.9619 Y5.6029 
G01 X59.0351 Y5.4760 
G01 X59.1387 Y5.3725 
G01 X59.2656 Y5.2992 
G01 X59.4071 Y5.2613 
G01 X68.0733 Y5.2613 
G01 X68.2148 Y5.2992 
G01 X68.3416 Y5.3725 
G01 X68.4452 Y5.4760 
G01 X68.5185 Y5.6029 
G01 X68.5564 Y5.7444 
G01 X68.5564 Y17.0733 
G01 X68.5185 Y17.2148 
G01 X68.4452 Y17.3416 
G01 X68.3416 Y17.4452 
G01 X68.2148 Y17.5185 
G01 X68.0733 Y17.5564 
G01 X57.5564 Y17.5564 
G01 X57.5564 Y38.0733 
G01 X57.5185 Y38.2148 
G01 X57.4452 Y38.3416 
G01 X57.3416 Y38.4452 
G01 X57.2148 Y38.5185 
G01 X57.0733 Y38.5564 
G01 X54.1764 Y38.5564 
G01 X54.1764 Y38.6189 
G01 X54.1497 Y38.6834 
G01 X54.1004 Y38.7327 
G01 X54.0359 Y38.7594 
G01 X51.9661 Y38.7594 
G01 X51.9016 Y38.7327 
G01 X51.8523 Y38.6834 
G01 X51.8256 Y38.6189 
G01 X51.8256 Y36.5491 
G01 X51.8523 Y36.4846 
G01 X51.9016 Y36.4353 
G01 X51.9661 Y36.4086 
G01 X54.0359 Y36.4086 
G01 X54.1004 Y36.4353 
G01 X54.1497 Y36.4846 
G01 X54.1764 Y36.5491 
G01 X54.1764 Y37.4436 
G01 X56.4436 Y37.4436 
G01 X56.4436 Y16.9267 
G01 X56.4815 Y16.7852 
G01 X56.5548 Y16.6584 
G01 X56.6584 Y16.5548 
G01 X56.7852 Y16.4815 
G01 X56.9267 Y16.4436 
G01 X67.4436 Y16.4436 
G01 X67.4436 Y6.3741 
G01 X60.0368 Y6.3741 
G01 X60.0368 Y8.0247 
G01 X60.0654 Y8.0393 
G01 X60.2074 Y8.1424 
G01 X60.3315 Y8.2666 
G01 X60.4347 Y8.4086 
G01 X60.5144 Y8.5650 
G01 X60.5686 Y8.7319 
G01 X60.5961 Y8.9053 
G00 Z2.4000 
G00 X27.5761 Y11.4453 
G01 Z-0.1000 F50.00 
G01 X27.5761 Y11.6208 F100.00 
G01 X27.5486 Y11.7942 
G01 X27.4944 Y11.9611 
G01 X27.4147 Y12.1175 
G01 X27.3115 Y12.2596 
G01 X27.1874 Y12.3837 
G01 X27.0454 Y12.4869 
G01 X26.8890 Y12.5666 
G01 X26.7221 Y12.6208 
G01 X26.5487 Y12.6483 
G01 X26.3731 Y12.6483 
G01 X26.1998 Y12.6208 
G01 X26.0328 Y12.5666 
G01 X25.8764 Y12.4869 
G01 X25.7344 Y12.3837 
G01 X25.6103 Y12.2596 
G01 X25.5071 Y12.1175 
G01 X25.4274 Y11.9611 
G01 X25.3732 Y11.7942 
G01 X25.3457 Y11.6208 
G01 X25.3457 Y11.4453 
G01 X25.3732 Y11.2719 
G01 X25.4274 Y11.1050 
G01 X25.5071 Y10.9486 
G01 X25.6103 Y10.8065 
G01 X25.7344 Y10.6824 
G01 X25.8764 Y10.5793 
G01 X26.0328 Y10.4996 
G01 X26.1998 Y10.4453 
G01 X26.3731 Y10.4179 
G01 X26.5487 Y10.4179 
G01 X26.7221 Y10.4453 
G01 X26.8890 Y10.4996 
G01 X27.0454 Y10.5793 
G01 X27.1874 Y10.6824 
G01 X27.3115 Y10.8065 
G01 X27.4147 Y10.9486 
G01 X27.4944 Y11.1050 
G01 X27.5486 Y11.2719 
G01 X27.5761 Y11.4453 
G00 Z2.4000 
G00 X27.5761 Y8.9053 
G01 Z-0.1000 F50.00 
G01 X27.5761 Y9.0808 F100.00 
G01 X27.5486 Y9.2542 
G01 X27.4944 Y9.4211 
G01 X27.4147 Y9.5775 
G01 X27.3115 Y9.7196 
G01 X27.1874 Y9.8437 
G01 X27.0454 Y9.9469 
G01 X26.8890 Y10.0266 
G01 X26.7221 Y10.0808 
G01 X26.5487 Y10.1083 
G01 X26.3731 Y10.1083 
G01 X26.1998 Y10.0808 
G01 X26.0328 Y10.0266 
G01 X25.8764 Y9.9469 
G01 X25.7344 Y9.8437 
G01 X25.6103 Y9.7196 
G01 X25.5071 Y9.5775 
G01 X25.4274 Y9.4211 
G01 X25.3732 Y9.2542 
G01 X25.3457 Y9.0808 
G01 X25.3457 Y8.9053 
G01 X25.3732 Y8.7319 
G01 X25.4274 Y8.5650 
G01 X25.5071 Y8.4086 
G01 X25.6103 Y8.2666 
G01 X25.7344 Y8.1424 
G01 X25.8764 Y8.0393 
G01 X26.0328 Y7.9596 
G01 X26.1998 Y7.9053 
G01 X26.3731 Y7.8779 
G01 X26.5487 Y7.8779 
G01 X26.7221 Y7.9053 
G01 X26.8890 Y7.9596 
G01 X27.0454 Y8.0393 
G01 X27.1874 Y8.1424 
G01 X27.3115 Y8.2666 
G01 X27.4147 Y8.4086 
G01 X27.4944 Y8.5650 
G01 X27.5486 Y8.7319 
G01 X27.5761 Y8.9053 
G00 Z2.4000 
G00 X25.0361 Y11.4453 
G01 Z-0.1000 F50.00 
G01 X25.0361 Y11.6208 F100.00 
G01 X25.0086 Y11.7942 
G01 X24.9544 Y11.9611 
G01 X24.8747 Y12.1175 
G01 X24.7715 Y12.2596 
G01 X24.6474 Y12.3837 
G01 X24.5054 Y12.4869 
G01 X24.3490 Y12.5666 
G01 X24.1821 Y12.6208 
G01 X24.0087 Y12.6483 
G01 X23.8331 Y12.6483 
G01 X23.6598 Y12.6208 
G01 X23.4928 Y12.5666 
G01 X23.3364 Y12.4869 
G01 X23.1944 Y12.3837 
G01 X23.0703 Y12.2596 
G01 X22.9671 Y12.1175 
G01 X22.8874 Y11.9611 
G01 X22.8332 Y11.7942 
G01 X22.8057 Y11.6208 
G01 X22.8057 Y11.4453 
G01 X22.8332 Y11.2719 
G01 X22.8874 Y11.1050 
G01 X22.9671 Y10.9486 
G01 X23.0703 Y10.8065 
G01 X23.1944 Y10.6824 
G01 X23.3364 Y10.5793 
G01 X23.4928 Y10.4996 
G01 X23.6598 Y10.4453 
G01 X23.8331 Y10.4179 
G01 X24.0087 Y10.4179 
G01 X24.1821 Y10.4453 
G01 X24.3490 Y10.4996 
G01 X24.5054 Y10.5793 
G01 X24.6474 Y10.6824 
G01 X24.7715 Y10.8065 
G01 X24.8747 Y10.9486 
G01 X24.9544 Y11.1050 
G01 X25.0086 Y11.2719 
G01 X25.0361 Y11.4453 
G00 Z2.4000 
G00 X25.0361 Y8.9053 
G01 Z-0.1000 F50.00 
G01 X25.0361 Y9.0808 F100.00 
G01 X25.0086 Y9.2542 
G01 X24.9544 Y9.4211 
G01 X24.8747 Y9.5775 
G01 X24.7715 Y9.7196 
G01 X24.6474 Y9.8437 
G01 X24.5054 Y9.9469 
G01 X24.3490 Y10.0266 
G01 X24.1821 Y10.0808 
G01 X24.0087 Y10.1083 
G01 X23.8331 Y10.1083 
G01 X23.6598 Y10.0808 
G01 X23.4928 Y10.0266 
G01 X23.3364 Y9.9469 
G01 X23.1944 Y9.8437 
G01 X23.0703 Y9.7196 
G01 X22.9671 Y9.5775 
G01 X22.8874 Y9.4211 
G01 X22.8332 Y9.2542 
G01 X22.8057 Y9.0808 
G01 X22.8057 Y8.9053 
G01 X22.8332 Y8.7319 
G01 X22.8874 Y8.5650 
G01 X22.9059 Y8.5286 
G01 X22.8911 Y8.5286 
G01 X22.8613 Y8.5333 
G01 X22.8416 Y8.5286 
G01 X22.8213 Y8.5286 
G01 X22.7934 Y8.5170 
G01 X22.7639 Y8.5100 
G01 X22.7475 Y8.4981 
G01 X22.7288 Y8.4903 
G01 X22.7074 Y8.4689 
G01 X22.6830 Y8.4511 
G01 X22.6724 Y8.4339 
G01 X22.6580 Y8.4195 
G01 X22.6465 Y8.3916 
G01 X22.6307 Y8.3658 
G01 X22.6275 Y8.3458 
G01 X22.5673 Y8.2004 
G01 X22.1736 Y7.8067 
G01 X21.6593 Y7.5937 
G01 X21.1026 Y7.5937 
G01 X20.5882 Y7.8067 
G01 X20.1946 Y8.2004 
G01 X20.1343 Y8.3458 
G01 X20.1311 Y8.3658 
G01 X20.1153 Y8.3916 
G01 X20.1038 Y8.4195 
G01 X20.0894 Y8.4339 
G01 X20.0788 Y8.4511 
G01 X20.0544 Y8.4689 
G01 X20.0330 Y8.4903 
G01 X20.0143 Y8.4981 
G01 X19.9979 Y8.5100 
G01 X19.9685 Y8.5170 
G01 X19.9405 Y8.5286 
G01 X19.9202 Y8.5286 
G01 X19.9005 Y8.5333 
G01 X19.8707 Y8.5286 
G01 X19.8559 Y8.5286 
G01 X19.8744 Y8.5650 
G01 X19.9286 Y8.7319 
G01 X19.9561 Y8.9053 
G01 X19.9561 Y9.0808 
G01 X19.9286 Y9.2542 
G01 X19.8744 Y9.4211 
G01 X19.7947 Y9.5775 
G01 X19.6915 Y9.7196 
G01 X19.5674 Y9.8437 
G01 X19.4254 Y9.9469 
G01 X19.2690 Y10.0266 
G01 X19.1021 Y10.0808 
G01 X18.9287 Y10.1083 
G01 X18.7531 Y10.1083 
G01 X18.5798 Y10.0808 
G01 X18.4128 Y10.0266 
G01 X18.2564 Y9.9469 
G01 X18.1144 Y9.8437 
G01 X17.9903 Y9.7196 
G01 X17.8871 Y9.5775 
G01 X17.8074 Y9.4211 
G01 X17.7532 Y9.2542 
G01 X17.7257 Y9.0808 
G01 X17.7257 Y8.9053 
G01 X17.7532 Y8.7319 
G01 X17.8074 Y8.5650 
G01 X17.8259 Y8.5286 
G01 X17.8111 Y8.5286 
G01 X17.7813 Y8.5333 
G01 X17.7616 Y8.5286 
G01 X17.7413 Y8.5286 
G01 X17.7133 Y8.5170 
G01 X17.6839 Y8.5100 
G01 X17.6675 Y8.4981 
G01 X17.6488 Y8.4903 
G01 X17.6274 Y8.4689 
G01 X17.6030 Y8.4511 
G01 X17.5924 Y8.4339 
G01 X17.5780 Y8.4195 
G01 X17.5665 Y8.3916 
G01 X17.5507 Y8.3658 
G01 X17.5475 Y8.3458 
G01 X17.4873 Y8.2004 
G01 X17.0936 Y7.8067 
G01 X16.5793 Y7.5937 
G01 X16.0225 Y7.5937 
G01 X15.5082 Y7.8067 
G01 X15.2442 Y8.0707 
G01 X15.1766 Y8.1384 
G01 X15.1734 Y8.1415 
G01 X15.0810 Y8.1798 
G01 X14.9809 Y8.1798 
G01 X14.8884 Y8.1415 
G01 X14.8187 Y8.0718 
G01 X14.5536 Y7.8067 
G01 X14.0393 Y7.5937 
G01 X13.4825 Y7.5937 
G01 X12.9682 Y7.8067 
G01 X12.7042 Y8.0707 
G01 X12.6366 Y8.1384 
G01 X12.6334 Y8.1415 
G01 X12.5410 Y8.1798 
G01 X12.4409 Y8.1798 
G01 X12.3484 Y8.1415 
G01 X12.2787 Y8.0718 
G01 X12.0136 Y7.8067 
G01 X11.4993 Y7.5937 
G01 X10.9426 Y7.5937 
G01 X10.4282 Y7.8067 
G01 X10.0346 Y8.2004 
G01 X9.8215 Y8.7147 
G01 X9.8215 Y9.2714 
G01 X10.0346 Y9.7858 
G01 X10.4282 Y10.1794 
G01 X10.5736 Y10.2396 
G01 X10.5937 Y10.2428 
G01 X10.6194 Y10.2586 
G01 X10.6474 Y10.2702 
G01 X10.6617 Y10.2845 
G01 X10.6790 Y10.2951 
G01 X10.6968 Y10.3196 
G01 X10.7182 Y10.3410 
G01 X10.7259 Y10.3597 
G01 X10.7378 Y10.3761 
G01 X10.7449 Y10.4055 
G01 X10.7565 Y10.4334 
G01 X10.7565 Y10.4537 
G01 X10.7612 Y10.4734 
G01 X10.7565 Y10.5033 
G01 X10.7565 Y10.5181 
G01 X10.7928 Y10.4996 
G01 X10.9598 Y10.4453 
G01 X11.1331 Y10.4179 
G01 X11.3087 Y10.4179 
G01 X11.4821 Y10.4453 
G01 X11.6490 Y10.4996 
G01 X11.8054 Y10.5793 
G01 X11.9474 Y10.6824 
G01 X12.0715 Y10.8065 
G01 X12.1747 Y10.9486 
G01 X12.2544 Y11.1050 
G01 X12.3086 Y11.2719 
G01 X12.3361 Y11.4453 
G01 X12.3361 Y11.6208 
G01 X12.3086 Y11.7942 
G01 X12.2544 Y11.9611 
G01 X12.2359 Y11.9975 
G01 X12.2507 Y11.9975 
G01 X12.2805 Y11.9928 
G01 X12.3003 Y11.9975 
G01 X12.3205 Y11.9975 
G01 X12.3485 Y12.0091 
G01 X12.3779 Y12.0161 
G01 X12.3943 Y12.0280 
G01 X12.4130 Y12.0358 
G01 X12.4344 Y12.0572 
G01 X12.4588 Y12.0750 
G01 X12.4694 Y12.0922 
G01 X12.4838 Y12.1066 
G01 X12.4953 Y12.1345 
G01 X12.5111 Y12.1603 
G01 X12.5143 Y12.1803 
G01 X12.5746 Y12.3258 
G01 X12.9682 Y12.7194 
G01 X13.4825 Y12.9325 
G01 X14.0393 Y12.9325 
G01 X14.5536 Y12.7194 
G01 X14.8884 Y12.3846 
G01 X14.9809 Y12.3463 
G01 X15.0810 Y12.3463 
G01 X15.1734 Y12.3846 
G01 X15.2442 Y12.4554 
G01 X15.5082 Y12.7194 
G01 X16.0226 Y12.9325 
G01 X16.5793 Y12.9325 
G01 X17.0936 Y12.7194 
G01 X17.4284 Y12.3846 
G01 X17.5209 Y12.3463 
G01 X17.6210 Y12.3463 
G01 X17.7134 Y12.3846 
G01 X17.7842 Y12.4554 
G01 X18.0482 Y12.7194 
G01 X18.5626 Y12.9325 
G01 X19.1193 Y12.9325 
G01 X19.6336 Y12.7194 
G01 X19.9684 Y12.3846 
G01 X20.0609 Y12.3463 
G01 X20.1610 Y12.3463 
G01 X20.2534 Y12.3846 
G01 X20.3242 Y12.4554 
G01 X20.5882 Y12.7194 
G01 X21.1026 Y12.9325 
G01 X21.6593 Y12.9325 
G01 X22.1736 Y12.7194 
G01 X22.5084 Y12.3846 
G01 X22.6009 Y12.3463 
G01 X22.7010 Y12.3463 
G01 X22.7934 Y12.3846 
G01 X22.8642 Y12.4554 
G01 X23.1282 Y12.7194 
G01 X23.6425 Y12.9325 
G01 X24.1993 Y12.9325 
G01 X24.7136 Y12.7194 
G01 X25.0484 Y12.3846 
G01 X25.1409 Y12.3463 
G01 X25.2410 Y12.3463 
G01 X25.3334 Y12.3846 
G01 X25.4042 Y12.4554 
G01 X25.6682 Y12.7194 
G01 X26.1826 Y12.9325 
G01 X26.7393 Y12.9325 
G01 X27.2536 Y12.7194 
G01 X27.6473 Y12.3258 
G01 X27.7075 Y12.1803 
G01 X27.7107 Y12.1603 
G01 X27.7265 Y12.1345 
G01 X27.7380 Y12.1066 
G01 X27.7524 Y12.0922 
G01 X27.7630 Y12.0750 
G01 X27.7874 Y12.0572 
G01 X27.8088 Y12.0358 
G01 X27.8275 Y12.0280 
G01 X27.8439 Y12.0161 
G01 X27.8733 Y12.0091 
G01 X27.9013 Y11.9975 
G01 X27.9216 Y11.9975 
G01 X27.9413 Y11.9928 
G01 X27.9711 Y11.9975 
G01 X27.9859 Y11.9975 
G01 X27.9674 Y11.9611 
G01 X27.9132 Y11.7942 
G01 X27.8857 Y11.6208 
G01 X27.8857 Y11.4453 
G01 X27.9132 Y11.2719 
G01 X27.9674 Y11.1050 
G01 X28.0471 Y10.9486 
G01 X28.1503 Y10.8065 
G01 X28.2744 Y10.6824 
G01 X28.4164 Y10.5793 
G01 X28.5728 Y10.4996 
G01 X28.7398 Y10.4453 
G01 X28.9131 Y10.4179 
G01 X29.0887 Y10.4179 
G01 X29.2621 Y10.4453 
G01 X29.4290 Y10.4996 
G01 X29.5854 Y10.5793 
G01 X29.7274 Y10.6824 
G01 X29.8515 Y10.8065 
G01 X29.9547 Y10.9486 
G01 X30.0344 Y11.1050 
G01 X30.0886 Y11.2719 
G01 X30.1161 Y11.4453 
G01 X30.1161 Y11.6208 
G01 X30.0886 Y11.7942 
G01 X30.0344 Y11.9611 
G01 X30.0159 Y11.9975 
G01 X30.0307 Y11.9975 
G01 X30.0605 Y11.9928 
G01 X30.0803 Y11.9975 
G01 X30.1005 Y11.9975 
G01 X30.1285 Y12.0091 
G01 X30.1579 Y12.0161 
G01 X30.1743 Y12.0280 
G01 X30.1930 Y12.0358 
G01 X30.2144 Y12.0572 
G01 X30.2388 Y12.0750 
G01 X30.2494 Y12.0922 
G01 X30.2638 Y12.1066 
G01 X30.2753 Y12.1345 
G01 X30.2911 Y12.1603 
G01 X30.2943 Y12.1803 
G01 X30.3546 Y12.3258 
G01 X30.7482 Y12.7194 
G01 X31.2626 Y12.9325 
G01 X31.8193 Y12.9325 
G01 X32.3336 Y12.7194 
G01 X32.6684 Y12.3846 
G01 X32.7609 Y12.3463 
G01 X32.8610 Y12.3463 
G01 X32.9534 Y12.3846 
G01 X33.0242 Y12.4554 
G01 X33.2882 Y12.7194 
G01 X33.8026 Y12.9325 
G01 X34.3593 Y12.9325 
G01 X34.8736 Y12.7194 
G01 X35.2084 Y12.3846 
G01 X35.3009 Y12.3463 
G01 X35.4010 Y12.3463 
G01 X35.4934 Y12.3846 
G01 X35.5642 Y12.4554 
G01 X35.8282 Y12.7194 
G01 X36.3426 Y12.9325 
G01 X36.8993 Y12.9325 
G01 X37.4136 Y12.7194 
G01 X37.7484 Y12.3846 
G01 X37.8409 Y12.3463 
G01 X37.9410 Y12.3463 
G01 X38.0334 Y12.3846 
G01 X38.1042 Y12.4554 
G01 X38.3682 Y12.7194 
G01 X38.8826 Y12.9325 
G01 X39.4393 Y12.9325 
G01 X39.9536 Y12.7194 
G01 X40.2884 Y12.3846 
G01 X40.3809 Y12.3463 
G01 X40.4810 Y12.3463 
G01 X40.5734 Y12.3846 
G01 X40.6442 Y12.4554 
G01 X40.9082 Y12.7194 
G01 X41.4226 Y12.9325 
G01 X41.9793 Y12.9325 
G01 X42.4936 Y12.7194 
G01 X42.8284 Y12.3846 
G01 X42.9209 Y12.3463 
G01 X43.0210 Y12.3463 
G01 X43.1134 Y12.3846 
G01 X43.1842 Y12.4554 
G01 X43.4482 Y12.7194 
G01 X43.9626 Y12.9325 
G01 X44.5193 Y12.9325 
G01 X45.0336 Y12.7194 
G01 X45.3684 Y12.3846 
G01 X45.4609 Y12.3463 
G01 X45.5610 Y12.3463 
G01 X45.6534 Y12.3846 
G01 X45.7242 Y12.4554 
G01 X45.9020 Y12.6332 
G01 X45.9403 Y12.7257 
G01 X45.9403 Y13.1567 
G01 X45.9020 Y13.2492 
G01 X45.8312 Y13.3200 
G01 X45.2374 Y13.9138 
G01 X45.1094 Y14.2228 
G01 X45.1094 Y16.5608 
G01 X45.0711 Y16.6533 
G01 X45.0003 Y16.7241 
G01 X44.9078 Y16.7624 
G01 X3.4291 Y16.7624 
G01 X3.3367 Y16.7241 
G01 X3.2659 Y16.6533 
G01 X3.2276 Y16.5608 
G01 X3.2276 Y2.4902 
G01 X3.2659 Y2.3977 
G01 X3.3367 Y2.3270 
G01 X3.4291 Y2.2887 
G01 X53.4125 Y2.2887 
G01 X53.4497 Y2.3041 
G01 X53.5050 Y2.3270 
G01 X53.5758 Y2.3977 
G01 X53.5819 Y2.4125 
G01 X53.6141 Y2.4902 
G01 X53.6141 Y2.5903 
G01 X53.5966 Y2.6326 
G01 X53.5758 Y2.6828 
G01 X53.5603 Y2.7201 
G01 X53.5603 Y7.8004 
G01 X53.5220 Y7.8929 
G01 X53.4512 Y7.9637 
G01 X53.3442 Y8.0707 
G01 X53.2760 Y8.1390 
G01 X53.1810 Y8.1798 
G01 X53.0809 Y8.1798 
G01 X52.9884 Y8.1415 
G01 X52.6536 Y7.8067 
G01 X52.1393 Y7.5937 
G01 X51.5826 Y7.5937 
G01 X51.0682 Y7.8067 
G01 X50.7334 Y8.1415 
G01 X50.6410 Y8.1798 
G01 X50.5409 Y8.1798 
G01 X50.4484 Y8.1415 
G01 X50.3776 Y8.0707 
G01 X50.1136 Y7.8067 
G01 X49.5993 Y7.5937 
G01 X49.0425 Y7.5937 
G01 X48.5282 Y7.8067 
G01 X48.2642 Y8.0707 
G01 X48.1966 Y8.1384 
G01 X48.1934 Y8.1415 
G01 X48.1010 Y8.1798 
G01 X48.0009 Y8.1798 
G01 X47.9084 Y8.1415 
G01 X47.8387 Y8.0718 
G01 X47.5736 Y7.8067 
G01 X47.0593 Y7.5937 
G01 X46.5025 Y7.5937 
G01 X45.9882 Y7.8067 
G01 X45.5946 Y8.2004 
G01 X45.5343 Y8.3458 
G01 X45.5311 Y8.3658 
G01 X45.5153 Y8.3916 
G01 X45.5038 Y8.4195 
G01 X45.4894 Y8.4339 
G01 X45.4788 Y8.4511 
G01 X45.4544 Y8.4689 
G01 X45.4330 Y8.4903 
G01 X45.4143 Y8.4981 
G01 X45.3979 Y8.5100 
G01 X45.3685 Y8.5170 
G01 X45.3405 Y8.5286 
G01 X45.3203 Y8.5286 
G01 X45.3005 Y8.5333 
G01 X45.2707 Y8.5286 
G01 X45.2559 Y8.5286 
G01 X45.2744 Y8.5650 
G01 X45.3286 Y8.7319 
G01 X45.3561 Y8.9053 
G01 X45.3561 Y9.0808 
G01 X45.3286 Y9.2542 
G01 X45.2744 Y9.4211 
G01 X45.1947 Y9.5775 
G01 X45.0915 Y9.7196 
G01 X44.9674 Y9.8437 
G01 X44.8254 Y9.9469 
G01 X44.6690 Y10.0266 
G01 X44.5021 Y10.0808 
G01 X44.3287 Y10.1083 
G01 X44.1531 Y10.1083 
G01 X43.9798 Y10.0808 
G01 X43.8128 Y10.0266 
G01 X43.6564 Y9.9469 
G01 X43.5144 Y9.8437 
G01 X43.3903 Y9.7196 
G01 X43.2871 Y9.5775 
G01 X43.2074 Y9.4211 
G01 X43.1532 Y9.2542 
G01 X43.1257 Y9.0808 
G01 X43.1257 Y8.9053 
G01 X43.1532 Y8.7319 
G01 X43.2074 Y8.5650 
G01 X43.2259 Y8.5286 
G01 X43.2111 Y8.5286 
G01 X43.1813 Y8.5333 
G01 X43.1616 Y8.5286 
G01 X43.1413 Y8.5286 
G01 X43.1133 Y8.5170 
G01 X43.0839 Y8.5100 
G01 X43.0675 Y8.4981 
G01 X43.0488 Y8.4903 
G01 X43.0274 Y8.4689 
G01 X43.0030 Y8.4511 
G01 X42.9924 Y8.4339 
G01 X42.9780 Y8.4195 
G01 X42.9665 Y8.3916 
G01 X42.9507 Y8.3658 
G01 X42.9475 Y8.3458 
G01 X42.8873 Y8.2004 
G01 X42.4936 Y7.8067 
G01 X41.9793 Y7.5937 
G01 X41.4226 Y7.5937 
G01 X40.9082 Y7.8067 
G01 X40.5734 Y8.1415 
G01 X40.4810 Y8.1798 
G01 X40.3809 Y8.1798 
G01 X40.2884 Y8.1415 
G01 X40.2176 Y8.0707 
G01 X39.9536 Y7.8067 
G01 X39.4393 Y7.5937 
G01 X38.8826 Y7.5937 
G01 X38.3682 Y7.8067 
G01 X37.9746 Y8.2004 
G01 X37.9143 Y8.3458 
G01 X37.9111 Y8.3658 
G01 X37.8953 Y8.3916 
G01 X37.8838 Y8.4195 
G01 X37.8694 Y8.4339 
G01 X37.8588 Y8.4511 
G01 X37.8344 Y8.4689 
G01 X37.8130 Y8.4903 
G01 X37.7943 Y8.4981 
G01 X37.7779 Y8.5100 
G01 X37.7485 Y8.5170 
G01 X37.7205 Y8.5286 
G01 X37.7003 Y8.5286 
G01 X37.6805 Y8.5333 
G01 X37.6507 Y8.5286 
G01 X37.6359 Y8.5286 
G01 X37.6544 Y8.5650 
G01 X37.7086 Y8.7319 
G01 X37.7361 Y8.9053 
G01 X37.7361 Y9.0808 
G01 X37.7086 Y9.2542 
G01 X37.6544 Y9.4211 
G01 X37.5747 Y9.5775 
G01 X37.4715 Y9.7196 
G01 X37.3474 Y9.8437 
G01 X37.2054 Y9.9469 
G01 X37.0490 Y10.0266 
G01 X36.8821 Y10.0808 
G01 X36.7087 Y10.1083 
G01 X36.5331 Y10.1083 
G01 X36.3598 Y10.0808 
G01 X36.1928 Y10.0266 
G01 X36.0364 Y9.9469 
G01 X35.8944 Y9.8437 
G01 X35.7703 Y9.7196 
G01 X35.6671 Y9.5775 
G01 X35.5874 Y9.4211 
G01 X35.5332 Y9.2542 
G01 X35.5057 Y9.0808 
G01 X35.5057 Y8.9053 
G01 X35.5332 Y8.7319 
G01 X35.5874 Y8.5650 
G01 X35.6059 Y8.5286 
G01 X35.5911 Y8.5286 
G01 X35.5613 Y8.5333 
G01 X35.5416 Y8.5286 
G01 X35.5213 Y8.5286 
G01 X35.4933 Y8.5170 
G01 X35.4639 Y8.5100 
G01 X35.4475 Y8.4981 
G01 X35.4288 Y8.4903 
G01 X35.4074 Y8.4689 
G01 X35.3830 Y8.4511 
G01 X35.3724 Y8.4339 
G01 X35.3580 Y8.4195 
G01 X35.3465 Y8.3916 
G01 X35.3307 Y8.3658 
G01 X35.3275 Y8.3458 
G01 X35.2673 Y8.2004 
G01 X34.8736 Y7.8067 
G01 X34.3593 Y7.5937 
G01 X33.8026 Y7.5937 
G01 X33.2882 Y7.8067 
G01 X32.9534 Y8.1415 
G01 X32.8610 Y8.1798 
G01 X32.7609 Y8.1798 
G01 X32.6684 Y8.1415 
G01 X32.5976 Y8.0707 
G01 X32.3336 Y7.8067 
G01 X31.8193 Y7.5937 
G01 X31.2626 Y7.5937 
G01 X30.7482 Y7.8067 
G01 X30.4134 Y8.1415 
G01 X30.3210 Y8.1798 
G01 X30.2209 Y8.1798 
G01 X30.1284 Y8.1415 
G01 X30.0576 Y8.0707 
G01 X29.7936 Y7.8067 
G01 X29.2793 Y7.5937 
G01 X28.7226 Y7.5937 
G01 X28.2082 Y7.8067 
G01 X27.8734 Y8.1415 
G01 X27.7810 Y8.1798 
G01 X27.6809 Y8.1798 
G01 X27.5884 Y8.1415 
G01 X27.5176 Y8.0707 
G01 X27.2536 Y7.8067 
G01 X26.7393 Y7.5937 
G01 X26.1825 Y7.5937 
G01 X25.6682 Y7.8067 
G01 X25.2746 Y8.2004 
G01 X25.2143 Y8.3458 
G01 X25.2111 Y8.3658 
G01 X25.1953 Y8.3916 
G01 X25.1838 Y8.4195 
G01 X25.1694 Y8.4339 
G01 X25.1588 Y8.4511 
G01 X25.1344 Y8.4689 
G01 X25.1130 Y8.4903 
G01 X25.0943 Y8.4981 
G01 X25.0779 Y8.5100 
G01 X25.0485 Y8.5170 
G01 X25.0205 Y8.5286 
G01 X25.0003 Y8.5286 
G01 X24.9805 Y8.5333 
G01 X24.9507 Y8.5286 
G01 X24.9359 Y8.5286 
G01 X24.9544 Y8.5650 
G01 X25.0086 Y8.7319 
G01 X25.0361 Y8.9053 
G00 Z2.4000 
G00 X22.4961 Y11.4453 
G01 Z-0.1000 F50.00 
G01 X22.4961 Y11.6208 F100.00 
G01 X22.4686 Y11.7942 
G01 X22.4144 Y11.9611 
G01 X22.3347 Y12.1175 
G01 X22.2315 Y12.2596 
G01 X22.1074 Y12.3837 
G01 X21.9654 Y12.4869 
G01 X21.8090 Y12.5666 
G01 X21.6421 Y12.6208 
G01 X21.4687 Y12.6483 
G01 X21.2931 Y12.6483 
G01 X21.1198 Y12.6208 
G01 X20.9528 Y12.5666 
G01 X20.7964 Y12.4869 
G01 X20.6544 Y12.3837 
G01 X20.5303 Y12.2596 
G01 X20.4271 Y12.1175 
G01 X20.3474 Y11.9611 
G01 X20.2932 Y11.7942 
G01 X20.2657 Y11.6208 
G01 X20.2657 Y11.4453 
G01 X20.2932 Y11.2719 
G01 X20.3474 Y11.1050 
G01 X20.4271 Y10.9486 
G01 X20.5303 Y10.8065 
G01 X20.6544 Y10.6824 
G01 X20.7964 Y10.5793 
G01 X20.9528 Y10.4996 
G01 X21.1198 Y10.4453 
G01 X21.2931 Y10.4179 
G01 X21.4687 Y10.4179 
G01 X21.6421 Y10.4453 
G01 X21.8090 Y10.4996 
G01 X21.9654 Y10.5793 
G01 X22.1074 Y10.6824 
G01 X22.2315 Y10.8065 
G01 X22.3347 Y10.9486 
G01 X22.4144 Y11.1050 
G01 X22.4686 Y11.2719 
G01 X22.4961 Y11.4453 
G00 Z2.4000 
G00 X22.4961 Y8.9053 
G01 Z-0.1000 F50.00 
G01 X22.4961 Y9.0808 F100.00 
G01 X22.4686 Y9.2542 
G01 X22.4144 Y9.4211 
G01 X22.3347 Y9.5775 
G01 X22.2315 Y9.7196 
G01 X22.1074 Y9.8437 
G01 X21.9654 Y9.9469 
G01 X21.8090 Y10.0266 
G01 X21.6421 Y10.0808 
G01 X21.4687 Y10.1083 
G01 X21.2931 Y10.1083 
G01 X21.1198 Y10.0808 
G01 X20.9528 Y10.0266 
G01 X20.7964 Y9.9469 
G01 X20.6544 Y9.8437 
G01 X20.5303 Y9.7196 
G01 X20.4271 Y9.5775 
G01 X20.3474 Y9.4211 
G01 X20.2932 Y9.2542 
G01 X20.2657 Y9.0808 
G01 X20.2657 Y8.9053 
G01 X20.2932 Y8.7319 
G01 X20.3474 Y8.5650 
G01 X20.4271 Y8.4086 
G01 X20.5303 Y8.2666 
G01 X20.6544 Y8.1424 
G01 X20.7964 Y8.0393 
G01 X20.9528 Y7.9596 
G01 X21.1198 Y7.9053 
G01 X21.2931 Y7.8779 
G01 X21.4687 Y7.8779 
G01 X21.6421 Y7.9053 
G01 X21.8090 Y7.9596 
G01 X21.9654 Y8.0393 
G01 X22.1074 Y8.1424 
G01 X22.2315 Y8.2666 
G01 X22.3347 Y8.4086 
G01 X22.4144 Y8.5650 
G01 X22.4686 Y8.7319 
G01 X22.4961 Y8.9053 
G00 Z2.4000 
G00 X19.9561 Y11.4453 
G01 Z-0.1000 F50.00 
G01 X19.9561 Y11.6208 F100.00 
G01 X19.9286 Y11.7942 
G01 X19.8744 Y11.9611 
G01 X19.7947 Y12.1175 
G01 X19.6915 Y12.2596 
G01 X19.5674 Y12.3837 
G01 X19.4254 Y12.4869 
G01 X19.2690 Y12.5666 
G01 X19.1021 Y12.6208 
G01 X18.9287 Y12.6483 
G01 X18.7531 Y12.6483 
G01 X18.5798 Y12.6208 
G01 X18.4128 Y12.5666 
G01 X18.2564 Y12.4869 
G01 X18.1144 Y12.3837 
G01 X17.9903 Y12.2596 
G01 X17.8871 Y12.1175 
G01 X17.8074 Y11.9611 
G01 X17.7532 Y11.7942 
G01 X17.7257 Y11.6208 
G01 X17.7257 Y11.4453 
G01 X17.7532 Y11.2719 
G01 X17.8074 Y11.1050 
G01 X17.8871 Y10.9486 
G01 X17.9903 Y10.8065 
G01 X18.1144 Y10.6824 
G01 X18.2564 Y10.5793 
G01 X18.4128 Y10.4996 
G01 X18.5798 Y10.4453 
G01 X18.7531 Y10.4179 
G01 X18.9287 Y10.4179 
G01 X19.1021 Y10.4453 
G01 X19.2690 Y10.4996 
G01 X19.4254 Y10.5793 
G01 X19.5674 Y10.6824 
G01 X19.6915 Y10.8065 
G01 X19.7947 Y10.9486 
G01 X19.8744 Y11.1050 
G01 X19.9286 Y11.2719 
G01 X19.9561 Y11.4453 
G00 Z2.4000 
G00 X17.4161 Y11.4453 
G01 Z-0.1000 F50.00 
G01 X17.4161 Y11.6208 F100.00 
G01 X17.3886 Y11.7942 
G01 X17.3344 Y11.9611 
G01 X17.2547 Y12.1175 
G01 X17.1515 Y12.2596 
G01 X17.0274 Y12.3837 
G01 X16.8854 Y12.4869 
G01 X16.7290 Y12.5666 
G01 X16.5621 Y12.6208 
G01 X16.3887 Y12.6483 
G01 X16.2131 Y12.6483 
G01 X16.0398 Y12.6208 
G01 X15.8728 Y12.5666 
G01 X15.7164 Y12.4869 
G01 X15.5744 Y12.3837 
G01 X15.4503 Y12.2596 
G01 X15.3471 Y12.1175 
G01 X15.2674 Y11.9611 
G01 X15.2132 Y11.7942 
G01 X15.1857 Y11.6208 
G01 X15.1857 Y11.4453 
G01 X15.2132 Y11.2719 
G01 X15.2674 Y11.1050 
G01 X15.3471 Y10.9486 
G01 X15.4503 Y10.8065 
G01 X15.5744 Y10.6824 
G01 X15.7164 Y10.5793 
G01 X15.8728 Y10.4996 
G01 X16.0398 Y10.4453 
G01 X16.2131 Y10.4179 
G01 X16.3887 Y10.4179 
G01 X16.5621 Y10.4453 
G01 X16.7290 Y10.4996 
G01 X16.8854 Y10.5793 
G01 X17.0274 Y10.6824 
G01 X17.1515 Y10.8065 
G01 X17.2547 Y10.9486 
G01 X17.3344 Y11.1050 
G01 X17.3886 Y11.2719 
G01 X17.4161 Y11.4453 
G00 Z2.4000 
G00 X17.4161 Y8.9053 
G01 Z-0.1000 F50.00 
G01 X17.4161 Y9.0808 F100.00 
G01 X17.3886 Y9.2542 
G01 X17.3344 Y9.4211 
G01 X17.2547 Y9.5775 
G01 X17.1515 Y9.7196 
G01 X17.0274 Y9.8437 
G01 X16.8854 Y9.9469 
G01 X16.7290 Y10.0266 
G01 X16.5621 Y10.0808 
G01 X16.3887 Y10.1083 
G01 X16.2131 Y10.1083 
G01 X16.0398 Y10.0808 
G01 X15.8728 Y10.0266 
G01 X15.7164 Y9.9469 
G01 X15.5744 Y9.8437 
G01 X15.4503 Y9.7196 
G01 X15.3471 Y9.5775 
G01 X15.2674 Y9.4211 
G01 X15.2132 Y9.2542 
G01 X15.1857 Y9.0808 
G01 X15.1857 Y8.9053 
G01 X15.2132 Y8.7319 
G01 X15.2674 Y8.5650 
G01 X15.3471 Y8.4086 
G01 X15.4503 Y8.2666 
G01 X15.5744 Y8.1424 
G01 X15.7164 Y8.0393 
G01 X15.8728 Y7.9596 
G01 X16.0398 Y7.9053 
G01 X16.2131 Y7.8779 
G01 X16.3887 Y7.8779 
G01 X16.5621 Y7.9053 
G01 X16.7290 Y7.9596 
G01 X16.8854 Y8.0393 
G01 X17.0274 Y8.1424 
G01 X17.1515 Y8.2666 
G01 X17.2547 Y8.4086 
G01 X17.3344 Y8.5650 
G01 X17.3886 Y8.7319 
G01 X17.4161 Y8.9053 
G00 Z2.4000 
G00 X14.8761 Y11.4453 
G01 Z-0.1000 F50.00 
G01 X14.8761 Y11.6208 F100.00 
G01 X14.8486 Y11.7942 
G01 X14.7944 Y11.9611 
G01 X14.7147 Y12.1175 
G01 X14.6115 Y12.2596 
G01 X14.4874 Y12.3837 
G01 X14.3454 Y12.4869 
G01 X14.1890 Y12.5666 
G01 X14.0221 Y12.6208 
G01 X13.8487 Y12.6483 
G01 X13.6731 Y12.6483 
G01 X13.4998 Y12.6208 
G01 X13.3328 Y12.5666 
G01 X13.1764 Y12.4869 
G01 X13.0344 Y12.3837 
G01 X12.9103 Y12.2596 
G01 X12.8071 Y12.1175 
G01 X12.7274 Y11.9611 
G01 X12.6732 Y11.7942 
G01 X12.6457 Y11.6208 
G01 X12.6457 Y11.4453 
G01 X12.6732 Y11.2719 
G01 X12.7274 Y11.1050 
G01 X12.8071 Y10.9486 
G01 X12.9103 Y10.8065 
G01 X13.0344 Y10.6824 
G01 X13.1764 Y10.5793 
G01 X13.3328 Y10.4996 
G01 X13.4998 Y10.4453 
G01 X13.6731 Y10.4179 
G01 X13.8487 Y10.4179 
G01 X14.0221 Y10.4453 
G01 X14.1890 Y10.4996 
G01 X14.3454 Y10.5793 
G01 X14.4874 Y10.6824 
G01 X14.6115 Y10.8065 
G01 X14.7147 Y10.9486 
G01 X14.7944 Y11.1050 
G01 X14.8486 Y11.2719 
G01 X14.8761 Y11.4453 
G00 Z2.4000 
G00 X14.8761 Y8.9053 
G01 Z-0.1000 F50.00 
G01 X14.8761 Y9.0808 F100.00 
G01 X14.8486 Y9.2542 
G01 X14.7944 Y9.4211 
G01 X14.7147 Y9.5775 
G01 X14.6115 Y9.7196 
G01 X14.4874 Y9.8437 
G01 X14.3454 Y9.9469 
G01 X14.1890 Y10.0266 
G01 X14.0221 Y10.0808 
G01 X13.8487 Y10.1083 
G01 X13.6731 Y10.1083 
G01 X13.4998 Y10.0808 
G01 X13.3328 Y10.0266 
G01 X13.1764 Y9.9469 
G01 X13.0344 Y9.8437 
G01 X12.9103 Y9.7196 
G01 X12.8071 Y9.5775 
G01 X12.7274 Y9.4211 
G01 X12.6732 Y9.2542 
G01 X12.6457 Y9.0808 
G01 X12.6457 Y8.9053 
G01 X12.6732 Y8.7319 
G01 X12.7274 Y8.5650 
G01 X12.8071 Y8.4086 
G01 X12.9103 Y8.2666 
G01 X13.0344 Y8.1424 
G01 X13.1764 Y8.0393 
G01 X13.3328 Y7.9596 
G01 X13.4998 Y7.9053 
G01 X13.6731 Y7.8779 
G01 X13.8487 Y7.8779 
G01 X14.0221 Y7.9053 
G01 X14.1890 Y7.9596 
G01 X14.3454 Y8.0393 
G01 X14.4874 Y8.1424 
G01 X14.6115 Y8.2666 
G01 X14.7147 Y8.4086 
G01 X14.7944 Y8.5650 
G01 X14.8486 Y8.7319 
G01 X14.8761 Y8.9053 
G00 Z2.4000 
G00 X12.3361 Y8.9053 
G01 Z-0.1000 F50.00 
G01 X12.3361 Y9.0808 F100.00 
G01 X12.3086 Y9.2542 
G01 X12.2544 Y9.4211 
G01 X12.1747 Y9.5775 
G01 X12.0715 Y9.7196 
G01 X11.9474 Y9.8437 
G01 X11.8054 Y9.9469 
G01 X11.6490 Y10.0266 
G01 X11.4821 Y10.0808 
G01 X11.3087 Y10.1083 
G01 X11.1331 Y10.1083 
G01 X10.9598 Y10.0808 
G01 X10.7928 Y10.0266 
G01 X10.6364 Y9.9469 
G01 X10.4944 Y9.8437 
G01 X10.3703 Y9.7196 
G01 X10.2671 Y9.5775 
G01 X10.1874 Y9.4211 
G01 X10.1332 Y9.2542 
G01 X10.1057 Y9.0808 
G01 X10.1057 Y8.9053 
G01 X10.1332 Y8.7319 
G01 X10.1874 Y8.5650 
G01 X10.2671 Y8.4086 
G01 X10.3703 Y8.2666 
G01 X10.4944 Y8.1424 
G01 X10.6364 Y8.0393 
G01 X10.7928 Y7.9596 
G01 X10.9598 Y7.9053 
G01 X11.1331 Y7.8779 
G01 X11.3087 Y7.8779 
G01 X11.4821 Y7.9053 
G01 X11.6490 Y7.9596 
G01 X11.8054 Y8.0393 
G01 X11.9474 Y8.1424 
G01 X12.0715 Y8.2666 
G01 X12.1747 Y8.4086 
G01 X12.2544 Y8.5650 
G01 X12.3086 Y8.7319 
G01 X12.3361 Y8.9053 
G00 Z2.4000 
G00 X97.5916 Y50.1282 
G01 Z-0.1000 F50.00 
G01 X97.5916 Y52.5121 F100.00 
G01 X97.5603 Y52.7092 
G01 X97.4987 Y52.8989 
G01 X97.4081 Y53.0767 
G01 X97.2908 Y53.2381 
G01 X97.1497 Y53.3792 
G01 X96.9883 Y53.4965 
G01 X96.8105 Y53.5871 
G01 X96.6208 Y53.6487 
G01 X96.4237 Y53.6799 
G01 X96.2242 Y53.6799 
G01 X96.0271 Y53.6487 
G01 X95.8374 Y53.5871 
G01 X95.6596 Y53.4965 
G01 X95.4982 Y53.3792 
G01 X95.3571 Y53.2381 
G01 X95.2398 Y53.0767 
G01 X95.1492 Y52.8989 
G01 X95.0876 Y52.7092 
G01 X95.0564 Y52.5121 
G01 X95.0564 Y50.1282 
G01 X95.0876 Y49.9311 
G01 X95.1492 Y49.7414 
G01 X95.2398 Y49.5636 
G01 X95.3571 Y49.4022 
G01 X95.4982 Y49.2611 
G01 X95.6596 Y49.1438 
G01 X95.8374 Y49.0532 
G01 X96.0271 Y48.9916 
G01 X96.2242 Y48.9603 
G01 X96.4237 Y48.9603 
G01 X96.6208 Y48.9916 
G01 X96.8105 Y49.0532 
G01 X96.9883 Y49.1438 
G01 X97.1497 Y49.2611 
G01 X97.2908 Y49.4022 
G01 X97.4081 Y49.5636 
G01 X97.4987 Y49.7414 
G01 X97.5603 Y49.9311 
G01 X97.5916 Y50.1282 
G00 Z2.4000 
G00 X35.6344 Y24.2835 
G01 Z-0.1000 F50.00 
G01 X35.6344 Y24.4685 F100.00 
G01 X35.6055 Y24.6512 
G01 X35.5483 Y24.8272 
G01 X35.4643 Y24.9920 
G01 X35.3555 Y25.1417 
G01 X35.2247 Y25.2725 
G01 X35.0750 Y25.3813 
G01 X34.9102 Y25.4653 
G01 X34.7342 Y25.5225 
G01 X34.5515 Y25.5514 
G01 X34.3665 Y25.5514 
G01 X34.1838 Y25.5225 
G01 X34.0078 Y25.4653 
G01 X33.8430 Y25.3813 
G01 X33.6933 Y25.2725 
G01 X33.5625 Y25.1417 
G01 X33.4537 Y24.9920 
G01 X33.4233 Y24.9324 
G01 X29.5564 Y24.9324 
G01 X29.5564 Y44.4436 
G01 X70.0733 Y44.4436 
G01 X70.2148 Y44.4815 
G01 X70.3416 Y44.5548 
G01 X70.4452 Y44.6584 
G01 X70.5185 Y44.7852 
G01 X70.5564 Y44.9267 
G01 X70.5564 Y59.4436 
G01 X81.4436 Y59.4436 
G01 X81.4436 Y56.9267 
G01 X81.4815 Y56.7852 
G01 X81.5548 Y56.6584 
G01 X81.6584 Y56.5548 
G01 X81.7852 Y56.4815 
G01 X81.9267 Y56.4436 
G01 X108.4436 Y56.4436 
G01 X108.4436 Y51.9267 
G01 X108.4815 Y51.7852 
G01 X108.5548 Y51.6584 
G01 X108.6584 Y51.5548 
G01 X108.7852 Y51.4815 
G01 X108.9267 Y51.4436 
G01 X113.4436 Y51.4436 
G01 X113.4436 Y5.0744 
G01 X112.1914 Y5.0744 
G01 X112.1914 Y5.8029 
G01 X112.1647 Y5.8674 
G01 X112.1154 Y5.9167 
G01 X112.0509 Y5.9434 
G01 X109.4811 Y5.9434 
G01 X109.4166 Y5.9167 
G01 X109.3673 Y5.8674 
G01 X109.3406 Y5.8029 
G01 X109.3406 Y4.5564 
G01 X103.5564 Y4.5564 
G01 X103.5564 Y6.8573 
G01 X103.5185 Y6.9988 
G01 X103.4452 Y7.1256 
G01 X103.3416 Y7.2292 
G01 X103.2148 Y7.3025 
G01 X103.0733 Y7.3404 
G01 X94.5564 Y7.3404 
G01 X94.5564 Y18.0733 
G01 X94.5185 Y18.2148 
G01 X94.4452 Y18.3416 
G01 X94.3416 Y18.4452 
G01 X94.2148 Y18.5185 
G01 X94.0733 Y18.5564 
G01 X83.4888 Y18.5564 
G01 X83.4888 Y39.0733 
G01 X83.4509 Y39.2148 
G01 X83.3776 Y39.3416 
G01 X83.2740 Y39.4452 
G01 X83.1472 Y39.5185 
G01 X83.0057 Y39.5564 
G01 X74.1962 Y39.5564 
G01 X74.1962 Y53.6041 
G01 X74.2427 Y53.6278 
G01 X74.3892 Y53.7343 
G01 X74.5173 Y53.8623 
G01 X74.6237 Y54.0088 
G01 X74.7059 Y54.1701 
G01 X74.7619 Y54.3423 
G01 X74.7902 Y54.5212 
G01 X74.7902 Y56.6523 
G01 X74.7619 Y56.8311 
G01 X74.7059 Y57.0033 
G01 X74.6237 Y57.1647 
G01 X74.5173 Y57.3112 
G01 X74.3892 Y57.4392 
G01 X74.2427 Y57.5456 
G01 X74.0814 Y57.6278 
G01 X73.9092 Y57.6838 
G01 X73.7303 Y57.7121 
G01 X73.5493 Y57.7121 
G01 X73.3704 Y57.6838 
G01 X73.1982 Y57.6278 
G01 X73.0368 Y57.5456 
G01 X72.8904 Y57.4392 
G01 X72.7623 Y57.3112 
G01 X72.6559 Y57.1647 
G01 X72.5737 Y57.0033 
G01 X72.5177 Y56.8311 
G01 X72.4894 Y56.6523 
G01 X72.4894 Y54.5212 
G01 X72.5177 Y54.3423 
G01 X72.5737 Y54.1701 
G01 X72.6559 Y54.0088 
G01 X72.7623 Y53.8623 
G01 X72.8904 Y53.7343 
G01 X73.0368 Y53.6278 
G01 X73.0834 Y53.6041 
G01 X73.0834 Y38.9267 
G01 X73.1213 Y38.7852 
G01 X73.1946 Y38.6584 
G01 X73.2982 Y38.5548 
G01 X73.4250 Y38.4815 
G01 X73.5665 Y38.4436 
G01 X82.3760 Y38.4436 
G01 X82.3760 Y17.9267 
G01 X82.4139 Y17.7852 
G01 X82.4872 Y17.6584 
G01 X82.5908 Y17.5548 
G01 X82.7176 Y17.4815 
G01 X82.8591 Y17.4436 
G01 X93.4436 Y17.4436 
G01 X93.4436 Y6.7107 
G01 X93.4815 Y6.5692 
G01 X93.5548 Y6.4424 
G01 X93.6584 Y6.3388 
G01 X93.7852 Y6.2655 
G01 X93.9267 Y6.2276 
G01 X102.4436 Y6.2276 
G01 X102.4436 Y3.9267 
G01 X102.4815 Y3.7852 
G01 X102.5548 Y3.6584 
G01 X102.6584 Y3.5548 
G01 X102.7852 Y3.4815 
G01 X102.9267 Y3.4436 
G01 X109.3406 Y3.4436 
G01 X109.3406 Y3.2331 
G01 X109.3673 Y3.1686 
G01 X109.4166 Y3.1193 
G01 X109.4811 Y3.0926 
G01 X112.0509 Y3.0926 
G01 X112.1154 Y3.1193 
G01 X112.1647 Y3.1686 
G01 X112.1914 Y3.2331 
G01 X112.1914 Y3.9616 
G01 X114.0733 Y3.9616 
G01 X114.2148 Y3.9995 
G01 X114.3416 Y4.0728 
G01 X114.4452 Y4.1764 
G01 X114.5185 Y4.3032 
G01 X114.5564 Y4.4447 
G01 X114.5564 Y52.0733 
G01 X114.5185 Y52.2148 
G01 X114.4452 Y52.3416 
G01 X114.3416 Y52.4452 
G01 X114.2148 Y52.5185 
G01 X114.0733 Y52.5564 
G01 X109.5564 Y52.5564 
G01 X109.5564 Y57.0733 
G01 X109.5185 Y57.2148 
G01 X109.4452 Y57.3416 
G01 X109.3416 Y57.4452 
G01 X109.2148 Y57.5185 
G01 X109.0733 Y57.5564 
G01 X82.5564 Y57.5564 
G01 X82.5564 Y60.0733 
G01 X82.5185 Y60.2148 
G01 X82.4452 Y60.3416 
G01 X82.3416 Y60.4452 
G01 X82.2148 Y60.5185 
G01 X82.0733 Y60.5564 
G01 X69.9267 Y60.5564 
G01 X69.7852 Y60.5185 
G01 X69.6584 Y60.4452 
G01 X69.5548 Y60.3416 
G01 X69.4815 Y60.2148 
G01 X69.4436 Y60.0733 
G01 X69.4436 Y45.5564 
G01 X28.9267 Y45.5564 
G01 X28.7852 Y45.5185 
G01 X28.6584 Y45.4452 
G01 X28.5548 Y45.3416 
G01 X28.4815 Y45.2148 
G01 X28.4436 Y45.0733 
G01 X28.4436 Y24.3027 
G01 X28.4815 Y24.1612 
G01 X28.5548 Y24.0344 
G01 X28.6584 Y23.9308 
G01 X28.7852 Y23.8575 
G01 X28.9267 Y23.8196 
G01 X33.4233 Y23.8196 
G01 X33.4537 Y23.7600 
G01 X33.5625 Y23.6103 
G01 X33.6933 Y23.4795 
G01 X33.8430 Y23.3707 
G01 X34.0078 Y23.2867 
G01 X34.1838 Y23.2295 
G01 X34.3665 Y23.2006 
G01 X34.5515 Y23.2006 
G01 X34.7342 Y23.2295 
G01 X34.9102 Y23.2867 
G01 X35.0750 Y23.3707 
G01 X35.2247 Y23.4795 
G01 X35.3555 Y23.6103 
G01 X35.4643 Y23.7600 
G01 X35.5483 Y23.9248 
G01 X35.6055 Y24.1008 
G01 X35.6344 Y24.2835 
G00 Z2.4000 
G00 X35.6344 Y26.8235 
G01 Z-0.1000 F50.00 
G01 X35.6344 Y27.0085 F100.00 
G01 X35.6055 Y27.1912 
G01 X35.5483 Y27.3672 
G01 X35.4643 Y27.5320 
G01 X35.3555 Y27.6817 
G01 X35.2247 Y27.8125 
G01 X35.0750 Y27.9213 
G01 X34.9102 Y28.0053 
G01 X34.7342 Y28.0625 
G01 X34.5515 Y28.0914 
G01 X34.3665 Y28.0914 
G01 X34.1838 Y28.0625 
G01 X34.0078 Y28.0053 
G01 X33.8430 Y27.9213 
G01 X33.6933 Y27.8125 
G01 X33.5625 Y27.6817 
G01 X33.4537 Y27.5320 
G01 X33.3697 Y27.3672 
G01 X33.3125 Y27.1912 
G01 X33.2836 Y27.0085 
G01 X33.2836 Y26.8235 
G01 X33.3125 Y26.6408 
G01 X33.3697 Y26.4648 
G01 X33.4537 Y26.3000 
G01 X33.5625 Y26.1503 
G01 X33.6933 Y26.0195 
G01 X33.8430 Y25.9107 
G01 X34.0078 Y25.8267 
G01 X34.1838 Y25.7695 
G01 X34.3665 Y25.7406 
G01 X34.5515 Y25.7406 
G01 X34.7342 Y25.7695 
G01 X34.9102 Y25.8267 
G01 X35.0750 Y25.9107 
G01 X35.2247 Y26.0195 
G01 X35.3555 Y26.1503 
G01 X35.4643 Y26.3000 
G01 X35.5483 Y26.4648 
G01 X35.6055 Y26.6408 
G01 X35.6344 Y26.8235 
G00 Z2.4000 
G00 X54.1764 Y26.8235 
G01 Z-0.1000 F50.00 
G01 X54.1764 Y27.0085 F100.00 
G01 X54.1475 Y27.1912 
G01 X54.0903 Y27.3672 
G01 X54.0063 Y27.5320 
G01 X53.8975 Y27.6817 
G01 X53.7667 Y27.8125 
G01 X53.6170 Y27.9213 
G01 X53.4522 Y28.0053 
G01 X53.2762 Y28.0625 
G01 X53.0935 Y28.0914 
G01 X52.9085 Y28.0914 
G01 X52.7258 Y28.0625 
G01 X52.5498 Y28.0053 
G01 X52.3850 Y27.9213 
G01 X52.2353 Y27.8125 
G01 X52.1045 Y27.6817 
G01 X51.9957 Y27.5320 
G01 X51.9117 Y27.3672 
G01 X51.8545 Y27.1912 
G01 X51.8256 Y27.0085 
G01 X51.8256 Y26.8235 
G01 X51.8545 Y26.6408 
G01 X51.9117 Y26.4648 
G01 X51.9957 Y26.3000 
G01 X52.1045 Y26.1503 
G01 X52.2353 Y26.0195 
G01 X52.3850 Y25.9107 
G01 X52.5498 Y25.8267 
G01 X52.7258 Y25.7695 
G01 X52.9085 Y25.7406 
G01 X53.0935 Y25.7406 
G01 X53.2762 Y25.7695 
G01 X53.4522 Y25.8267 
G01 X53.6170 Y25.9107 
G01 X53.7667 Y26.0195 
G01 X53.8975 Y26.1503 
G01 X54.0063 Y26.3000 
G01 X54.0903 Y26.4648 
G01 X54.1475 Y26.6408 
G01 X54.1764 Y26.8235 
G00 Z2.4000 
G00 X35.6344 Y34.0091 
G01 Z-0.1000 F50.00 
G01 X35.6344 Y36.0789 F100.00 
G01 X35.6077 Y36.1434 
G01 X35.5584 Y36.1927 
G01 X35.4939 Y36.2194 
G01 X33.4241 Y36.2194 
G01 X33.3596 Y36.1927 
G01 X33.3103 Y36.1434 
G01 X33.2836 Y36.0789 
G01 X33.2836 Y34.0091 
G01 X33.3103 Y33.9446 
G01 X33.3596 Y33.8953 
G01 X33.4241 Y33.8686 
G01 X35.4939 Y33.8686 
G01 X35.5584 Y33.8953 
G01 X35.6077 Y33.9446 
G01 X35.6344 Y34.0091 
G00 Z2.4000 
G00 X54.1764 Y34.0091 
G01 Z-0.1000 F50.00 
G01 X54.1764 Y36.0789 F100.00 
G01 X54.1497 Y36.1434 
G01 X54.1004 Y36.1927 
G01 X54.0359 Y36.2194 
G01 X51.9661 Y36.2194 
G01 X51.9016 Y36.1927 
G01 X51.8523 Y36.1434 
G01 X51.8256 Y36.0789 
G01 X51.8256 Y34.0091 
G01 X51.8523 Y33.9446 
G01 X51.9016 Y33.8953 
G01 X51.9661 Y33.8686 
G01 X54.0359 Y33.8686 
G01 X54.1004 Y33.8953 
G01 X54.1497 Y33.9446 
G01 X54.1764 Y34.0091 
G00 Z2.4000 
G00 X109.4811 Y42.7166 
G01 Z-0.1000 F50.00 
G01 X112.0509 Y42.7166 F100.00 
G01 X112.1154 Y42.7433 
G01 X112.1647 Y42.7926 
G01 X112.1914 Y42.8571 
G01 X112.1914 Y45.4269 
G01 X112.1647 Y45.4914 
G01 X112.1154 Y45.5407 
G01 X112.0509 Y45.5674 
G01 X111.3224 Y45.5674 
G01 X111.3224 Y50.0733 
G01 X111.2845 Y50.2148 
G01 X111.2112 Y50.3416 
G01 X111.1076 Y50.4452 
G01 X110.9808 Y50.5185 
G01 X110.8393 Y50.5564 
G01 X106.5564 Y50.5564 
G01 X106.5564 Y54.5938 
G01 X106.5185 Y54.7353 
G01 X106.4452 Y54.8622 
G01 X106.3416 Y54.9658 
G01 X106.2148 Y55.0390 
G01 X106.0733 Y55.0769 
G01 X95.3775 Y55.0769 
G01 X95.2359 Y55.0390 
G01 X95.1091 Y54.9658 
G01 X95.0198 Y54.8765 
G01 X93.7553 Y54.8765 
G01 X93.7003 Y54.9845 
G01 X93.5830 Y55.1459 
G01 X93.4419 Y55.2870 
G01 X93.2805 Y55.4043 
G01 X93.1027 Y55.4949 
G01 X92.9130 Y55.5565 
G01 X92.7159 Y55.5877 
G01 X90.3320 Y55.5877 
G01 X90.1349 Y55.5565 
G01 X89.9452 Y55.4949 
G01 X89.7674 Y55.4043 
G01 X89.6060 Y55.2870 
G01 X89.4649 Y55.1459 
G01 X89.3476 Y54.9845 
G01 X89.2570 Y54.8067 
G01 X89.1954 Y54.6170 
G01 X89.1642 Y54.4199 
G01 X89.1642 Y54.2204 
G01 X89.1954 Y54.0233 
G01 X89.2570 Y53.8336 
G01 X89.3476 Y53.6558 
G01 X89.4649 Y53.4944 
G01 X89.6060 Y53.3533 
G01 X89.7674 Y53.2360 
G01 X89.9452 Y53.1454 
G01 X90.1349 Y53.0838 
G01 X90.3320 Y53.0525 
G01 X92.7159 Y53.0525 
G01 X92.9130 Y53.0838 
G01 X93.1027 Y53.1454 
G01 X93.2805 Y53.2360 
G01 X93.4419 Y53.3533 
G01 X93.5830 Y53.4944 
G01 X93.7003 Y53.6558 
G01 X93.7553 Y53.7637 
G01 X95.3236 Y53.7637 
G01 X95.4651 Y53.8017 
G01 X95.5919 Y53.8749 
G01 X95.6812 Y53.9642 
G01 X105.4436 Y53.9642 
G01 X105.4436 Y49.9267 
G01 X105.4815 Y49.7852 
G01 X105.5548 Y49.6584 
G01 X105.6584 Y49.5548 
G01 X105.7852 Y49.4815 
G01 X105.9267 Y49.4436 
G01 X110.2096 Y49.4436 
G01 X110.2096 Y45.5674 
G01 X109.4811 Y45.5674 
G01 X109.4166 Y45.5407 
G01 X109.3673 Y45.4914 
G01 X109.3406 Y45.4269 
G01 X109.3406 Y42.8571 
G01 X109.3673 Y42.7926 
G01 X109.4166 Y42.7433 
G01 X109.4811 Y42.7166 
G00 Z2.4000 
G00 X92.2091 Y3.0926 
G01 Z-0.1000 F50.00 
G01 X94.7789 Y3.0926 F100.00 
G01 X94.8434 Y3.1193 
G01 X94.8927 Y3.1686 
G01 X94.9194 Y3.2331 
G01 X94.9194 Y5.8029 
G01 X94.8927 Y5.8674 
G01 X94.8434 Y5.9167 
G01 X94.7789 Y5.9434 
G01 X93.0504 Y5.9434 
G01 X93.0504 Y16.4703 
G01 X93.0125 Y16.6118 
G01 X92.9392 Y16.7386 
G01 X92.8356 Y16.8422 
G01 X92.7088 Y16.9155 
G01 X92.5673 Y16.9534 
G01 X77.5564 Y16.9534 
G01 X77.5564 Y35.0733 
G01 X77.5185 Y35.2148 
G01 X77.4452 Y35.3416 
G01 X77.3416 Y35.4452 
G01 X77.2148 Y35.5185 
G01 X77.0733 Y35.5564 
G01 X60.5564 Y35.5564 
G01 X60.5564 Y43.0733 
G01 X60.5185 Y43.2148 
G01 X60.4452 Y43.3416 
G01 X60.3416 Y43.4452 
G01 X60.2148 Y43.5185 
G01 X60.0733 Y43.5564 
G01 X34.9267 Y43.5564 
G01 X34.7852 Y43.5185 
G01 X34.6584 Y43.4452 
G01 X34.5548 Y43.3416 
G01 X34.0138 Y42.8006 
G01 X33.9405 Y42.6738 
G01 X33.9026 Y42.5323 
G01 X33.9026 Y38.7594 
G01 X33.4241 Y38.7594 
G01 X33.3596 Y38.7327 
G01 X33.3103 Y38.6834 
G01 X33.2836 Y38.6189 
G01 X33.2836 Y36.5491 
G01 X33.3103 Y36.4846 
G01 X33.3596 Y36.4353 
G01 X33.4241 Y36.4086 
G01 X35.4939 Y36.4086 
G01 X35.5584 Y36.4353 
G01 X35.6077 Y36.4846 
G01 X35.6344 Y36.5491 
G01 X35.6344 Y38.6189 
G01 X35.6077 Y38.6834 
G01 X35.5584 Y38.7327 
G01 X35.4939 Y38.7594 
G01 X35.0154 Y38.7594 
G01 X35.0154 Y42.2285 
G01 X35.2305 Y42.4436 
G01 X59.4436 Y42.4436 
G01 X59.4436 Y34.9267 
G01 X59.4815 Y34.7852 
G01 X59.5548 Y34.6584 
G01 X59.6584 Y34.5548 
G01 X59.7852 Y34.4815 
G01 X59.9267 Y34.4436 
G01 X76.4436 Y34.4436 
G01 X76.4436 Y26.8164 
G01 X73.0857 Y26.8164 
G01 X73.0553 Y26.8760 
G01 X72.9465 Y27.0257 
G01 X72.8157 Y27.1565 
G01 X72.6660 Y27.2653 
G01 X72.5012 Y27.3493 
G01 X72.3252 Y27.4065 
G01 X72.1425 Y27.4354 
G01 X71.9575 Y27.4354 
G01 X71.7748 Y27.4065 
G01 X71.5988 Y27.3493 
G01 X71.4340 Y27.2653 
G01 X71.2843 Y27.1565 
G01 X71.1535 Y27.0257 
G01 X71.0447 Y26.8760 
G01 X70.9607 Y26.7112 
G01 X70.9035 Y26.5352 
G01 X70.8746 Y26.3525 
G01 X70.8746 Y26.1675 
G01 X70.9035 Y25.9848 
G01 X70.9607 Y25.8088 
G01 X71.0447 Y25.6440 
G01 X71.1535 Y25.4943 
G01 X71.2843 Y25.3635 
G01 X71.4340 Y25.2547 
G01 X71.5988 Y25.1707 
G01 X71.7748 Y25.1135 
G01 X71.9575 Y25.0846 
G01 X72.1425 Y25.0846 
G01 X72.3252 Y25.1135 
G01 X72.5012 Y25.1707 
G01 X72.6660 Y25.2547 
G01 X72.8157 Y25.3635 
G01 X72.9465 Y25.4943 
G01 X73.0553 Y25.6440 
G01 X73.0857 Y25.7036 
G01 X76.4436 Y25.7036 
G01 X76.4436 Y16.3237 
G01 X76.4815 Y16.1822 
G01 X76.5548 Y16.0554 
G01 X76.6584 Y15.9518 
G01 X76.7852 Y15.8785 
G01 X76.9267 Y15.8406 
G01 X91.9376 Y15.8406 
G01 X91.9376 Y5.4447 
G01 X91.9755 Y5.3032 
G01 X92.0488 Y5.1764 
G01 X92.0686 Y5.1565 
G01 X92.0686 Y3.2331 
G01 X92.0953 Y3.1686 
G01 X92.1446 Y3.1193 
G01 X92.2091 Y3.0926 
G00 Z2.4000 
G00 X73.0073 Y6.5961 
G01 Z-0.1000 F50.00 
G01 X72.8661 Y6.7373 F100.00 
G01 X72.7001 Y6.8482 
G01 X72.5157 Y6.9246 
G01 X72.3198 Y6.9636 
G01 X72.1202 Y6.9636 
G01 X71.9243 Y6.9246 
G01 X71.7399 Y6.8482 
G01 X71.5739 Y6.7373 
G01 X71.4327 Y6.5961 
G01 X71.3218 Y6.4301 
G01 X71.2454 Y6.2457 
G01 X71.2064 Y6.0498 
G01 X71.2064 Y5.8502 
G01 X71.2454 Y5.6543 
G01 X71.3218 Y5.4699 
G01 X71.4327 Y5.3039 
G01 X71.5739 Y5.1627 
G01 X71.7399 Y5.0518 
G01 X71.9243 Y4.9754 
G01 X72.1202 Y4.9364 
G01 X72.3198 Y4.9364 
G01 X72.5157 Y4.9754 
G01 X72.7001 Y5.0518 
G01 X72.8661 Y5.1627 
G01 X73.0073 Y5.3039 
G01 X73.0673 Y5.3936 
G01 X74.0233 Y5.3936 
G01 X74.1648 Y5.4315 
G01 X74.2916 Y5.5048 
G01 X74.8588 Y6.0720 
G01 X74.9321 Y6.1988 
G01 X74.9700 Y6.3403 
G01 X74.9700 Y8.0243 
G01 X75.3416 Y8.3960 
G01 X75.4452 Y8.4996 
G01 X75.5185 Y8.6264 
G01 X75.5564 Y8.7679 
G01 X75.5564 Y9.4436 
G01 X80.6136 Y9.4436 
G01 X80.6136 Y8.1860 
G01 X80.5208 Y8.0932 
G01 X80.4293 Y7.9563 
G01 X80.3663 Y7.8042 
G01 X80.3342 Y7.6427 
G01 X80.3342 Y6.1573 
G01 X80.3663 Y5.9958 
G01 X80.4293 Y5.8437 
G01 X80.5208 Y5.7068 
G01 X80.6372 Y5.5904 
G01 X80.7741 Y5.4989 
G01 X80.9262 Y5.4359 
G01 X81.0877 Y5.4038 
G01 X81.2523 Y5.4038 
G01 X81.4138 Y5.4359 
G01 X81.5659 Y5.4989 
G01 X81.7028 Y5.5904 
G01 X81.8192 Y5.7068 
G01 X81.9107 Y5.8437 
G01 X81.9737 Y5.9958 
G01 X82.0058 Y6.1573 
G01 X82.0058 Y7.6427 
G01 X81.9737 Y7.8042 
G01 X81.9107 Y7.9563 
G01 X81.8192 Y8.0932 
G01 X81.7264 Y8.1860 
G01 X81.7264 Y10.0732 
G01 X81.6885 Y10.2148 
G01 X81.6152 Y10.3416 
G01 X81.5116 Y10.4452 
G01 X81.3848 Y10.5185 
G01 X81.2433 Y10.5564 
G01 X75.5564 Y10.5564 
G01 X75.5564 Y20.0733 
G01 X75.5185 Y20.2148 
G01 X75.4452 Y20.3416 
G01 X75.3416 Y20.4452 
G01 X75.2148 Y20.5185 
G01 X75.1984 Y20.5229 
G01 X75.1965 Y20.5352 
G01 X75.1393 Y20.7112 
G01 X75.0553 Y20.8760 
G01 X74.9465 Y21.0257 
G01 X74.8157 Y21.1565 
G01 X74.6660 Y21.2653 
G01 X74.5012 Y21.3493 
G01 X74.3252 Y21.4065 
G01 X74.1425 Y21.4354 
G01 X73.9575 Y21.4354 
G01 X73.7748 Y21.4065 
G01 X73.5988 Y21.3493 
G01 X73.4340 Y21.2653 
G01 X73.2843 Y21.1565 
G01 X73.1535 Y21.0257 
G01 X73.0447 Y20.8760 
G01 X72.9607 Y20.7112 
G01 X72.9035 Y20.5352 
G01 X72.8746 Y20.3525 
G01 X72.8746 Y20.1675 
G01 X72.9035 Y19.9848 
G01 X72.9607 Y19.8088 
G01 X73.0447 Y19.6440 
G01 X73.1535 Y19.4943 
G01 X73.2843 Y19.3635 
G01 X73.4340 Y19.2547 
G01 X73.5988 Y19.1707 
G01 X73.7748 Y19.1135 
G01 X73.9575 Y19.0846 
G01 X74.1425 Y19.0846 
G01 X74.3252 Y19.1135 
G01 X74.4436 Y19.1520 
G01 X74.4436 Y9.0717 
G01 X73.9684 Y8.5964 
G01 X73.8951 Y8.4696 
G01 X73.8572 Y8.3280 
G01 X73.8572 Y6.6441 
G01 X73.7195 Y6.5064 
G01 X73.0673 Y6.5064 
G01 X73.0073 Y6.5961 
G00 Z2.4000 
G00 X87.2254 Y20.1675 
G01 Z-0.1000 F50.00 
G01 X87.2254 Y20.3525 F100.00 
G01 X87.1965 Y20.5352 
G01 X87.1393 Y20.7112 
G01 X87.0553 Y20.8760 
G01 X86.9465 Y21.0257 
G01 X86.8157 Y21.1565 
G01 X86.6660 Y21.2653 
G01 X86.5012 Y21.3493 
G01 X86.3252 Y21.4065 
G01 X86.1425 Y21.4354 
G01 X85.9575 Y21.4354 
G01 X85.7748 Y21.4065 
G01 X85.5988 Y21.3493 
G01 X85.4340 Y21.2653 
G01 X85.2843 Y21.1565 
G01 X85.1535 Y21.0257 
G01 X85.0447 Y20.8760 
G01 X84.9607 Y20.7112 
G01 X84.9035 Y20.5352 
G01 X84.8746 Y20.3525 
G01 X84.8746 Y20.1675 
G01 X84.9035 Y19.9848 
G01 X84.9607 Y19.8088 
G01 X85.0447 Y19.6440 
G01 X85.1535 Y19.4943 
G01 X85.2843 Y19.3635 
G01 X85.4340 Y19.2547 
G01 X85.5988 Y19.1707 
G01 X85.7748 Y19.1135 
G01 X85.9575 Y19.0846 
G01 X86.1425 Y19.0846 
G01 X86.3252 Y19.1135 
G01 X86.5012 Y19.1707 
G01 X86.6660 Y19.2547 
G01 X86.8157 Y19.3635 
G01 X86.9465 Y19.4943 
G01 X87.0553 Y19.6440 
G01 X87.1393 Y19.8088 
G01 X87.1965 Y19.9848 
G01 X87.2254 Y20.1675 
G00 Z2.4000 
G00 X76.9258 Y6.1573 
G01 Z-0.1000 F50.00 
G01 X76.9258 Y7.6427 F100.00 
G01 X76.8937 Y7.8042 
G01 X76.8307 Y7.9563 
G01 X76.7392 Y8.0932 
G01 X76.6228 Y8.2096 
G01 X76.4859 Y8.3011 
G01 X76.3338 Y8.3641 
G01 X76.1723 Y8.3962 
G01 X76.0077 Y8.3962 
G01 X75.8462 Y8.3641 
G01 X75.6941 Y8.3011 
G01 X75.5572 Y8.2096 
G01 X75.4408 Y8.0932 
G01 X75.3493 Y7.9563 
G01 X75.2863 Y7.8042 
G01 X75.2542 Y7.6427 
G01 X75.2542 Y6.1573 
G01 X75.2863 Y5.9958 
G01 X75.3493 Y5.8437 
G01 X75.4408 Y5.7068 
G01 X75.4436 Y5.7040 
G01 X75.4436 Y3.4437 
G01 X54.9573 Y3.4437 
G01 X54.9573 Y8.0249 
G01 X54.9854 Y8.0393 
G01 X55.1274 Y8.1424 
G01 X55.2515 Y8.2666 
G01 X55.3547 Y8.4086 
G01 X55.4344 Y8.5650 
G01 X55.4886 Y8.7319 
G01 X55.5161 Y8.9053 
G01 X55.5161 Y9.0808 
G01 X55.4886 Y9.2542 
G01 X55.4344 Y9.4211 
G01 X55.3547 Y9.5775 
G01 X55.2515 Y9.7196 
G01 X55.1274 Y9.8437 
G01 X54.9854 Y9.9469 
G01 X54.8290 Y10.0266 
G01 X54.6621 Y10.0808 
G01 X54.4887 Y10.1083 
G01 X54.3131 Y10.1083 
G01 X54.1398 Y10.0808 
G01 X53.9728 Y10.0266 
G01 X53.8164 Y9.9469 
G01 X53.6744 Y9.8437 
G01 X53.5503 Y9.7196 
G01 X53.4471 Y9.5775 
G01 X53.3674 Y9.4211 
G01 X53.3132 Y9.2542 
G01 X53.2857 Y9.0808 
G01 X53.2857 Y8.9053 
G01 X53.3132 Y8.7319 
G01 X53.3674 Y8.5650 
G01 X53.4471 Y8.4086 
G01 X53.5503 Y8.2666 
G01 X53.6744 Y8.1424 
G01 X53.8164 Y8.0393 
G01 X53.8445 Y8.0249 
G01 X53.8445 Y2.8140 
G01 X53.8824 Y2.6725 
G01 X53.9557 Y2.5457 
G01 X54.0593 Y2.4421 
G01 X54.1861 Y2.3688 
G01 X54.3277 Y2.3309 
G01 X76.0733 Y2.3309 
G01 X76.2148 Y2.3688 
G01 X76.3416 Y2.4421 
G01 X76.4452 Y2.5457 
G01 X76.5185 Y2.6725 
G01 X76.5564 Y2.8140 
G01 X76.5564 Y5.5460 
G01 X76.6228 Y5.5904 
G01 X76.7392 Y5.7068 
G01 X76.8307 Y5.8437 
G01 X76.8937 Y5.9958 
G01 X76.9258 Y6.1573 
G00 Z2.4000 
G00 X79.4658 Y6.1573 
G01 Z-0.1000 F50.00 
G01 X79.4658 Y7.6427 F100.00 
G01 X79.4337 Y7.8042 
G01 X79.3707 Y7.9563 
G01 X79.2792 Y8.0932 
G01 X79.1628 Y8.2096 
G01 X79.0259 Y8.3011 
G01 X78.8738 Y8.3641 
G01 X78.7123 Y8.3962 
G01 X78.5477 Y8.3962 
G01 X78.3862 Y8.3641 
G01 X78.2341 Y8.3011 
G01 X78.0972 Y8.2096 
G01 X77.9808 Y8.0932 
G01 X77.8893 Y7.9563 
G01 X77.8263 Y7.8042 
G01 X77.7942 Y7.6427 
G01 X77.7942 Y6.1573 
G01 X77.8263 Y5.9958 
G01 X77.8893 Y5.8437 
G01 X77.9808 Y5.7068 
G01 X78.0736 Y5.6140 
G01 X78.0736 Y3.9267 
G01 X78.1115 Y3.7852 
G01 X78.1848 Y3.6584 
G01 X78.2884 Y3.5548 
G01 X78.4152 Y3.4815 
G01 X78.5567 Y3.4436 
G01 X83.0733 Y3.4436 
G01 X83.2148 Y3.4815 
G01 X83.3416 Y3.5548 
G01 X83.4452 Y3.6584 
G01 X83.5185 Y3.7852 
G01 X83.5564 Y3.9267 
G01 X83.5564 Y12.3236 
G01 X84.0230 Y12.3236 
G01 X84.4802 Y11.8664 
G01 X85.3198 Y11.8664 
G01 X85.9136 Y12.4602 
G01 X85.9136 Y13.2998 
G01 X85.3198 Y13.8936 
G01 X84.4802 Y13.8936 
G01 X84.0230 Y13.4364 
G01 X82.9267 Y13.4364 
G01 X82.7852 Y13.3985 
G01 X82.6584 Y13.3252 
G01 X82.5548 Y13.2216 
G01 X82.4815 Y13.0948 
G01 X82.4436 Y12.9533 
G01 X82.4436 Y4.5564 
G01 X79.1864 Y4.5564 
G01 X79.1864 Y5.6140 
G01 X79.2792 Y5.7068 
G01 X79.3707 Y5.8437 
G01 X79.4337 Y5.9958 
G01 X79.4658 Y6.1573 
G00 Z2.4000 
G00 X75.4893 Y20.6995 
G01 Z-0.1000 F50.00 
G01 X75.4893 Y20.6995 F100.00 
G01 X75.7653 Y20.4235 
G01 X75.8578 Y20.3852 
G01 X75.9578 Y20.3852 
G01 X76.0503 Y20.4235 
G01 X76.1211 Y20.4943 
G01 X76.1594 Y20.5867 
G01 X76.1594 Y25.2178 
G01 X76.1211 Y25.3103 
G01 X76.0503 Y25.3811 
G01 X75.9578 Y25.4194 
G01 X73.3277 Y25.4194 
G01 X73.2353 Y25.3811 
G01 X73.1645 Y25.3103 
G01 X72.8768 Y25.0226 
G01 X72.3403 Y24.8004 
G01 X71.7597 Y24.8004 
G01 X71.2347 Y25.0178 
G01 X71.1540 Y25.0513 
G01 X71.1422 Y25.0561 
G01 X71.0421 Y25.0561 
G01 X70.9523 Y25.0189 
G01 X70.9497 Y25.0178 
G01 X70.8789 Y24.9471 
G01 X70.8406 Y24.8546 
G01 X70.8406 Y17.1233 
G01 X70.8789 Y17.0309 
G01 X70.9497 Y16.9601 
G01 X71.0421 Y16.9218 
G01 X71.1422 Y16.9218 
G01 X71.2347 Y16.9601 
G01 X71.3055 Y17.0309 
G01 X71.4849 Y17.2102 
G01 X71.9618 Y17.4078 
G01 X72.4781 Y17.4078 
G01 X72.9551 Y17.2102 
G01 X73.3202 Y16.8451 
G01 X73.5178 Y16.3681 
G01 X73.5178 Y15.8518 
G01 X73.3202 Y15.3749 
G01 X72.9551 Y15.0098 
G01 X72.4781 Y14.8122 
G01 X71.9618 Y14.8122 
G01 X71.4849 Y15.0098 
G01 X71.3735 Y15.1211 
G01 X71.2811 Y15.1594 
G01 X71.0421 Y15.1594 
G01 X70.9497 Y15.1211 
G01 X70.8789 Y15.0503 
G01 X70.8406 Y14.9578 
G01 X70.8406 Y6.9633 
G01 X70.8789 Y6.8709 
G01 X70.9497 Y6.8001 
G01 X71.0421 Y6.7618 
G01 X71.1422 Y6.7618 
G01 X71.2347 Y6.8001 
G01 X71.3055 Y6.8709 
G01 X71.4849 Y7.0502 
G01 X71.9618 Y7.2478 
G01 X72.4781 Y7.2478 
G01 X72.9551 Y7.0502 
G01 X73.1057 Y6.8997 
G01 X73.1742 Y6.8312 
G01 X73.2689 Y6.7906 
G01 X73.3714 Y6.7906 
G01 X73.4639 Y6.8289 
G01 X73.5347 Y6.8997 
G01 X73.5730 Y6.9921 
G01 X73.5730 Y8.4220 
G01 X73.7010 Y8.7310 
G01 X74.1211 Y9.1511 
G01 X74.1594 Y9.2435 
G01 X74.1594 Y18.5988 
G01 X74.1211 Y18.6913 
G01 X74.0503 Y18.7621 
G01 X73.9578 Y18.8004 
G01 X73.7597 Y18.8004 
G01 X73.2232 Y19.0226 
G01 X72.8126 Y19.4332 
G01 X72.5904 Y19.9697 
G01 X72.5904 Y20.5503 
G01 X72.8126 Y21.0868 
G01 X73.2232 Y21.4974 
G01 X73.7597 Y21.7196 
G01 X74.3403 Y21.7196 
G01 X74.8768 Y21.4974 
G01 X75.2874 Y21.0868 
G01 X75.3802 Y20.8628 
G01 X75.4185 Y20.7703 
G01 X75.4587 Y20.7301 
G01 X75.4893 Y20.6995 
G00 Z2.4000 
G00 X112.9578 Y5.3586 
G01 Z-0.1000 F50.00 
G01 X113.0503 Y5.3969 F100.00 
G01 X113.1211 Y5.4677 
G01 X113.1594 Y5.5601 
G01 X113.1594 Y50.9578 
G01 X113.1211 Y51.0503 
G01 X113.0503 Y51.1211 
G01 X112.9578 Y51.1594 
G01 X111.3527 Y51.1594 
G01 X111.2603 Y51.1211 
G01 X111.1895 Y51.0503 
G01 X111.1512 Y50.9578 
G01 X111.1512 Y50.8578 
G01 X111.1895 Y50.7653 
G01 X111.2603 Y50.6945 
G01 X111.4786 Y50.4762 
G01 X111.6066 Y50.1672 
G01 X111.6066 Y46.0531 
G01 X111.6449 Y45.9607 
G01 X111.7157 Y45.8899 
G01 X111.8081 Y45.8516 
G01 X112.1074 Y45.8516 
G01 X112.2763 Y45.7816 
G01 X112.4056 Y45.6523 
G01 X112.4756 Y45.4834 
G01 X112.4756 Y42.8006 
G01 X112.4056 Y42.6317 
G01 X112.2763 Y42.5024 
G01 X112.1074 Y42.4324 
G01 X109.4246 Y42.4324 
G01 X109.2557 Y42.5024 
G01 X109.1264 Y42.6317 
G01 X109.0564 Y42.8006 
G01 X109.0564 Y45.4834 
G01 X109.1264 Y45.6523 
G01 X109.2557 Y45.7816 
G01 X109.4246 Y45.8516 
G01 X109.7238 Y45.8516 
G01 X109.8163 Y45.8899 
G01 X109.8871 Y45.9607 
G01 X109.9254 Y46.0531 
G01 X109.9254 Y48.9578 
G01 X109.8871 Y49.0503 
G01 X109.8163 Y49.1211 
G01 X109.7238 Y49.1594 
G01 X105.8328 Y49.1594 
G01 X105.5238 Y49.2874 
G01 X105.2874 Y49.5238 
G01 X105.1594 Y49.8328 
G01 X105.1594 Y53.4784 
G01 X105.1211 Y53.5709 
G01 X105.0503 Y53.6416 
G01 X104.9578 Y53.6799 
G01 X97.8051 Y53.6799 
G01 X97.7126 Y53.6416 
G01 X97.6418 Y53.5709 
G01 X97.6035 Y53.4784 
G01 X97.6035 Y53.3783 
G01 X97.6418 Y53.2858 
G01 X97.8758 Y52.7210 
G01 X97.8758 Y49.9193 
G01 X97.6395 Y49.3489 
G01 X97.2030 Y48.9124 
G01 X96.6326 Y48.6761 
G01 X96.0153 Y48.6761 
G01 X95.4449 Y48.9124 
G01 X95.0084 Y49.3489 
G01 X94.7722 Y49.9193 
G01 X94.7722 Y52.7210 
G01 X94.9231 Y53.0854 
G01 X94.9384 Y53.1224 
G01 X94.9614 Y53.1779 
G01 X94.9614 Y53.2780 
G01 X94.9231 Y53.3705 
G01 X94.8523 Y53.4412 
G01 X94.7599 Y53.4795 
G01 X94.0243 Y53.4795 
G01 X93.9318 Y53.4412 
G01 X93.8611 Y53.3705 
G01 X93.4952 Y53.0046 
G01 X92.9248 Y52.7683 
G01 X90.1231 Y52.7683 
G01 X89.5527 Y53.0046 
G01 X89.1162 Y53.4411 
G01 X88.8800 Y54.0115 
G01 X88.8800 Y54.6288 
G01 X89.1162 Y55.1992 
G01 X89.5527 Y55.6357 
G01 X89.6022 Y55.6562 
G01 X89.6947 Y55.6945 
G01 X89.7644 Y55.7642 
G01 X89.8030 Y55.8559 
G01 X89.8038 Y55.9578 
G01 X89.7655 Y56.0503 
G01 X89.6958 Y56.1200 
G01 X89.6041 Y56.1586 
G01 X81.8328 Y56.1594 
G01 X81.5238 Y56.2874 
G01 X81.2874 Y56.5238 
G01 X81.1594 Y56.8328 
G01 X81.1594 Y58.9578 
G01 X81.1211 Y59.0503 
G01 X81.0503 Y59.1211 
G01 X80.9578 Y59.1594 
G01 X71.0421 Y59.1594 
G01 X70.9497 Y59.1211 
G01 X70.8789 Y59.0503 
G01 X70.8406 Y58.9578 
G01 X70.8406 Y44.8328 
G01 X70.7126 Y44.5238 
G01 X70.4762 Y44.2874 
G01 X70.1672 Y44.1594 
G01 X60.5867 Y44.1594 
G01 X60.4943 Y44.1211 
G01 X60.4235 Y44.0503 
G01 X60.3852 Y43.9578 
G01 X60.3852 Y43.8578 
G01 X60.4235 Y43.7653 
G01 X60.4943 Y43.6945 
G01 X60.7126 Y43.4762 
G01 X60.8406 Y43.1672 
G01 X60.8406 Y36.0421 
G01 X60.8789 Y35.9497 
G01 X60.9497 Y35.8789 
G01 X61.0421 Y35.8406 
G01 X77.1672 Y35.8406 
G01 X77.4762 Y35.7126 
G01 X77.7126 Y35.4762 
G01 X77.8406 Y35.1672 
G01 X77.8406 Y17.4391 
G01 X77.8789 Y17.3467 
G01 X77.9497 Y17.2759 
G01 X78.0421 Y17.2376 
G01 X82.0118 Y17.2376 
G01 X82.1043 Y17.2759 
G01 X82.1751 Y17.3467 
G01 X82.2134 Y17.4391 
G01 X82.2134 Y17.5392 
G01 X82.1751 Y17.6317 
G01 X82.0918 Y17.8328 
G01 X82.0918 Y37.9578 
G01 X82.0535 Y38.0503 
G01 X81.9827 Y38.1211 
G01 X81.8902 Y38.1594 
G01 X73.4726 Y38.1594 
G01 X73.1636 Y38.2874 
G01 X72.9272 Y38.5238 
G01 X72.7992 Y38.8328 
G01 X72.7992 Y53.3693 
G01 X72.7609 Y53.4618 
G01 X72.6901 Y53.5326 
G01 X72.4236 Y53.7991 
G01 X72.2052 Y54.3264 
G01 X72.2052 Y56.8471 
G01 X72.4236 Y57.3744 
G01 X72.8272 Y57.7779 
G01 X73.3544 Y57.9963 
G01 X73.9251 Y57.9963 
G01 X74.4524 Y57.7779 
G01 X74.8560 Y57.3744 
G01 X75.0744 Y56.8471 
G01 X75.0744 Y54.3264 
G01 X74.8560 Y53.7991 
G01 X74.5187 Y53.4618 
G01 X74.4804 Y53.3693 
G01 X74.4804 Y40.0421 
G01 X74.5187 Y39.9497 
G01 X74.5895 Y39.8789 
G01 X74.6819 Y39.8406 
G01 X83.0996 Y39.8406 
G01 X83.4086 Y39.7126 
G01 X83.6450 Y39.4762 
G01 X83.7730 Y39.1672 
G01 X83.7730 Y19.0421 
G01 X83.8113 Y18.9497 
G01 X83.8821 Y18.8789 
G01 X83.9745 Y18.8406 
G01 X84.8479 Y18.8406 
G01 X84.9403 Y18.8789 
G01 X85.0111 Y18.9497 
G01 X85.0494 Y19.0421 
G01 X85.0494 Y19.1422 
G01 X85.0111 Y19.2347 
G01 X84.9403 Y19.3055 
G01 X84.8126 Y19.4332 
G01 X84.5904 Y19.9697 
G01 X84.5904 Y20.5503 
G01 X84.8126 Y21.0868 
G01 X85.2232 Y21.4974 
G01 X85.7597 Y21.7196 
G01 X86.3403 Y21.7196 
G01 X86.8768 Y21.4974 
G01 X87.2874 Y21.0868 
G01 X87.5096 Y20.5503 
G01 X87.5096 Y19.9697 
G01 X87.2874 Y19.4332 
