(.../pcb-gcode-3.6.0.4/pcb-gcode.ulp)
(Copyright 2005 - 2012 by John Johnson)
(See readme.txt for licensing terms.)
(This file generated from the board:)
(.../projects/Cart top solution/Raspi.brd)
(Current profile is .../pcb-gcode-3.6.0.4/profiles/generic.pp  )
(This file generated 11-Jul-19 11:02)
(Settings from pcb-machine.h)
(  Tool Size)
(0.3000 )
(Z Axis Settings)
(  High     Up        Down     Drill)
(12.7000 	2.4000 	-0.1000 	-1.7000 )
(spindle on time = 3.0000)
(milling depth = -0.2540)
(text depth = -0.1270)
(tool change at 0.0000 -12.0000 20.0000 )
(feed rate xy = F100.00 )
(feed rate z  = F50.00 )
(Settings from pcb-defaults.h)
(isolate min = 0.0254)
(isolate max = 0.3000)
(isolate step = 0.1000)
(Generated top outlines, top drill, )
(Unit of measure: mm)
( Tool|       Size       |  Min Sub |  Max Sub |   Count )
( T01  0.800mm 0.0315in 0.0000in 0.0000in )
( T02  0.813mm 0.0320in 0.0000in 0.0000in )
( T03  1.000mm 0.0394in 0.0000in 0.0000in )
( T04  1.016mm 0.0400in 0.0000in 0.0000in )
( T05  1.118mm 0.0440in 0.0000in 0.0000in )
( T06  1.200mm 0.0472in 0.0000in 0.0000in )
( T07  1.300mm 0.0512in 0.0000in 0.0000in )
( T08  1.500mm 0.0591in 0.0000in 0.0000in )
( T09  2.750mm 0.1083in 0.0000in 0.0000in )
( T10  3.000mm 0.1181in 0.0000in 0.0000in )
(Metric Mode)
G21
(Absolute Coordinates)
G90
M05
G00 Z20.0000 
G00 X0.0000 Y-12.0000 
M06 T01  ; 0.8000 
G01 Z0.0000 F50.00 
M06 T01  ; 0.8000 
G00 Z2.4000 
M03
G04 P3.000000
G00 Z2.400000
G00 X91.5240 Y54.3201 
G01 Z-1.7000 F50.00 
G01 Z2.400000
(R2.4000  P1.000000)
(G00 Z2.400000)
G00 X96.3240 Y51.3201 
G01 Z-1.700000
G01 Z2.400000
M05
G00 Z20.0000 
M06 T02  ; 0.8128 
G01 Z0.0000 F50.00 
M06 T02  ; 0.8128 
G00 Z2.4000 
M03
G04 P3.000000
G00 Z2.400000
G00 X76.0900 Y6.9000 
G01 Z-1.7000 F50.00 
G01 Z2.400000
(R2.4000  P1.000000)
(G00 Z2.400000)
G00 X78.6300 Y6.9000 
G01 Z-1.700000
G01 Z2.400000
(G00 Z2.400000)
G00 X81.1700 Y6.9000 
G01 Z-1.700000
G01 Z2.400000
(G00 Z2.400000)
G00 X84.9000 Y12.8800 
G01 Z-1.700000
G01 Z2.400000
(G00 Z2.400000)
G00 X84.9000 Y2.7200 
G01 Z-1.700000
G01 Z2.400000
M05
G00 Z20.0000 
M06 T03  ; 1.0000 
G01 Z0.0000 F50.00 
M06 T03  ; 1.0000 
G00 Z2.4000 
M03
G04 P3.000000
G00 Z2.400000
G00 X72.0500 Y26.2600 
G01 Z-1.7000 F50.00 
G01 Z2.400000
(R2.4000  P1.000000)
(G00 Z2.400000)
G00 X73.0000 Y23.0000 
G01 Z-1.700000
G01 Z2.400000
(G00 Z2.400000)
G00 X74.0000 Y29.0000 
G01 Z-1.700000
G01 Z2.400000
(G00 Z2.400000)
G00 X74.0500 Y32.2600 
G01 Z-1.700000
G01 Z2.400000
(G00 Z2.400000)
G00 X74.0500 Y20.2600 
G01 Z-1.700000
G01 Z2.400000
(G00 Z2.400000)
G00 X86.0500 Y32.2600 
G01 Z-1.700000
G01 Z2.400000
(G00 Z2.400000)
G00 X86.0500 Y20.2600 
G01 Z-1.700000
G01 Z2.400000
(G00 Z2.400000)
G00 X87.0000 Y38.0000 
G01 Z-1.700000
G01 Z2.400000
(G00 Z2.400000)
G00 X91.5240 Y48.3201 
G01 Z-1.700000
G01 Z2.400000
(G00 Z2.400000)
G00 X102.0000 Y32.0000 
G01 Z-1.700000
G01 Z2.400000
(G00 Z2.400000)
G00 X17.0000 Y37.0000 
G01 Z-1.700000
G01 Z2.400000
M05
G00 Z20.0000 
M06 T04  ; 1.0160 
G01 Z0.0000 F50.00 
M06 T04  ; 1.0160 
G00 Z2.4000 
M03
G04 P3.000000
G00 Z2.400000
G00 X31.5409 Y8.9931 
G01 Z-1.7000 F50.00 
G01 Z2.400000
(R2.4000  P1.000000)
(G00 Z2.400000)
G00 X31.5409 Y11.5331 
G01 Z-1.700000
G01 Z2.400000
(G00 Z2.400000)
G00 X34.0809 Y8.9931 
G01 Z-1.700000
G01 Z2.400000
(G00 Z2.400000)
G00 X34.0809 Y11.5331 
G01 Z-1.700000
G01 Z2.400000
(G00 Z2.400000)
G00 X36.6209 Y8.9931 
G01 Z-1.700000
G01 Z2.400000
(G00 Z2.400000)
G00 X36.6209 Y11.5331 
G01 Z-1.700000
G01 Z2.400000
(G00 Z2.400000)
G00 X39.1609 Y8.9931 
G01 Z-1.700000
G01 Z2.400000
(G00 Z2.400000)
G00 X39.1609 Y11.5331 
G01 Z-1.700000
G01 Z2.400000
(G00 Z2.400000)
G00 X41.7009 Y8.9931 
G01 Z-1.700000
G01 Z2.400000
(G00 Z2.400000)
G00 X41.7009 Y11.5331 
G01 Z-1.700000
G01 Z2.400000
(G00 Z2.400000)
G00 X44.2409 Y8.9931 
G01 Z-1.700000
G01 Z2.400000
(G00 Z2.400000)
G00 X44.2409 Y11.5331 
G01 Z-1.700000
G01 Z2.400000
(G00 Z2.400000)
G00 X46.7809 Y8.9931 
G01 Z-1.700000
G01 Z2.400000
(G00 Z2.400000)
G00 X46.7809 Y11.5331 
G01 Z-1.700000
G01 Z2.400000
(G00 Z2.400000)
G00 X49.3209 Y8.9931 
G01 Z-1.700000
G01 Z2.400000
(G00 Z2.400000)
G00 X49.3209 Y11.5331 
G01 Z-1.700000
G01 Z2.400000
(G00 Z2.400000)
G00 X51.8609 Y8.9931 
G01 Z-1.700000
G01 Z2.400000
(G00 Z2.400000)
G00 X51.8609 Y11.5331 
G01 Z-1.700000
G01 Z2.400000
(G00 Z2.400000)
G00 X54.4009 Y8.9931 
G01 Z-1.700000
G01 Z2.400000
(G00 Z2.400000)
G00 X54.4009 Y11.5331 
G01 Z-1.700000
G01 Z2.400000
(G00 Z2.400000)
G00 X56.9409 Y8.9931 
G01 Z-1.700000
G01 Z2.400000
(G00 Z2.400000)
G00 X56.9409 Y11.5331 
G01 Z-1.700000
G01 Z2.400000
(G00 Z2.400000)
G00 X59.4809 Y8.9931 
G01 Z-1.700000
G01 Z2.400000
(G00 Z2.400000)
G00 X59.4809 Y11.5331 
G01 Z-1.700000
G01 Z2.400000
(G00 Z2.400000)
G00 X11.2209 Y8.9931 
G01 Z-1.700000
G01 Z2.400000
(G00 Z2.400000)
G00 X11.2209 Y11.5331 
G01 Z-1.700000
G01 Z2.400000
(G00 Z2.400000)
G00 X13.7609 Y8.9931 
G01 Z-1.700000
G01 Z2.400000
(G00 Z2.400000)
G00 X13.7609 Y11.5331 
G01 Z-1.700000
G01 Z2.400000
(G00 Z2.400000)
G00 X16.3009 Y8.9931 
G01 Z-1.700000
G01 Z2.400000
(G00 Z2.400000)
G00 X16.3009 Y11.5331 
G01 Z-1.700000
G01 Z2.400000
(G00 Z2.400000)
G00 X18.8409 Y8.9931 
G01 Z-1.700000
G01 Z2.400000
(G00 Z2.400000)
G00 X18.8409 Y11.5331 
G01 Z-1.700000
G01 Z2.400000
(G00 Z2.400000)
G00 X21.3809 Y8.9931 
G01 Z-1.700000
G01 Z2.400000
(G00 Z2.400000)
G00 X21.3809 Y11.5331 
G01 Z-1.700000
G01 Z2.400000
(G00 Z2.400000)
G00 X23.9209 Y8.9931 
G01 Z-1.700000
G01 Z2.400000
(G00 Z2.400000)
G00 X23.9209 Y11.5331 
G01 Z-1.700000
G01 Z2.400000
(G00 Z2.400000)
G00 X26.4609 Y8.9931 
G01 Z-1.700000
G01 Z2.400000
(G00 Z2.400000)
G00 X26.4609 Y11.5331 
G01 Z-1.700000
G01 Z2.400000
(G00 Z2.400000)
G00 X29.0009 Y8.9931 
G01 Z-1.700000
G01 Z2.400000
(G00 Z2.400000)
G00 X29.0009 Y11.5331 
G01 Z-1.700000
G01 Z2.400000
M05
G00 Z20.0000 
M06 T05  ; 1.1176 
G01 Z0.0000 F50.00 
M06 T05  ; 1.1176 
G00 Z2.4000 
M03
G04 P3.000000
G00 Z2.400000
G00 X72.2200 Y5.9500 
G01 Z-1.7000 F50.00 
G01 Z2.400000
(R2.4000  P1.000000)
(G00 Z2.400000)
G00 X72.2200 Y16.1100 
G01 Z-1.700000
G01 Z2.400000
M05
G00 Z20.0000 
M06 T06  ; 1.2000 
G01 Z0.0000 F50.00 
M06 T06  ; 1.2000 
G00 Z2.4000 
M03
G04 P3.000000
G00 Z2.400000
G00 X34.4590 Y35.0440 
G01 Z-1.7000 F50.00 
G01 Z2.400000
(R2.4000  P1.000000)
(G00 Z2.400000)
G00 X34.4590 Y37.5840 
G01 Z-1.700000
G01 Z2.400000
(G00 Z2.400000)
G00 X34.4590 Y24.3760 
G01 Z-1.700000
G01 Z2.400000
(G00 Z2.400000)
G00 X34.4590 Y26.9160 
G01 Z-1.700000
G01 Z2.400000
(G00 Z2.400000)
G00 X53.0010 Y35.0440 
G01 Z-1.700000
G01 Z2.400000
(G00 Z2.400000)
G00 X53.0010 Y37.5840 
G01 Z-1.700000
G01 Z2.400000
(G00 Z2.400000)
G00 X53.0010 Y24.3760 
G01 Z-1.700000
G01 Z2.400000
(G00 Z2.400000)
G00 X53.0010 Y26.9160 
G01 Z-1.700000
G01 Z2.400000
M05
G00 Z20.0000 
M06 T07  ; 1.3000 
G01 Z0.0000 F50.00 
M06 T07  ; 1.3000 
G00 Z2.4000 
M03
G04 P3.000000
G00 Z2.400000
G00 X73.6398 Y55.5867 
G01 Z-1.7000 F50.00 
G01 Z2.400000
(R2.4000  P1.000000)
(G00 Z2.400000)
G00 X78.6398 Y55.5867 
G01 Z-1.700000
G01 Z2.400000
M05
G00 Z20.0000 
M06 T08  ; 1.5000 
G01 Z0.0000 F50.00 
M06 T08  ; 1.5000 
G00 Z2.4000 
M03
G04 P3.000000
G00 Z2.400000
G00 X93.4940 Y44.1420 
G01 Z-1.7000 F50.00 
G01 Z2.400000
(R2.4000  P1.000000)
(G00 Z2.400000)
G00 X93.4940 Y4.5180 
G01 Z-1.700000
G01 Z2.400000
(G00 Z2.400000)
G00 X110.7660 Y44.1420 
G01 Z-1.700000
G01 Z2.400000
(G00 Z2.400000)
G00 X110.7660 Y4.5180 
G01 Z-1.700000
G01 Z2.400000
M05
G00 Z20.0000 
M06 T09  ; 2.7500 
G01 Z0.0000 F50.00 
M06 T09  ; 2.7500 
G00 Z2.4000 
M03
G04 P3.000000
G00 Z2.400000
G00 X6.3485 Y59.2391 
G01 Z-1.7000 F50.00 
G01 Z2.400000
(R2.4000  P1.000000)
(G00 Z2.400000)
G00 X6.3485 Y10.2391 
G01 Z-1.700000
G01 Z2.400000
(G00 Z2.400000)
G00 X64.3485 Y59.2391 
G01 Z-1.700000
G01 Z2.400000
(G00 Z2.400000)
G00 X64.3485 Y10.2391 
G01 Z-1.700000
G01 Z2.400000
M05
G00 Z20.0000 
M06 T10  ; 3.0000 
G01 Z0.0000 F50.00 
M06 T10  ; 3.0000 
G00 Z2.4000 
M03
G04 P3.000000
G00 Z2.400000
G00 X94.5100 Y38.8080 
G01 Z-1.7000 F50.00 
G01 Z2.400000
(R2.4000  P1.000000)
(G00 Z2.400000)
G00 X109.7500 Y9.0900 
G01 Z-1.700000
G01 Z2.400000
T01 
G00 Z12.7000 
M05
M02
